(www.thuijzer.nl/image2gcode)
(2016-09-13 01:13:20)
(bit size: 2mm)
(x size: 800mm)
(max z: 2mm)

G21 (Programming in millimeters)
G90 (Absolute programming)
G92 X0 Y0 Z2 (Tell the machine it is at 0, 0, 2)
G00 X0 Y-1 Z2 (Starting position)

G01 X2 Y-1 Z2
G01 X799 Y-1 Z2
G01 X799 Y-2 Z2
G01 X799 Y-3 Z2
G01 X0 Y-3 Z2
G01 X0 Y-4 Z2
G01 X0 Y-5 Z2
G01 X388 Y-5 Z2
G01 X389 Y-5 Z1.921569
G01 X390 Y-5 Z1.741176
G01 X393 Y-5 Z1.741176
G01 X394 Y-5 Z1.537255
G01 X395 Y-5 Z1.498039
G01 X398 Y-5 Z1.498039
G01 X399 Y-5 Z1.403922
G01 X400 Y-5 Z1.482353
G01 X401 Y-5 Z1.498039
G01 X404 Y-5 Z1.498039
G01 X405 Y-5 Z1.607843
G01 X406 Y-5 Z1.741176
G01 X408 Y-5 Z1.741176
G01 X409 Y-5 Z1.756863
G01 X410 Y-5 Z2
G01 X799 Y-5 Z2
G01 X799 Y-6 Z2
G01 X799 Y-7 Z2
G01 X441 Y-7 Z2
G01 X440 Y-7 Z1.843137
G01 X439 Y-7 Z1.419608
G01 X438 Y-7 Z1.152941
G01 X437 Y-7 Z0.886275
G01 X436 Y-7 Z0.658824
G01 X435 Y-7 Z0.478431
G01 X434 Y-7 Z0.313725
G01 X433 Y-7 Z0.180392
G01 X432 Y-7 Z0.094118
G01 X431 Y-7 Z0.031373
G01 X430 Y-7 Z0
G01 X369 Y-7 Z0
G01 X368 Y-7 Z0.015686
G01 X367 Y-7 Z0.070588
G01 X366 Y-7 Z0.156863
G01 X365 Y-7 Z0.266667
G01 X364 Y-7 Z0.407843
G01 X363 Y-7 Z0.603922
G01 X362 Y-7 Z0.8
G01 X361 Y-7 Z1.05098
G01 X360 Y-7 Z1.341176
G01 X359 Y-7 Z1.678431
G01 X358 Y-7 Z2
G01 X0 Y-7 Z2
G01 X0 Y-8 Z2
G01 X0 Y-9 Z2
G01 X342 Y-9 Z2
G01 X343 Y-9 Z1.741176
G01 X344 Y-9 Z1.278431
G01 X345 Y-9 Z0.886275
G01 X346 Y-9 Z0.564706
G01 X347 Y-9 Z0.313725
G01 X348 Y-9 Z0.141176
G01 X349 Y-9 Z0.031373
G01 X350 Y-9 Z0
G01 X449 Y-9 Z0
G01 X450 Y-9 Z0.007843
G01 X451 Y-9 Z0.101961
G01 X452 Y-9 Z0.313725
G01 X453 Y-9 Z0.564706
G01 X454 Y-9 Z0.886275
G01 X455 Y-9 Z1.278431
G01 X456 Y-9 Z1.796078
G01 X457 Y-9 Z2
G01 X799 Y-9 Z2
G01 X799 Y-10 Z2
G01 X799 Y-11 Z2
G01 X470 Y-11 Z2
G01 X469 Y-11 Z1.968627
G01 X468 Y-11 Z1.380392
G01 X467 Y-11 Z0.886275
G01 X466 Y-11 Z0.494118
G01 X465 Y-11 Z0.219608
G01 X464 Y-11 Z0.078431
G01 X463 Y-11 Z0
G01 X336 Y-11 Z0
G01 X335 Y-11 Z0.078431
G01 X334 Y-11 Z0.258824
G01 X333 Y-11 Z0.564706
G01 X332 Y-11 Z0.972549
G01 X331 Y-11 Z1.498039
G01 X330 Y-11 Z1.921569
G01 X329 Y-11 Z2
G01 X0 Y-11 Z2
G01 X0 Y-12 Z2
G01 X0 Y-13 Z2
G01 X319 Y-13 Z2
G01 X320 Y-13 Z1.709804
G01 X321 Y-13 Z1.058824
G01 X322 Y-13 Z0.564706
G01 X323 Y-13 Z0.227451
G01 X324 Y-13 Z0.039216
G01 X325 Y-13 Z0
G01 X474 Y-13 Z0
G01 X475 Y-13 Z0.086275
G01 X476 Y-13 Z0.321569
G01 X477 Y-13 Z0.713725
G01 X478 Y-13 Z1.254902
G01 X479 Y-13 Z1.890196
G01 X480 Y-13 Z2
G01 X799 Y-13 Z2
G01 X799 Y-14 Z2
G01 X799 Y-15 Z2
G01 X489 Y-15 Z2
G01 X488 Y-15 Z1.796078
G01 X487 Y-15 Z1.098039
G01 X486 Y-15 Z0.533333
G01 X485 Y-15 Z0.180392
G01 X484 Y-15 Z0.007843
G01 X483 Y-15 Z0
G01 X428 Y-15 Z0
G01 X427 Y-15 Z0.015686
G01 X426 Y-15 Z0.141176
G01 X425 Y-15 Z0.266667
G01 X424 Y-15 Z0.4
G01 X423 Y-15 Z0.52549
G01 X422 Y-15 Z0.65098
G01 X421 Y-15 Z0.854902
G01 X420 Y-15 Z1.223529
G01 X419 Y-15 Z1.560784
G01 X418 Y-15 Z1.835294
G01 X417 Y-15 Z2
G01 X382 Y-15 Z2
G01 X381 Y-15 Z1.87451
G01 X380 Y-15 Z1.74902
G01 X379 Y-15 Z1.333333
G01 X378 Y-15 Z0.956863
G01 X377 Y-15 Z0.690196
G01 X376 Y-15 Z0.564706
G01 X375 Y-15 Z0.439216
G01 X374 Y-15 Z0.313725
G01 X373 Y-15 Z0.188235
G01 X372 Y-15 Z0.062745
G01 X371 Y-15 Z0
G01 X315 Y-15 Z0
G01 X314 Y-15 Z0.101961
G01 X313 Y-15 Z0.392157
G01 X312 Y-15 Z0.878431
G01 X311 Y-15 Z1.552941
G01 X310 Y-15 Z2
G01 X0 Y-15 Z2
G01 X0 Y-16 Z2
G01 X0 Y-17 Z2
G01 X301 Y-17 Z2
G01 X302 Y-17 Z1.984314
G01 X303 Y-17 Z1.388235
G01 X304 Y-17 Z0.690196
G01 X305 Y-17 Z0.235294
G01 X306 Y-17 Z0.015686
G01 X307 Y-17 Z0
G01 X350 Y-17 Z0
G01 X351 Y-17 Z0.039216
G01 X352 Y-17 Z0.25098
G01 X353 Y-17 Z0.478431
G01 X354 Y-17 Z0.745098
G01 X355 Y-17 Z1.356863
G01 X356 Y-17 Z2
G01 X442 Y-17 Z2
G01 X443 Y-17 Z1.968627
G01 X444 Y-17 Z1.090196
G01 X445 Y-17 Z0.627451
G01 X446 Y-17 Z0.407843
G01 X447 Y-17 Z0.188235
G01 X448 Y-17 Z0
G01 X492 Y-17 Z0
G01 X493 Y-17 Z0.062745
G01 X494 Y-17 Z0.360784
G01 X495 Y-17 Z0.909804
G01 X496 Y-17 Z1.662745
G01 X497 Y-17 Z2
G01 X799 Y-17 Z2
G01 X799 Y-18 Z2
G01 X799 Y-19 Z2
G01 X505 Y-19 Z2
G01 X504 Y-19 Z1.952941
G01 X503 Y-19 Z1.2
G01 X502 Y-19 Z0.509804
G01 X501 Y-19 Z0.109804
G01 X500 Y-19 Z0
G01 X462 Y-19 Z0
G01 X461 Y-19 Z0.211765
G01 X460 Y-19 Z0.541176
G01 X459 Y-19 Z1.121569
G01 X458 Y-19 Z2
G01 X341 Y-19 Z2
G01 X340 Y-19 Z1.466667
G01 X339 Y-19 Z0.65098
G01 X338 Y-19 Z0.313725
G01 X337 Y-19 Z0.031373
G01 X336 Y-19 Z0
G01 X299 Y-19 Z0
G01 X298 Y-19 Z0.039216
G01 X297 Y-19 Z0.337255
G01 X296 Y-19 Z0.92549
G01 X295 Y-19 Z1.764706
G01 X294 Y-19 Z2
G01 X0 Y-19 Z2
G01 X0 Y-20 Z2
G01 X0 Y-21 Z2
G01 X287 Y-21 Z2
G01 X288 Y-21 Z1.827451
G01 X289 Y-21 Z0.972549
G01 X290 Y-21 Z0.313725
G01 X291 Y-21 Z0.015686
G01 X292 Y-21 Z0
G01 X325 Y-21 Z0
G01 X326 Y-21 Z0.094118
G01 X327 Y-21 Z0.4
G01 X328 Y-21 Z0.752941
G01 X329 Y-21 Z2
G01 X470 Y-21 Z2
G01 X471 Y-21 Z0.752941
G01 X472 Y-21 Z0.4
G01 X473 Y-21 Z0.047059
G01 X474 Y-21 Z0
G01 X507 Y-21 Z0
G01 X508 Y-21 Z0.031373
G01 X509 Y-21 Z0.368627
G01 X510 Y-21 Z1.07451
G01 X511 Y-21 Z1.921569
G01 X512 Y-21 Z2
G01 X799 Y-21 Z2
G01 X799 Y-22 Z2
G01 X799 Y-23 Z2
G01 X518 Y-23 Z2
G01 X517 Y-23 Z1.513725
G01 X516 Y-23 Z0.596078
G01 X515 Y-23 Z0.12549
G01 X514 Y-23 Z0
G01 X484 Y-23 Z0
G01 X483 Y-23 Z0.007843
G01 X482 Y-23 Z0.329412
G01 X481 Y-23 Z0.752941
G01 X480 Y-23 Z2
G01 X319 Y-23 Z2
G01 X318 Y-23 Z0.752941
G01 X317 Y-23 Z0.329412
G01 X316 Y-23 Z0.023529
G01 X315 Y-23 Z0
G01 X285 Y-23 Z0
G01 X284 Y-23 Z0.039216
G01 X283 Y-23 Z0.4
G01 X282 Y-23 Z1.168627
G01 X281 Y-23 Z1.968627
G01 X280 Y-23 Z2
G01 X0 Y-23 Z2
G01 X0 Y-24 Z2
G01 X0 Y-25 Z2
G01 X274 Y-25 Z2
G01 X275 Y-25 Z1.905882
G01 X276 Y-25 Z1.011765
G01 X277 Y-25 Z0.298039
G01 X278 Y-25 Z0.007843
G01 X279 Y-25 Z0
G01 X307 Y-25 Z0
G01 X308 Y-25 Z0.25098
G01 X309 Y-25 Z0.768627
G01 X310 Y-25 Z2
G01 X488 Y-25 Z2
G01 X489 Y-25 Z1.835294
G01 X490 Y-25 Z0.580392
G01 X491 Y-25 Z0.109804
G01 X492 Y-25 Z0
G01 X520 Y-25 Z0
G01 X521 Y-25 Z0.054902
G01 X522 Y-25 Z0.494118
G01 X523 Y-25 Z1.34902
G01 X524 Y-25 Z2
G01 X799 Y-25 Z2
G01 X799 Y-26 Z2
G01 X799 Y-27 Z2
G01 X530 Y-27 Z2
G01 X529 Y-27 Z1.47451
G01 X528 Y-27 Z0.494118
G01 X527 Y-27 Z0.047059
G01 X526 Y-27 Z0
G01 X500 Y-27 Z0
G01 X499 Y-27 Z0.070588
G01 X498 Y-27 Z0.54902
G01 X497 Y-27 Z1.937255
G01 X496 Y-27 Z2
G01 X302 Y-27 Z2
G01 X301 Y-27 Z0.752941
G01 X300 Y-27 Z0.188235
G01 X299 Y-27 Z0
G01 X273 Y-27 Z0
G01 X272 Y-27 Z0.007843
G01 X271 Y-27 Z0.368627
G01 X270 Y-27 Z1.168627
G01 X269 Y-27 Z1.968627
G01 X268 Y-27 Z2
G01 X0 Y-27 Z2
G01 X0 Y-28 Z2
G01 X0 Y-29 Z2
G01 X263 Y-29 Z2
G01 X264 Y-29 Z1.529412
G01 X265 Y-29 Z0.533333
G01 X266 Y-29 Z0.047059
G01 X267 Y-29 Z0
G01 X292 Y-29 Z0
G01 X293 Y-29 Z0.360784
G01 X294 Y-29 Z1.333333
G01 X295 Y-29 Z2
G01 X504 Y-29 Z2
G01 X505 Y-29 Z0.8
G01 X506 Y-29 Z0.172549
G01 X507 Y-29 Z0
G01 X532 Y-29 Z0
G01 X533 Y-29 Z0.156863
G01 X534 Y-29 Z0.8
G01 X535 Y-29 Z1.827451
G01 X536 Y-29 Z2
G01 X799 Y-29 Z2
G01 X799 Y-30 Z2
G01 X799 Y-31 Z2
G01 X541 Y-31 Z2
G01 X540 Y-31 Z1.537255
G01 X539 Y-31 Z0.494118
G01 X538 Y-31 Z0.039216
G01 X537 Y-31 Z0
G01 X514 Y-31 Z0
G01 X513 Y-31 Z0.094118
G01 X512 Y-31 Z0.666667
G01 X511 Y-31 Z2
G01 X288 Y-31 Z2
G01 X287 Y-31 Z0.752941
G01 X286 Y-31 Z0.156863
G01 X285 Y-31 Z0
G01 X262 Y-31 Z0
G01 X261 Y-31 Z0.007843
G01 X260 Y-31 Z0.368627
G01 X259 Y-31 Z1.278431
G01 X258 Y-31 Z2
G01 X0 Y-31 Z2
G01 X0 Y-32 Z2
G01 X0 Y-33 Z2
G01 X252 Y-33 Z2
G01 X253 Y-33 Z1.968627
G01 X254 Y-33 Z1.05098
G01 X255 Y-33 Z0.196078
G01 X256 Y-33 Z0
G01 X279 Y-33 Z0
G01 X280 Y-33 Z0.329412
G01 X281 Y-33 Z1.333333
G01 X282 Y-33 Z2
G01 X517 Y-33 Z2
G01 X518 Y-33 Z1.090196
G01 X519 Y-33 Z0.188235
G01 X520 Y-33 Z0
G01 X542 Y-33 Z0
G01 X543 Y-33 Z0.007843
G01 X544 Y-33 Z0.4
G01 X545 Y-33 Z1.458824
G01 X546 Y-33 Z2
G01 X799 Y-33 Z2
G01 X799 Y-34 Z2
G01 X799 Y-35 Z2
G01 X551 Y-35 Z2
G01 X550 Y-35 Z1.537255
G01 X549 Y-35 Z0.431373
G01 X548 Y-35 Z0.015686
G01 X547 Y-35 Z0
G01 X526 Y-35 Z0
G01 X525 Y-35 Z0.156863
G01 X524 Y-35 Z0.996078
G01 X523 Y-35 Z2
G01 X276 Y-35 Z2
G01 X275 Y-35 Z1.835294
G01 X274 Y-35 Z0.360784
G01 X273 Y-35 Z0
G01 X251 Y-35 Z0
G01 X250 Y-35 Z0.313725
G01 X249 Y-35 Z1.278431
G01 X248 Y-35 Z2
G01 X0 Y-35 Z2
G01 X0 Y-36 Z2
G01 X0 Y-37 Z2
G01 X243 Y-37 Z2
G01 X244 Y-37 Z1.607843
G01 X245 Y-37 Z0.494118
G01 X246 Y-37 Z0.007843
G01 X247 Y-37 Z0
G01 X267 Y-37 Z0
G01 X268 Y-37 Z0.133333
G01 X269 Y-37 Z0.752941
G01 X270 Y-37 Z2
G01 X529 Y-37 Z2
G01 X530 Y-37 Z0.666667
G01 X531 Y-37 Z0.047059
G01 X532 Y-37 Z0
G01 X552 Y-37 Z0
G01 X553 Y-37 Z0.039216
G01 X554 Y-37 Z0.635294
G01 X555 Y-37 Z1.827451
G01 X556 Y-37 Z2
G01 X799 Y-37 Z2
G01 X799 Y-38 Z2
G01 X799 Y-39 Z2
G01 X560 Y-39 Z2
G01 X559 Y-39 Z1.215686
G01 X558 Y-39 Z0.227451
G01 X557 Y-39 Z0
G01 X537 Y-39 Z0
G01 X536 Y-39 Z0.172549
G01 X535 Y-39 Z1.168627
G01 X534 Y-39 Z2
G01 X264 Y-39 Z2
G01 X263 Y-39 Z0.376471
G01 X262 Y-39 Z0
G01 X242 Y-39 Z0
G01 X241 Y-39 Z0.078431
G01 X240 Y-39 Z0.8
G01 X239 Y-39 Z1.905882
G01 X238 Y-39 Z2
G01 X0 Y-39 Z2
G01 X0 Y-40 Z2
G01 X0 Y-41 Z2
G01 X234 Y-41 Z2
G01 X235 Y-41 Z1.537255
G01 X236 Y-41 Z0.368627
G01 X237 Y-41 Z0
G01 X256 Y-41 Z0
G01 X257 Y-41 Z0.015686
G01 X258 Y-41 Z0.564706
G01 X259 Y-41 Z2
G01 X539 Y-41 Z2
G01 X540 Y-41 Z1.905882
G01 X541 Y-41 Z0.298039
G01 X542 Y-41 Z0
G01 X561 Y-41 Z0
G01 X562 Y-41 Z0.031373
G01 X563 Y-41 Z0.635294
G01 X564 Y-41 Z1.843137
G01 X565 Y-41 Z2
G01 X799 Y-41 Z2
G01 X799 Y-42 Z2
G01 X799 Y-43 Z2
G01 X569 Y-43 Z2
G01 X568 Y-43 Z1.584314
G01 X567 Y-43 Z0.368627
G01 X566 Y-43 Z0
G01 X547 Y-43 Z0
G01 X546 Y-43 Z0.227451
G01 X545 Y-43 Z1.647059
G01 X544 Y-43 Z2
G01 X254 Y-43 Z2
G01 X253 Y-43 Z0.470588
G01 X252 Y-43 Z0
G01 X233 Y-43 Z0
G01 X232 Y-43 Z0.258824
G01 X231 Y-43 Z1.278431
G01 X230 Y-43 Z2
G01 X0 Y-43 Z2
G01 X0 Y-44 Z2
G01 X0 Y-45 Z2
G01 X226 Y-45 Z2
G01 X227 Y-45 Z1.07451
G01 X228 Y-45 Z0.086275
G01 X229 Y-45 Z0
G01 X247 Y-45 Z0
G01 X248 Y-45 Z0.305882
G01 X249 Y-45 Z2
G01 X549 Y-45 Z2
G01 X550 Y-45 Z1.168627
G01 X551 Y-45 Z0.109804
G01 X552 Y-45 Z0
G01 X570 Y-45 Z0
G01 X571 Y-45 Z0.219608
G01 X572 Y-45 Z1.427451
G01 X573 Y-45 Z2
G01 X799 Y-45 Z2
G01 X799 Y-46 Z2
G01 X799 Y-47 Z2
G01 X577 Y-47 Z2
G01 X576 Y-47 Z1.419608
G01 X575 Y-47 Z0.219608
G01 X574 Y-47 Z0
G01 X557 Y-47 Z0
G01 X556 Y-47 Z0.007843
G01 X555 Y-47 Z0.596078
G01 X554 Y-47 Z2
G01 X245 Y-47 Z2
G01 X244 Y-47 Z0.752941
G01 X243 Y-47 Z0.054902
G01 X242 Y-47 Z0
G01 X225 Y-47 Z0
G01 X224 Y-47 Z0.078431
G01 X223 Y-47 Z1.07451
G01 X222 Y-47 Z2
G01 X0 Y-47 Z2
G01 X0 Y-48 Z2
G01 X0 Y-49 Z2
G01 X218 Y-49 Z2
G01 X219 Y-49 Z1.011765
G01 X220 Y-49 Z0.070588
G01 X221 Y-49 Z0
G01 X238 Y-49 Z0
G01 X239 Y-49 Z0.27451
G01 X240 Y-49 Z2
G01 X558 Y-49 Z2
G01 X559 Y-49 Z1.560784
G01 X560 Y-49 Z0.133333
G01 X561 Y-49 Z0
G01 X578 Y-49 Z0
G01 X579 Y-49 Z0.258824
G01 X580 Y-49 Z1.513725
G01 X581 Y-49 Z2
G01 X799 Y-49 Z2
G01 X799 Y-50 Z2
G01 X799 Y-51 Z2
G01 X585 Y-51 Z2
G01 X584 Y-51 Z1.756863
G01 X583 Y-51 Z0.431373
G01 X582 Y-51 Z0
G01 X565 Y-51 Z0
G01 X564 Y-51 Z0.305882
G01 X563 Y-51 Z2
G01 X236 Y-51 Z2
G01 X235 Y-51 Z0.462745
G01 X234 Y-51 Z0
G01 X217 Y-51 Z0
G01 X216 Y-51 Z0.219608
G01 X215 Y-51 Z1.388235
G01 X214 Y-51 Z2
G01 X0 Y-51 Z2
G01 X0 Y-52 Z2
G01 X0 Y-53 Z2
G01 X210 Y-53 Z2
G01 X211 Y-53 Z1.662745
G01 X212 Y-53 Z0.345098
G01 X213 Y-53 Z0
G01 X229 Y-53 Z0
G01 X230 Y-53 Z0.015686
G01 X231 Y-53 Z0.666667
G01 X232 Y-53 Z2
G01 X567 Y-53 Z2
G01 X568 Y-53 Z0.423529
G01 X569 Y-53 Z0
G01 X585 Y-53 Z0
G01 X586 Y-53 Z0.015686
G01 X587 Y-53 Z0.713725
G01 X588 Y-53 Z1.952941
G01 X589 Y-53 Z2
G01 X799 Y-53 Z2
G01 X799 Y-54 Z2
G01 X799 Y-55 Z2
G01 X592 Y-55 Z2
G01 X591 Y-55 Z1.32549
G01 X590 Y-55 Z0.141176
G01 X589 Y-55 Z0
G01 X573 Y-55 Z0
G01 X572 Y-55 Z0.439216
G01 X571 Y-55 Z2
G01 X228 Y-55 Z2
G01 X227 Y-55 Z0.666667
G01 X226 Y-55 Z0.015686
G01 X225 Y-55 Z0
G01 X210 Y-55 Z0
G01 X209 Y-55 Z0.031373
G01 X208 Y-55 Z0.886275
G01 X207 Y-55 Z1.984314
G01 X206 Y-55 Z2
G01 X0 Y-55 Z2
G01 X0 Y-56 Z2
G01 X0 Y-57 Z2
G01 X203 Y-57 Z2
G01 X204 Y-57 Z1.552941
G01 X205 Y-57 Z0.258824
G01 X206 Y-57 Z0
G01 X221 Y-57 Z0
G01 X222 Y-57 Z0.015686
G01 X223 Y-57 Z0.729412
G01 X224 Y-57 Z2
G01 X575 Y-57 Z2
G01 X576 Y-57 Z0.376471
G01 X577 Y-57 Z0
G01 X593 Y-57 Z0
G01 X594 Y-57 Z0.431373
G01 X595 Y-57 Z1.811765
G01 X596 Y-57 Z2
G01 X799 Y-57 Z2
G01 X799 Y-58 Z2
G01 X799 Y-59 Z2
G01 X599 Y-59 Z2
G01 X598 Y-59 Z1.34902
G01 X597 Y-59 Z0.12549
G01 X596 Y-59 Z0
G01 X581 Y-59 Z0
G01 X580 Y-59 Z0.203922
G01 X579 Y-59 Z2
G01 X220 Y-59 Z2
G01 X219 Y-59 Z0.447059
G01 X218 Y-59 Z0
G01 X203 Y-59 Z0
G01 X202 Y-59 Z0.023529
G01 X201 Y-59 Z0.972549
G01 X200 Y-59 Z2
G01 X0 Y-59 Z2
G01 X0 Y-60 Z2
G01 X0 Y-61 Z2
G01 X196 Y-61 Z2
G01 X197 Y-61 Z1.756863
G01 X198 Y-61 Z0.368627
G01 X199 Y-61 Z0
G01 X214 Y-61 Z0
G01 X215 Y-61 Z0.258824
G01 X216 Y-61 Z2
G01 X582 Y-61 Z2
G01 X583 Y-61 Z1.356863
G01 X584 Y-61 Z0.062745
G01 X585 Y-61 Z0
G01 X599 Y-61 Z0
G01 X600 Y-61 Z0.007843
G01 X601 Y-61 Z0.635294
G01 X602 Y-61 Z1.968627
G01 X603 Y-61 Z2
G01 X799 Y-61 Z2
G01 X799 Y-62 Z2
G01 X799 Y-63 Z2
G01 X606 Y-63 Z2
G01 X605 Y-63 Z1.780392
G01 X604 Y-63 Z0.313725
G01 X603 Y-63 Z0
G01 X588 Y-63 Z0
G01 X587 Y-63 Z0.486275
G01 X586 Y-63 Z2
G01 X213 Y-63 Z2
G01 X212 Y-63 Z0.917647
G01 X211 Y-63 Z0.031373
G01 X210 Y-63 Z0
G01 X196 Y-63 Z0
G01 X195 Y-63 Z0.094118
G01 X194 Y-63 Z1.34902
G01 X193 Y-63 Z2
G01 X0 Y-63 Z2
G01 X0 Y-64 Z2
G01 X0 Y-65 Z2
G01 X190 Y-65 Z2
G01 X191 Y-65 Z1.003922
G01 X192 Y-65 Z0.031373
G01 X193 Y-65 Z0
G01 X207 Y-65 Z0
G01 X208 Y-65 Z0.337255
G01 X209 Y-65 Z2
G01 X590 Y-65 Z2
G01 X591 Y-65 Z0.164706
G01 X592 Y-65 Z0
G01 X606 Y-65 Z0
G01 X607 Y-65 Z0.172549
G01 X608 Y-65 Z1.529412
G01 X609 Y-65 Z2
G01 X799 Y-65 Z2
G01 X799 Y-66 Z2
G01 X799 Y-67 Z2
G01 X612 Y-67 Z2
G01 X611 Y-67 Z1.215686
G01 X610 Y-67 Z0.062745
G01 X609 Y-67 Z0
G01 X595 Y-67 Z0
G01 X594 Y-67 Z0.447059
G01 X593 Y-67 Z2
G01 X206 Y-67 Z2
G01 X205 Y-67 Z1.019608
G01 X204 Y-67 Z0.023529
G01 X203 Y-67 Z0
G01 X190 Y-67 Z0
G01 X189 Y-67 Z0.007843
G01 X188 Y-67 Z0.792157
G01 X187 Y-67 Z1.984314
G01 X186 Y-67 Z2
G01 X0 Y-67 Z2
G01 X0 Y-68 Z2
G01 X0 Y-69 Z2
G01 X183 Y-69 Z2
G01 X184 Y-69 Z1.968627
G01 X185 Y-69 Z0.713725
G01 X186 Y-69 Z0
G01 X200 Y-69 Z0
G01 X201 Y-69 Z0.196078
G01 X202 Y-69 Z2
G01 X596 Y-69 Z2
G01 X597 Y-69 Z1.560784
G01 X598 Y-69 Z0.047059
G01 X599 Y-69 Z0
G01 X612 Y-69 Z0
G01 X613 Y-69 Z0.031373
G01 X614 Y-69 Z1.098039
G01 X615 Y-69 Z2
G01 X799 Y-69 Z2
G01 X799 Y-70 Z2
G01 X799 Y-71 Z2
G01 X618 Y-71 Z2
G01 X617 Y-71 Z1.082353
G01 X616 Y-71 Z0.031373
G01 X615 Y-71 Z0
G01 X602 Y-71 Z0
G01 X601 Y-71 Z0.172549
G01 X600 Y-71 Z2
G01 X199 Y-71 Z2
G01 X198 Y-71 Z0.4
G01 X197 Y-71 Z0
G01 X183 Y-71 Z0
G01 X182 Y-71 Z0.54902
G01 X181 Y-71 Z1.937255
G01 X180 Y-71 Z2
G01 X0 Y-71 Z2
G01 X0 Y-72 Z2
G01 X0 Y-73 Z2
G01 X177 Y-73 Z2
G01 X178 Y-73 Z1.952941
G01 X179 Y-73 Z0.533333
G01 X180 Y-73 Z0
G01 X194 Y-73 Z0
G01 X195 Y-73 Z0.596078
G01 X196 Y-73 Z2
G01 X603 Y-73 Z2
G01 X604 Y-73 Z0.337255
G01 X605 Y-73 Z0
G01 X618 Y-73 Z0
G01 X619 Y-73 Z0.023529
G01 X620 Y-73 Z1.082353
G01 X621 Y-73 Z2
G01 X799 Y-73 Z2
G01 X799 Y-74 Z2
G01 X799 Y-75 Z2
G01 X624 Y-75 Z2
G01 X623 Y-75 Z1.278431
G01 X622 Y-75 Z0.047059
G01 X621 Y-75 Z0
G01 X608 Y-75 Z0
G01 X607 Y-75 Z0.509804
G01 X606 Y-75 Z2
G01 X193 Y-75 Z2
G01 X192 Y-75 Z1.333333
G01 X191 Y-75 Z0.031373
G01 X190 Y-75 Z0
G01 X177 Y-75 Z0
G01 X176 Y-75 Z0.792157
G01 X175 Y-75 Z2
G01 X0 Y-75 Z2
G01 X0 Y-76 Z2
G01 X0 Y-77 Z2
G01 X172 Y-77 Z2
G01 X173 Y-77 Z0.909804
G01 X174 Y-77 Z0.007843
G01 X175 Y-77 Z0
G01 X187 Y-77 Z0
G01 X188 Y-77 Z0.039216
G01 X189 Y-77 Z1.505882
G01 X190 Y-77 Z2
G01 X609 Y-77 Z2
G01 X610 Y-77 Z0.54902
G01 X611 Y-77 Z0
G01 X624 Y-77 Z0
G01 X625 Y-77 Z0.086275
G01 X626 Y-77 Z1.443137
G01 X627 Y-77 Z2
G01 X799 Y-77 Z2
G01 X799 Y-78 Z2
G01 X799 Y-79 Z2
G01 X630 Y-79 Z2
G01 X629 Y-79 Z1.72549
G01 X628 Y-79 Z0.196078
G01 X627 Y-79 Z0
G01 X614 Y-79 Z0
G01 X613 Y-79 Z0.627451
G01 X612 Y-79 Z2
G01 X187 Y-79 Z2
G01 X186 Y-79 Z1.333333
G01 X185 Y-79 Z0.039216
G01 X184 Y-79 Z0
G01 X172 Y-79 Z0
G01 X171 Y-79 Z0.039216
G01 X170 Y-79 Z1.262745
G01 X169 Y-79 Z2
G01 X0 Y-79 Z2
G01 X0 Y-80 Z2
G01 X0 Y-81 Z2
G01 X166 Y-81 Z2
G01 X167 Y-81 Z1.654902
G01 X168 Y-81 Z0.14902
G01 X169 Y-81 Z0
G01 X181 Y-81 Z0
G01 X182 Y-81 Z0.031373
G01 X183 Y-81 Z1.333333
G01 X184 Y-81 Z2
G01 X615 Y-81 Z2
G01 X616 Y-81 Z0.580392
G01 X617 Y-81 Z0
G01 X630 Y-81 Z0
G01 X631 Y-81 Z0.52549
G01 X632 Y-81 Z1.968627
G01 X633 Y-81 Z2
G01 X799 Y-81 Z2
G01 X799 Y-82 Z2
G01 X799 Y-83 Z2
G01 X635 Y-83 Z2
G01 X634 Y-83 Z0.980392
G01 X633 Y-83 Z0.007843
G01 X632 Y-83 Z0
G01 X620 Y-83 Z0
G01 X619 Y-83 Z0.4
G01 X618 Y-83 Z2
G01 X181 Y-83 Z2
G01 X180 Y-83 Z0.980392
G01 X179 Y-83 Z0.007843
G01 X178 Y-83 Z0
G01 X166 Y-83 Z0
G01 X165 Y-83 Z0.494118
G01 X164 Y-83 Z1.937255
G01 X163 Y-83 Z2
G01 X0 Y-83 Z2
G01 X0 Y-84 Z2
G01 X0 Y-85 Z2
G01 X161 Y-85 Z2
G01 X162 Y-85 Z1.098039
G01 X163 Y-85 Z0.015686
G01 X164 Y-85 Z0
G01 X176 Y-85 Z0
G01 X177 Y-85 Z0.666667
G01 X178 Y-85 Z2
G01 X621 Y-85 Z2
G01 X622 Y-85 Z0.282353
G01 X623 Y-85 Z0
G01 X635 Y-85 Z0
G01 X636 Y-85 Z0.086275
G01 X637 Y-85 Z1.537255
G01 X638 Y-85 Z2
G01 X799 Y-85 Z2
G01 X799 Y-86 Z2
G01 X799 Y-87 Z2
G01 X641 Y-87 Z2
G01 X640 Y-87 Z1.968627
G01 X639 Y-87 Z0.494118
G01 X638 Y-87 Z0
G01 X626 Y-87 Z0
G01 X625 Y-87 Z0.12549
G01 X624 Y-87 Z2
G01 X175 Y-87 Z2
G01 X174 Y-87 Z0.337255
G01 X173 Y-87 Z0
G01 X161 Y-87 Z0
G01 X160 Y-87 Z0.14902
G01 X159 Y-87 Z1.694118
G01 X158 Y-87 Z2
G01 X0 Y-87 Z2
G01 X0 Y-88 Z2
G01 X0 Y-89 Z2
G01 X156 Y-89 Z2
G01 X157 Y-89 Z0.713725
G01 X158 Y-89 Z0
G01 X170 Y-89 Z0
G01 X171 Y-89 Z0.14902
G01 X172 Y-89 Z2
G01 X626 Y-89 Z2
G01 X627 Y-89 Z1.223529
G01 X628 Y-89 Z0.007843
G01 X629 Y-89 Z0
G01 X640 Y-89 Z0
G01 X641 Y-89 Z0.023529
G01 X642 Y-89 Z1.215686
G01 X643 Y-89 Z2
G01 X799 Y-89 Z2
G01 X799 Y-90 Z2
G01 X799 Y-91 Z2
G01 X646 Y-91 Z2
G01 X645 Y-91 Z1.921569
G01 X644 Y-91 Z0.313725
G01 X643 Y-91 Z0
G01 X631 Y-91 Z0
G01 X630 Y-91 Z0.509804
G01 X629 Y-91 Z2
G01 X170 Y-91 Z2
G01 X169 Y-91 Z1.560784
G01 X168 Y-91 Z0.015686
G01 X167 Y-91 Z0
G01 X156 Y-91 Z0
G01 X155 Y-91 Z0.086275
G01 X154 Y-91 Z1.584314
G01 X153 Y-91 Z2
G01 X0 Y-91 Z2
G01 X0 Y-92 Z2
G01 X0 Y-93 Z2
G01 X151 Y-93 Z2
G01 X152 Y-93 Z0.713725
G01 X153 Y-93 Z0
G01 X165 Y-93 Z0
G01 X166 Y-93 Z0.4
G01 X167 Y-93 Z2
G01 X632 Y-93 Z2
G01 X633 Y-93 Z0.141176
G01 X634 Y-93 Z0
G01 X645 Y-93 Z0
G01 X646 Y-93 Z0.023529
G01 X647 Y-93 Z1.254902
G01 X648 Y-93 Z2
G01 X799 Y-93 Z2
G01 X799 Y-94 Z2
G01 X799 Y-95 Z2
G01 X651 Y-95 Z2
G01 X650 Y-95 Z1.937255
G01 X649 Y-95 Z0.313725
G01 X648 Y-95 Z0
G01 X636 Y-95 Z0
G01 X635 Y-95 Z1.090196
G01 X634 Y-95 Z2
G01 X164 Y-95 Z2
G01 X163 Y-95 Z0.094118
G01 X162 Y-95 Z0
G01 X151 Y-95 Z0
G01 X150 Y-95 Z0.094118
G01 X149 Y-95 Z1.607843
G01 X148 Y-95 Z2
G01 X0 Y-95 Z2
G01 X0 Y-96 Z2
G01 X0 Y-97 Z2
G01 X146 Y-97 Z2
G01 X147 Y-97 Z1.003922
G01 X148 Y-97 Z0
G01 X160 Y-97 Z0
G01 X161 Y-97 Z0.65098
G01 X162 Y-97 Z2
G01 X637 Y-97 Z2
G01 X638 Y-97 Z0.258824
G01 X639 Y-97 Z0
G01 X650 Y-97 Z0
G01 X651 Y-97 Z0.054902
G01 X652 Y-97 Z1.529412
G01 X653 Y-97 Z2
G01 X799 Y-97 Z2
G01 X799 Y-98 Z2
G01 X799 Y-99 Z2
G01 X655 Y-99 Z2
G01 X654 Y-99 Z0.823529
G01 X653 Y-99 Z0
G01 X641 Y-99 Z0
G01 X640 Y-99 Z1.333333
G01 X639 Y-99 Z2
G01 X159 Y-99 Z2
G01 X158 Y-99 Z0.101961
G01 X157 Y-99 Z0
G01 X146 Y-99 Z0
G01 X145 Y-99 Z0.337255
G01 X144 Y-99 Z1.937255
G01 X143 Y-99 Z2
G01 X0 Y-99 Z2
G01 X0 Y-100 Z2
G01 X0 Y-101 Z2
G01 X141 Y-101 Z2
G01 X142 Y-101 Z1.482353
G01 X143 Y-101 Z0.047059
G01 X144 Y-101 Z0
G01 X155 Y-101 Z0
G01 X156 Y-101 Z0.588235
G01 X157 Y-101 Z2
G01 X642 Y-101 Z2
G01 X643 Y-101 Z0.219608
G01 X644 Y-101 Z0
G01 X655 Y-101 Z0
G01 X656 Y-101 Z0.227451
G01 X657 Y-101 Z1.858824
G01 X658 Y-101 Z2
G01 X799 Y-101 Z2
G01 X799 Y-102 Z2
G01 X799 Y-103 Z2
G01 X660 Y-103 Z2
G01 X659 Y-103 Z1.552941
G01 X658 Y-103 Z0.047059
G01 X657 Y-103 Z0
G01 X646 Y-103 Z0
G01 X645 Y-103 Z0.784314
G01 X644 Y-103 Z2
G01 X154 Y-103 Z2
G01 X153 Y-103 Z0.054902
G01 X152 Y-103 Z0
G01 X141 Y-103 Z0
G01 X140 Y-103 Z0.92549
G01 X139 Y-103 Z2
G01 X0 Y-103 Z2
G01 X0 Y-104 Z2
G01 X0 Y-105 Z2
G01 X136 Y-105 Z2
G01 X137 Y-105 Z1.984314
G01 X138 Y-105 Z0.494118
G01 X139 Y-105 Z0
G01 X150 Y-105 Z0
G01 X151 Y-105 Z0.290196
G01 X152 Y-105 Z2
G01 X647 Y-105 Z2
G01 X648 Y-105 Z0.078431
G01 X649 Y-105 Z0
G01 X660 Y-105 Z0
G01 X661 Y-105 Z1.027451
G01 X662 Y-105 Z2
G01 X799 Y-105 Z2
G01 X799 Y-106 Z2
G01 X799 Y-107 Z2
G01 X664 Y-107 Z2
G01 X663 Y-107 Z0.494118
G01 X662 Y-107 Z0
G01 X651 Y-107 Z0
G01 X650 Y-107 Z0.368627
G01 X649 Y-107 Z2
G01 X150 Y-107 Z2
G01 X149 Y-107 Z0.996078
G01 X148 Y-107 Z0
G01 X137 Y-107 Z0
G01 X136 Y-107 Z0.156863
G01 X135 Y-107 Z1.811765
G01 X134 Y-107 Z2
G01 X0 Y-107 Z2
G01 X0 Y-108 Z2
G01 X0 Y-109 Z2
G01 X132 Y-109 Z2
G01 X133 Y-109 Z1.529412
G01 X134 Y-109 Z0.039216
G01 X135 Y-109 Z0
G01 X145 Y-109 Z0
G01 X146 Y-109 Z0.054902
G01 X147 Y-109 Z2
G01 X651 Y-109 Z2
G01 X652 Y-109 Z0.980392
G01 X653 Y-109 Z0
G01 X664 Y-109 Z0
G01 X665 Y-109 Z0.258824
G01 X666 Y-109 Z1.937255
G01 X667 Y-109 Z2
G01 X799 Y-109 Z2
G01 X799 Y-110 Z2
G01 X799 Y-111 Z2
G01 X669 Y-111 Z2
G01 X668 Y-111 Z1.780392
G01 X667 Y-111 Z0.117647
G01 X666 Y-111 Z0
G01 X656 Y-111 Z0
G01 X655 Y-111 Z0.039216
G01 X654 Y-111 Z2
G01 X145 Y-111 Z2
G01 X144 Y-111 Z0.25098
G01 X143 Y-111 Z0
G01 X133 Y-111 Z0
G01 X132 Y-111 Z0.007843
G01 X131 Y-111 Z1.278431
G01 X130 Y-111 Z2
G01 X0 Y-111 Z2
G01 X0 Y-112 Z2
G01 X0 Y-113 Z2
G01 X128 Y-113 Z2
G01 X129 Y-113 Z0.980392
G01 X130 Y-113 Z0
G01 X141 Y-113 Z0
G01 X142 Y-113 Z0.54902
G01 X143 Y-113 Z2
G01 X656 Y-113 Z2
G01 X657 Y-113 Z0.180392
G01 X658 Y-113 Z0
G01 X668 Y-113 Z0
G01 X669 Y-113 Z0.047059
G01 X670 Y-113 Z1.584314
G01 X671 Y-113 Z2
G01 X799 Y-113 Z2
G01 X799 Y-114 Z2
G01 X799 Y-115 Z2
G01 X673 Y-115 Z2
G01 X672 Y-115 Z1.419608
G01 X671 Y-115 Z0.015686
G01 X670 Y-115 Z0
G01 X660 Y-115 Z0
G01 X659 Y-115 Z0.431373
G01 X658 Y-115 Z2
G01 X141 Y-115 Z2
G01 X140 Y-115 Z1.07451
G01 X139 Y-115 Z0
G01 X128 Y-115 Z0
G01 X127 Y-115 Z0.737255
G01 X126 Y-115 Z2
G01 X0 Y-115 Z2
G01 X0 Y-116 Z2
G01 X0 Y-117 Z2
G01 X124 Y-117 Z2
G01 X125 Y-117 Z0.698039
G01 X126 Y-117 Z0
G01 X136 Y-117 Z0
G01 X137 Y-117 Z0.007843
G01 X138 Y-117 Z2
G01 X660 Y-117 Z2
G01 X661 Y-117 Z0.635294
G01 X662 Y-117 Z0
G01 X672 Y-117 Z0
G01 X673 Y-117 Z0.007843
G01 X674 Y-117 Z1.262745
G01 X675 Y-117 Z2
G01 X799 Y-117 Z2
G01 X799 Y-118 Z2
G01 X799 Y-119 Z2
G01 X677 Y-119 Z2
G01 X676 Y-119 Z1.215686
G01 X675 Y-119 Z0.007843
G01 X674 Y-119 Z0
G01 X664 Y-119 Z0
G01 X663 Y-119 Z1.145098
G01 X662 Y-119 Z2
G01 X136 Y-119 Z2
G01 X135 Y-119 Z0.054902
G01 X134 Y-119 Z0
G01 X124 Y-119 Z0
G01 X123 Y-119 Z0.580392
G01 X122 Y-119 Z2
G01 X0 Y-119 Z2
G01 X0 Y-120 Z2
G01 X0 Y-121 Z2
G01 X120 Y-121 Z2
G01 X121 Y-121 Z0.494118
G01 X122 Y-121 Z0
G01 X132 Y-121 Z0
G01 X133 Y-121 Z0.141176
G01 X134 Y-121 Z2
G01 X664 Y-121 Z2
G01 X665 Y-121 Z1.835294
G01 X666 Y-121 Z0
G01 X677 Y-121 Z0
G01 X678 Y-121 Z1.176471
G01 X679 Y-121 Z2
G01 X799 Y-121 Z2
G01 X799 Y-122 Z2
G01 X799 Y-123 Z2
G01 X681 Y-123 Z2
G01 X680 Y-123 Z1.254902
G01 X679 Y-123 Z0
G01 X669 Y-123 Z0
G01 X668 Y-123 Z0.015686
G01 X667 Y-123 Z2
G01 X132 Y-123 Z2
G01 X131 Y-123 Z0.172549
G01 X130 Y-123 Z0
G01 X120 Y-123 Z0
G01 X119 Y-123 Z0.619608
G01 X118 Y-123 Z2
G01 X0 Y-123 Z2
G01 X0 Y-124 Z2
G01 X0 Y-125 Z2
G01 X116 Y-125 Z2
G01 X117 Y-125 Z0.737255
G01 X118 Y-125 Z0
G01 X128 Y-125 Z0
G01 X129 Y-125 Z0.188235
G01 X130 Y-125 Z2
G01 X669 Y-125 Z2
G01 X670 Y-125 Z0.023529
G01 X671 Y-125 Z0
G01 X680 Y-125 Z0
G01 X681 Y-125 Z0.007843
G01 X682 Y-125 Z1.364706
G01 X683 Y-125 Z2
G01 X799 Y-125 Z2
G01 X799 Y-126 Z2
G01 X799 Y-127 Z2
G01 X685 Y-127 Z2
G01 X684 Y-127 Z1.419608
G01 X683 Y-127 Z0.015686
G01 X682 Y-127 Z0
G01 X673 Y-127 Z0
G01 X672 Y-127 Z0.023529
G01 X671 Y-127 Z2
G01 X128 Y-127 Z2
G01 X127 Y-127 Z0.235294
G01 X126 Y-127 Z0
G01 X116 Y-127 Z0
G01 X115 Y-127 Z0.784314
G01 X114 Y-127 Z2
G01 X0 Y-127 Z2
G01 X0 Y-128 Z2
G01 X0 Y-129 Z2
G01 X112 Y-129 Z2
G01 X113 Y-129 Z1.058824
G01 X114 Y-129 Z0
G01 X124 Y-129 Z0
G01 X125 Y-129 Z0.172549
G01 X126 Y-129 Z2
G01 X673 Y-129 Z2
G01 X674 Y-129 Z0.015686
G01 X675 Y-129 Z0
G01 X684 Y-129 Z0
G01 X685 Y-129 Z0.039216
G01 X686 Y-129 Z1.639216
G01 X687 Y-129 Z2
G01 X799 Y-129 Z2
G01 X799 Y-130 Z2
G01 X799 Y-131 Z2
G01 X689 Y-131 Z2
G01 X688 Y-131 Z1.827451
G01 X687 Y-131 Z0.094118
G01 X686 Y-131 Z0
G01 X677 Y-131 Z0
G01 X676 Y-131 Z0.007843
G01 X675 Y-131 Z2
G01 X124 Y-131 Z2
G01 X123 Y-131 Z0.133333
G01 X122 Y-131 Z0
G01 X113 Y-131 Z0
G01 X112 Y-131 Z0.007843
G01 X111 Y-131 Z1.34902
G01 X110 Y-131 Z2
G01 X0 Y-131 Z2
G01 X0 Y-132 Z2
G01 X0 Y-133 Z2
G01 X108 Y-133 Z2
G01 X109 Y-133 Z1.592157
G01 X110 Y-133 Z0.031373
G01 X111 Y-133 Z0
G01 X120 Y-133 Z0
G01 X121 Y-133 Z0.117647
G01 X122 Y-133 Z2
G01 X275 Y-133 Z2
G01 X276 Y-133 Z1.505882
G01 X277 Y-133 Z0.768627
G01 X278 Y-133 Z0.517647
G01 X279 Y-133 Z0.298039
G01 X280 Y-133 Z0.070588
G01 X281 Y-133 Z0
G01 X316 Y-133 Z0
G01 X317 Y-133 Z0.007843
G01 X318 Y-133 Z0.180392
G01 X319 Y-133 Z0.368627
G01 X320 Y-133 Z0.580392
G01 X321 Y-133 Z0.815686
G01 X322 Y-133 Z1.505882
G01 X323 Y-133 Z2
G01 X486 Y-133 Z2
G01 X487 Y-133 Z1.686275
G01 X488 Y-133 Z1.278431
G01 X489 Y-133 Z0.917647
G01 X490 Y-133 Z0.67451
G01 X491 Y-133 Z0.564706
G01 X492 Y-133 Z0.454902
G01 X493 Y-133 Z0.345098
G01 X494 Y-133 Z0.227451
G01 X495 Y-133 Z0.117647
G01 X496 Y-133 Z0
G01 X510 Y-133 Z0
G01 X511 Y-133 Z0.070588
G01 X512 Y-133 Z0.141176
G01 X513 Y-133 Z0.266667
G01 X514 Y-133 Z0.337255
G01 X515 Y-133 Z0.407843
G01 X516 Y-133 Z0.533333
G01 X517 Y-133 Z0.603922
G01 X518 Y-133 Z0.8
G01 X519 Y-133 Z1.411765
G01 X520 Y-133 Z2
G01 X677 Y-133 Z2
G01 X678 Y-133 Z0
G01 X688 Y-133 Z0
G01 X689 Y-133 Z0.243137
G01 X690 Y-133 Z1.968627
G01 X691 Y-133 Z2
G01 X799 Y-133 Z2
G01 X799 Y-134 Z2
G01 X799 Y-135 Z2
G01 X692 Y-135 Z2
G01 X691 Y-135 Z0.501961
G01 X690 Y-135 Z0
G01 X680 Y-135 Z0
G01 X679 Y-135 Z1.168627
G01 X678 Y-135 Z2
G01 X537 Y-135 Z2
G01 X536 Y-135 Z1.560784
G01 X535 Y-135 Z0.713725
G01 X534 Y-135 Z0.415686
G01 X533 Y-135 Z0.12549
G01 X532 Y-135 Z0
G01 X475 Y-135 Z0
G01 X474 Y-135 Z0.039216
G01 X473 Y-135 Z0.313725
G01 X472 Y-135 Z0.635294
G01 X471 Y-135 Z1.388235
G01 X470 Y-135 Z2
G01 X336 Y-135 Z2
G01 X335 Y-135 Z0.917647
G01 X334 Y-135 Z0.423529
G01 X333 Y-135 Z0.078431
G01 X332 Y-135 Z0
G01 X266 Y-135 Z0
G01 X265 Y-135 Z0.054902
G01 X264 Y-135 Z0.352941
G01 X263 Y-135 Z0.666667
G01 X262 Y-135 Z1.505882
G01 X261 Y-135 Z2
G01 X120 Y-135 Z2
G01 X119 Y-135 Z0.047059
G01 X118 Y-135 Z0
G01 X109 Y-135 Z0
G01 X108 Y-135 Z0.086275
G01 X107 Y-135 Z1.843137
G01 X106 Y-135 Z2
G01 X0 Y-135 Z2
G01 X0 Y-136 Z2
G01 X0 Y-137 Z2
G01 X105 Y-137 Z2
G01 X106 Y-137 Z0.345098
G01 X107 Y-137 Z0
G01 X116 Y-137 Z0
G01 X117 Y-137 Z0.007843
G01 X118 Y-137 Z2
G01 X251 Y-137 Z2
G01 X252 Y-137 Z1.937255
G01 X253 Y-137 Z0.658824
G01 X254 Y-137 Z0.235294
G01 X255 Y-137 Z0
G01 X342 Y-137 Z0
G01 X343 Y-137 Z0.039216
G01 X344 Y-137 Z0.423529
G01 X345 Y-137 Z1.121569
G01 X346 Y-137 Z2
G01 X459 Y-137 Z2
G01 X460 Y-137 Z1.560784
G01 X461 Y-137 Z0.580392
G01 X462 Y-137 Z0.164706
G01 X463 Y-137 Z0
G01 X543 Y-137 Z0
G01 X544 Y-137 Z0.015686
G01 X545 Y-137 Z0.313725
G01 X546 Y-137 Z0.713725
G01 X547 Y-137 Z1.937255
G01 X548 Y-137 Z2
G01 X680 Y-137 Z2
G01 X681 Y-137 Z0.643137
G01 X682 Y-137 Z0
G01 X692 Y-137 Z0
G01 X693 Y-137 Z0.94902
G01 X694 Y-137 Z2
G01 X799 Y-137 Z2
G01 X799 Y-138 Z2
G01 X799 Y-139 Z2
G01 X696 Y-139 Z2
G01 X695 Y-139 Z1.458824
G01 X694 Y-139 Z0.007843
G01 X693 Y-139 Z0
G01 X684 Y-139 Z0
G01 X683 Y-139 Z0.4
G01 X682 Y-139 Z2
G01 X556 Y-139 Z2
G01 X555 Y-139 Z1.411765
G01 X554 Y-139 Z0.462745
G01 X553 Y-139 Z0.039216
G01 X552 Y-139 Z0
G01 X454 Y-139 Z0
G01 X453 Y-139 Z0.188235
G01 X452 Y-139 Z0.713725
G01 X451 Y-139 Z2
G01 X354 Y-139 Z2
G01 X353 Y-139 Z1.121569
G01 X352 Y-139 Z0.329412
G01 X351 Y-139 Z0
G01 X247 Y-139 Z0
G01 X246 Y-139 Z0.109804
G01 X245 Y-139 Z0.611765
G01 X244 Y-139 Z2
G01 X117 Y-139 Z2
G01 X116 Y-139 Z1.356863
G01 X115 Y-139 Z0
G01 X105 Y-139 Z0
G01 X104 Y-139 Z0.831373
G01 X103 Y-139 Z2
G01 X0 Y-139 Z2
G01 X0 Y-140 Z2
G01 X0 Y-141 Z2
G01 X101 Y-141 Z2
G01 X102 Y-141 Z1.34902
G01 X103 Y-141 Z0
G01 X113 Y-141 Z0
G01 X114 Y-141 Z0.627451
G01 X115 Y-141 Z2
G01 X237 Y-141 Z2
G01 X238 Y-141 Z0.596078
G01 X239 Y-141 Z0.047059
G01 X240 Y-141 Z0
G01 X283 Y-141 Z0
G01 X284 Y-141 Z0.031373
G01 X285 Y-141 Z0.062745
G01 X286 Y-141 Z0.078431
G01 X287 Y-141 Z0.078431
G01 X288 Y-141 Z0.062745
G01 X289 Y-141 Z0.039216
G01 X290 Y-141 Z0
G01 X307 Y-141 Z0
G01 X308 Y-141 Z0.023529
G01 X309 Y-141 Z0.054902
G01 X310 Y-141 Z0.070588
G01 X312 Y-141 Z0.070588
G01 X313 Y-141 Z0.062745
G01 X314 Y-141 Z0.039216
G01 X315 Y-141 Z0
G01 X358 Y-141 Z0
G01 X359 Y-141 Z0.258824
G01 X360 Y-141 Z1.090196
G01 X361 Y-141 Z2
G01 X443 Y-141 Z2
G01 X444 Y-141 Z1.686275
G01 X445 Y-141 Z0.4
G01 X446 Y-141 Z0.007843
G01 X447 Y-141 Z0
G01 X560 Y-141 Z0
G01 X561 Y-141 Z0.243137
G01 X562 Y-141 Z1.019608
G01 X563 Y-141 Z2
G01 X684 Y-141 Z2
G01 X685 Y-141 Z0.196078
G01 X686 Y-141 Z0
G01 X695 Y-141 Z0
G01 X696 Y-141 Z0.086275
G01 X697 Y-141 Z1.827451
G01 X698 Y-141 Z2
G01 X799 Y-141 Z2
G01 X799 Y-142 Z2
G01 X799 Y-143 Z2
G01 X699 Y-143 Z2
G01 X698 Y-143 Z0.439216
G01 X697 Y-143 Z0
G01 X688 Y-143 Z0
G01 X687 Y-143 Z0.054902
G01 X686 Y-143 Z2
G01 X569 Y-143 Z2
G01 X568 Y-143 Z0.470588
G01 X567 Y-143 Z0.015686
G01 X566 Y-143 Z0
G01 X532 Y-143 Z0
G01 X531 Y-143 Z0.015686
G01 X530 Y-143 Z0.070588
G01 X529 Y-143 Z0.070588
G01 X528 Y-143 Z0.047059
G01 X527 Y-143 Z0
G01 X523 Y-143 Z0
G01 X522 Y-143 Z0.023529
G01 X521 Y-143 Z0.062745
G01 X520 Y-143 Z0.070588
G01 X519 Y-143 Z0.070588
G01 X518 Y-143 Z0.039216
G01 X517 Y-143 Z0
G01 X490 Y-143 Z0
G01 X489 Y-143 Z0.031373
G01 X488 Y-143 Z0.062745
G01 X487 Y-143 Z0.070588
G01 X486 Y-143 Z0.070588
G01 X485 Y-143 Z0.047059
G01 X484 Y-143 Z0
G01 X480 Y-143 Z0
G01 X479 Y-143 Z0.039216
G01 X478 Y-143 Z0.070588
G01 X477 Y-143 Z0.070588
G01 X476 Y-143 Z0.054902
G01 X475 Y-143 Z0
G01 X440 Y-143 Z0
G01 X439 Y-143 Z0.180392
G01 X438 Y-143 Z0.894118
G01 X437 Y-143 Z2
G01 X367 Y-143 Z2
G01 X366 Y-143 Z0.894118
G01 X365 Y-143 Z0.133333
G01 X364 Y-143 Z0
G01 X332 Y-143 Z0
G01 X331 Y-143 Z0.047059
G01 X330 Y-143 Z0.070588
G01 X329 Y-143 Z0.070588
G01 X328 Y-143 Z0.015686
G01 X327 Y-143 Z0
G01 X325 Y-143 Z0
G01 X324 Y-143 Z0.039216
G01 X323 Y-143 Z0.070588
G01 X322 Y-143 Z0.070588
G01 X321 Y-143 Z0.047059
G01 X320 Y-143 Z0
G01 X278 Y-143 Z0
G01 X277 Y-143 Z0.047059
G01 X276 Y-143 Z0.070588
G01 X275 Y-143 Z0.070588
G01 X274 Y-143 Z0.047059
G01 X273 Y-143 Z0
G01 X270 Y-143 Z0
G01 X269 Y-143 Z0.070588
G01 X268 Y-143 Z0.070588
G01 X267 Y-143 Z0.047059
G01 X266 Y-143 Z0
G01 X233 Y-143 Z0
G01 X232 Y-143 Z0.384314
G01 X231 Y-143 Z1.686275
G01 X230 Y-143 Z2
G01 X113 Y-143 Z2
G01 X112 Y-143 Z0.282353
G01 X111 Y-143 Z0
G01 X102 Y-143 Z0
G01 X101 Y-143 Z0.062745
G01 X100 Y-143 Z1.811765
G01 X99 Y-143 Z2
G01 X0 Y-143 Z2
G01 X0 Y-144 Z2
G01 X0 Y-145 Z2
G01 X98 Y-145 Z2
G01 X99 Y-145 Z0.392157
G01 X100 Y-145 Z0
G01 X109 Y-145 Z0
G01 X110 Y-145 Z0.078431
G01 X111 Y-145 Z2
G01 X225 Y-145 Z2
G01 X226 Y-145 Z0.67451
G01 X227 Y-145 Z0.062745
G01 X228 Y-145 Z0
G01 X255 Y-145 Z0
G01 X256 Y-145 Z0.023529
G01 X257 Y-145 Z0.070588
G01 X258 Y-145 Z0.070588
G01 X259 Y-145 Z0
G01 X260 Y-145 Z0
G01 X261 Y-145 Z0.054902
G01 X263 Y-145 Z0.054902
G01 X264 Y-145 Z0
G01 X333 Y-145 Z0
G01 X334 Y-145 Z0.023529
G01 X335 Y-145 Z0.070588
G01 X336 Y-145 Z0.070588
G01 X337 Y-145 Z0.007843
G01 X338 Y-145 Z0
G01 X339 Y-145 Z0
G01 X340 Y-145 Z0.070588
G01 X341 Y-145 Z0.070588
G01 X342 Y-145 Z0.007843
G01 X343 Y-145 Z0
G01 X370 Y-145 Z0
G01 X371 Y-145 Z0.392157
G01 X372 Y-145 Z2
G01 X431 Y-145 Z2
G01 X432 Y-145 Z1.466667
G01 X433 Y-145 Z0.243137
G01 X434 Y-145 Z0
G01 X463 Y-145 Z0
G01 X464 Y-145 Z0.039216
G01 X465 Y-145 Z0.054902
G01 X466 Y-145 Z0.054902
G01 X467 Y-145 Z0
G01 X468 Y-145 Z0
G01 X469 Y-145 Z0.007843
G01 X470 Y-145 Z0.070588
G01 X471 Y-145 Z0.070588
G01 X472 Y-145 Z0.047059
G01 X473 Y-145 Z0
G01 X534 Y-145 Z0
G01 X535 Y-145 Z0.054902
G01 X536 Y-145 Z0.070588
G01 X537 Y-145 Z0.070588
G01 X538 Y-145 Z0
G01 X539 Y-145 Z0
G01 X540 Y-145 Z0.007843
G01 X541 Y-145 Z0.070588
G01 X542 Y-145 Z0.070588
G01 X543 Y-145 Z0.007843
G01 X544 Y-145 Z0
G01 X572 Y-145 Z0
G01 X573 Y-145 Z0.094118
G01 X574 Y-145 Z0.745098
G01 X575 Y-145 Z2
G01 X687 Y-145 Z2
G01 X688 Y-145 Z1.709804
G01 X689 Y-145 Z0
G01 X699 Y-145 Z0
G01 X700 Y-145 Z1.105882
G01 X701 Y-145 Z2
G01 X799 Y-145 Z2
G01 X799 Y-146 Z2
G01 X799 Y-147 Z2
G01 X703 Y-147 Z2
G01 X702 Y-147 Z1.741176
G01 X701 Y-147 Z0.039216
G01 X700 Y-147 Z0
G01 X691 Y-147 Z0
G01 X690 Y-147 Z0.603922
G01 X689 Y-147 Z2
G01 X580 Y-147 Z2
G01 X579 Y-147 Z0.447059
G01 X578 Y-147 Z0
G01 X553 Y-147 Z0
G01 X552 Y-147 Z0.007843
G01 X551 Y-147 Z0.070588
G01 X550 Y-147 Z0.070588
G01 X549 Y-147 Z0
G01 X548 Y-147 Z0.007843
G01 X547 Y-147 Z0.070588
G01 X546 Y-147 Z0.070588
G01 X545 Y-147 Z0
G01 X462 Y-147 Z0
G01 X461 Y-147 Z0.070588
G01 X460 Y-147 Z0.070588
G01 X459 Y-147 Z0.023529
G01 X458 Y-147 Z0
G01 X457 Y-147 Z0.015686
G01 X456 Y-147 Z0.054902
G01 X455 Y-147 Z0.054902
G01 X454 Y-147 Z0
G01 X429 Y-147 Z0
G01 X428 Y-147 Z0.054902
G01 X427 Y-147 Z0.635294
G01 X426 Y-147 Z2
G01 X378 Y-147 Z2
G01 X377 Y-147 Z1.905882
G01 X376 Y-147 Z0.282353
G01 X375 Y-147 Z0
G01 X351 Y-147 Z0
G01 X350 Y-147 Z0.031373
G01 X349 Y-147 Z0.054902
G01 X348 Y-147 Z0.054902
G01 X347 Y-147 Z0
G01 X346 Y-147 Z0.031373
G01 X345 Y-147 Z0.062745
G01 X344 Y-147 Z0.062745
G01 X343 Y-147 Z0
G01 X254 Y-147 Z0
G01 X253 Y-147 Z0.070588
G01 X252 Y-147 Z0.070588
G01 X251 Y-147 Z0.007843
G01 X250 Y-147 Z0
G01 X249 Y-147 Z0.070588
G01 X248 Y-147 Z0.070588
G01 X247 Y-147 Z0
G01 X222 Y-147 Z0
G01 X221 Y-147 Z0.431373
G01 X220 Y-147 Z2
G01 X109 Y-147 Z2
G01 X108 Y-147 Z0.007843
G01 X107 Y-147 Z0
G01 X98 Y-147 Z0
G01 X97 Y-147 Z1.145098
G01 X96 Y-147 Z2
G01 X0 Y-147 Z2
G01 X0 Y-148 Z2
G01 X0 Y-149 Z2
G01 X94 Y-149 Z2
G01 X95 Y-149 Z1.741176
G01 X96 Y-149 Z0.039216
G01 X97 Y-149 Z0
G01 X106 Y-149 Z0
G01 X107 Y-149 Z0.65098
G01 X108 Y-149 Z2
G01 X215 Y-149 Z2
G01 X216 Y-149 Z0.690196
G01 X217 Y-149 Z0.039216
G01 X218 Y-149 Z0
G01 X239 Y-149 Z0
G01 X240 Y-149 Z0.007843
G01 X241 Y-149 Z0.070588
G01 X242 Y-149 Z0.070588
G01 X243 Y-149 Z0
G01 X244 Y-149 Z0.054902
G01 X245 Y-149 Z0.054902
G01 X246 Y-149 Z0.023529
G01 X247 Y-149 Z0
G01 X351 Y-149 Z0
G01 X352 Y-149 Z0.070588
G01 X353 Y-149 Z0.070588
G01 X354 Y-149 Z0.007843
G01 X355 Y-149 Z0.015686
G01 X356 Y-149 Z0.039216
G01 X357 Y-149 Z0.039216
G01 X358 Y-149 Z0
G01 X380 Y-149 Z0
G01 X381 Y-149 Z0.352941
G01 X382 Y-149 Z2
G01 X421 Y-149 Z2
G01 X422 Y-149 Z1.090196
G01 X423 Y-149 Z0.086275
G01 X424 Y-149 Z0
G01 X446 Y-149 Z0
G01 X447 Y-149 Z0.023529
G01 X448 Y-149 Z0.062745
G01 X449 Y-149 Z0.062745
G01 X450 Y-149 Z0
G01 X451 Y-149 Z0.031373
G01 X452 Y-149 Z0.062745
G01 X453 Y-149 Z0.062745
G01 X454 Y-149 Z0
G01 X553 Y-149 Z0
G01 X554 Y-149 Z0.070588
G01 X555 Y-149 Z0.070588
G01 X556 Y-149 Z0.015686
G01 X557 Y-149 Z0.007843
G01 X558 Y-149 Z0.047059
G01 X559 Y-149 Z0.047059
G01 X560 Y-149 Z0
G01 X582 Y-149 Z0
G01 X583 Y-149 Z0.007843
G01 X584 Y-149 Z0.533333
G01 X585 Y-149 Z2
G01 X691 Y-149 Z2
G01 X692 Y-149 Z0.219608
G01 X693 Y-149 Z0
G01 X702 Y-149 Z0
G01 X703 Y-149 Z0.321569
G01 X704 Y-149 Z2
G01 X799 Y-149 Z2
G01 X799 Y-150 Z2
G01 X799 Y-151 Z2
G01 X706 Y-151 Z2
G01 X705 Y-151 Z1.145098
G01 X704 Y-151 Z0
G01 X695 Y-151 Z0
G01 X694 Y-151 Z0.015686
G01 X693 Y-151 Z2
G01 X590 Y-151 Z2
G01 X589 Y-151 Z1.247059
G01 X588 Y-151 Z0.101961
G01 X587 Y-151 Z0
G01 X567 Y-151 Z0
G01 X566 Y-151 Z0.015686
G01 X565 Y-151 Z0.062745
G01 X564 Y-151 Z0.062745
G01 X563 Y-151 Z0
G01 X562 Y-151 Z0.070588
G01 X561 Y-151 Z0.070588
G01 X560 Y-151 Z0
G01 X447 Y-151 Z0
G01 X446 Y-151 Z0.015686
G01 X445 Y-151 Z0.039216
G01 X444 Y-151 Z0.039216
G01 X443 Y-151 Z0
G01 X442 Y-151 Z0.062745
G01 X441 Y-151 Z0.062745
G01 X440 Y-151 Z0
G01 X419 Y-151 Z0
G01 X418 Y-151 Z0.227451
G01 X417 Y-151 Z1.835294
G01 X416 Y-151 Z2
G01 X387 Y-151 Z2
G01 X386 Y-151 Z1.145098
G01 X385 Y-151 Z0.101961
G01 X384 Y-151 Z0
G01 X364 Y-151 Z0
G01 X363 Y-151 Z0.070588
G01 X362 Y-151 Z0.070588
G01 X361 Y-151 Z0
G01 X360 Y-151 Z0.054902
G01 X359 Y-151 Z0.054902
G01 X358 Y-151 Z0
G01 X240 Y-151 Z0
G01 X239 Y-151 Z0.054902
G01 X238 Y-151 Z0.054902
G01 X237 Y-151 Z0.015686
G01 X236 Y-151 Z0.039216
G01 X235 Y-151 Z0.039216
G01 X234 Y-151 Z0.023529
G01 X233 Y-151 Z0
G01 X213 Y-151 Z0
G01 X212 Y-151 Z0.203922
G01 X211 Y-151 Z1.74902
G01 X210 Y-151 Z2
G01 X106 Y-151 Z2
G01 X105 Y-151 Z0.203922
G01 X104 Y-151 Z0
G01 X95 Y-151 Z0
G01 X94 Y-151 Z0.415686
G01 X93 Y-151 Z2
G01 X0 Y-151 Z2
G01 X0 Y-152 Z2
G01 X0 Y-153 Z2
G01 X91 Y-153 Z2
G01 X92 Y-153 Z1.32549
G01 X93 Y-153 Z0
G01 X102 Y-153 Z0
G01 X103 Y-153 Z0.015686
G01 X104 Y-153 Z2
G01 X206 Y-153 Z2
G01 X207 Y-153 Z1.466667
G01 X208 Y-153 Z0.109804
G01 X209 Y-153 Z0
G01 X228 Y-153 Z0
G01 X229 Y-153 Z0.070588
G01 X230 Y-153 Z0.070588
G01 X231 Y-153 Z0.015686
G01 X232 Y-153 Z0.031373
G01 X233 Y-153 Z0.031373
G01 X234 Y-153 Z0
G01 X364 Y-153 Z0
G01 X365 Y-153 Z0.047059
G01 X366 Y-153 Z0.047059
G01 X367 Y-153 Z0.007843
G01 X368 Y-153 Z0.031373
G01 X369 Y-153 Z0.031373
G01 X370 Y-153 Z0
G01 X388 Y-153 Z0
G01 X389 Y-153 Z0.007843
G01 X390 Y-153 Z0.039216
G01 X391 Y-153 Z0.407843
G01 X392 Y-153 Z2
G01 X412 Y-153 Z2
G01 X413 Y-153 Z1.247059
G01 X414 Y-153 Z0.094118
G01 X415 Y-153 Z0
G01 X434 Y-153 Z0
G01 X435 Y-153 Z0.047059
G01 X436 Y-153 Z0.047059
G01 X437 Y-153 Z0
G01 X438 Y-153 Z0.070588
G01 X439 Y-153 Z0.070588
G01 X440 Y-153 Z0
G01 X566 Y-153 Z0
G01 X567 Y-153 Z0.070588
G01 X568 Y-153 Z0.070588
G01 X569 Y-153 Z0
G01 X570 Y-153 Z0.070588
G01 X571 Y-153 Z0.070588
G01 X572 Y-153 Z0
G01 X591 Y-153 Z0
G01 X592 Y-153 Z0.015686
G01 X593 Y-153 Z0.65098
G01 X594 Y-153 Z2
G01 X694 Y-153 Z2
G01 X695 Y-153 Z0.894118
G01 X696 Y-153 Z0
G01 X705 Y-153 Z0
G01 X706 Y-153 Z0.070588
G01 X707 Y-153 Z1.858824
G01 X708 Y-153 Z2
G01 X799 Y-153 Z2
G01 X799 Y-154 Z2
G01 X799 Y-155 Z2
G01 X709 Y-155 Z2
G01 X708 Y-155 Z0.658824
G01 X707 Y-155 Z0
G01 X698 Y-155 Z0
G01 X697 Y-155 Z0.243137
G01 X696 Y-155 Z2
G01 X598 Y-155 Z2
G01 X597 Y-155 Z0.52549
G01 X596 Y-155 Z0
G01 X578 Y-155 Z0
G01 X577 Y-155 Z0.015686
G01 X576 Y-155 Z0.031373
G01 X575 Y-155 Z0.031373
G01 X574 Y-155 Z0.062745
G01 X573 Y-155 Z0.062745
G01 X572 Y-155 Z0
G01 X435 Y-155 Z0
G01 X434 Y-155 Z0.039216
G01 X433 Y-155 Z0.039216
G01 X432 Y-155 Z0.015686
G01 X431 Y-155 Z0.070588
G01 X430 Y-155 Z0.070588
G01 X429 Y-155 Z0
G01 X411 Y-155 Z0
G01 X410 Y-155 Z0.039216
G01 X409 Y-155 Z0.815686
G01 X408 Y-155 Z2
G01 X396 Y-155 Z2
G01 X395 Y-155 Z1.388235
G01 X394 Y-155 Z0.047059
G01 X393 Y-155 Z0
G01 X375 Y-155 Z0
G01 X374 Y-155 Z0.039216
G01 X373 Y-155 Z0.039216
G01 X372 Y-155 Z0
G01 X371 Y-155 Z0.070588
G01 X370 Y-155 Z0.070588
G01 X369 Y-155 Z0
G01 X228 Y-155 Z0
G01 X227 Y-155 Z0.054902
G01 X226 Y-155 Z0.054902
G01 X225 Y-155 Z0.039216
G01 X224 Y-155 Z0.039216
G01 X223 Y-155 Z0.015686
G01 X222 Y-155 Z0
G01 X205 Y-155 Z0
G01 X204 Y-155 Z0.086275
G01 X203 Y-155 Z1.278431
G01 X202 Y-155 Z2
G01 X103 Y-155 Z2
G01 X102 Y-155 Z0.768627
G01 X101 Y-155 Z0
G01 X92 Y-155 Z0
G01 X91 Y-155 Z0.12549
G01 X90 Y-155 Z1.937255
G01 X89 Y-155 Z2
G01 X0 Y-155 Z2
G01 X0 Y-156 Z2
G01 X0 Y-157 Z2
G01 X88 Y-157 Z2
G01 X89 Y-157 Z0.862745
G01 X90 Y-157 Z0
G01 X99 Y-157 Z0
G01 X100 Y-157 Z0.180392
G01 X101 Y-157 Z2
G01 X199 Y-157 Z2
G01 X200 Y-157 Z0.188235
G01 X201 Y-157 Z0
G01 X218 Y-157 Z0
G01 X219 Y-157 Z0.070588
G01 X220 Y-157 Z0.070588
G01 X221 Y-157 Z0.054902
G01 X222 Y-157 Z0.054902
G01 X223 Y-157 Z0
G01 X374 Y-157 Z0
G01 X375 Y-157 Z0.070588
G01 X376 Y-157 Z0.070588
G01 X377 Y-157 Z0
G01 X378 Y-157 Z0.015686
G01 X379 Y-157 Z0.015686
G01 X380 Y-157 Z0
G01 X397 Y-157 Z0
G01 X398 Y-157 Z0.258824
G01 X399 Y-157 Z2
G01 X404 Y-157 Z2
G01 X405 Y-157 Z1.560784
G01 X406 Y-157 Z0.094118
G01 X407 Y-157 Z0
G01 X424 Y-157 Z0
G01 X425 Y-157 Z0.070588
G01 X426 Y-157 Z0.070588
G01 X427 Y-157 Z0.031373
G01 X428 Y-157 Z0.031373
G01 X429 Y-157 Z0
G01 X577 Y-157 Z0
G01 X578 Y-157 Z0.062745
G01 X579 Y-157 Z0.062745
G01 X580 Y-157 Z0.031373
G01 X581 Y-157 Z0.031373
G01 X582 Y-157 Z0.007843
G01 X583 Y-157 Z0
G01 X599 Y-157 Z0
G01 X600 Y-157 Z0.023529
G01 X601 Y-157 Z0.784314
G01 X602 Y-157 Z2
G01 X698 Y-157 Z2
G01 X699 Y-157 Z0
G01 X708 Y-157 Z0
G01 X709 Y-157 Z0.007843
G01 X710 Y-157 Z1.592157
G01 X711 Y-157 Z2
G01 X799 Y-157 Z2
G01 X799 Y-158 Z2
G01 X799 Y-159 Z2
G01 X712 Y-159 Z2
G01 X711 Y-159 Z0.415686
G01 X710 Y-159 Z0
G01 X701 Y-159 Z0
G01 X700 Y-159 Z0.572549
G01 X699 Y-159 Z2
G01 X606 Y-159 Z2
G01 X605 Y-159 Z1.560784
G01 X604 Y-159 Z0.086275
G01 X603 Y-159 Z0
G01 X587 Y-159 Z0
G01 X586 Y-159 Z0.062745
G01 X585 Y-159 Z0.062745
G01 X584 Y-159 Z0.047059
G01 X583 Y-159 Z0.047059
G01 X582 Y-159 Z0
G01 X425 Y-159 Z0
G01 X424 Y-159 Z0.047059
G01 X423 Y-159 Z0.047059
G01 X422 Y-159 Z0.007843
G01 X421 Y-159 Z0.039216
G01 X420 Y-159 Z0.039216
G01 X419 Y-159 Z0
G01 X403 Y-159 Z0
G01 X402 Y-159 Z0.007843
G01 X401 Y-159 Z0.007843
G01 X400 Y-159 Z0
G01 X384 Y-159 Z0
G01 X383 Y-159 Z0.062745
G01 X382 Y-159 Z0.062745
G01 X381 Y-159 Z0.047059
G01 X380 Y-159 Z0.047059
G01 X379 Y-159 Z0
G01 X219 Y-159 Z0
G01 X218 Y-159 Z0.047059
G01 X217 Y-159 Z0.047059
G01 X216 Y-159 Z0.007843
G01 X215 Y-159 Z0.047059
G01 X214 Y-159 Z0.047059
G01 X213 Y-159 Z0
G01 X197 Y-159 Z0
G01 X196 Y-159 Z0.596078
G01 X195 Y-159 Z2
G01 X99 Y-159 Z2
G01 X98 Y-159 Z0
G01 X89 Y-159 Z0
G01 X88 Y-159 Z0.054902
G01 X87 Y-159 Z1.827451
G01 X86 Y-159 Z2
G01 X0 Y-159 Z2
G01 X0 Y-160 Z2
G01 X0 Y-161 Z2
G01 X85 Y-161 Z2
G01 X86 Y-161 Z0.690196
G01 X87 Y-161 Z0
G01 X96 Y-161 Z0
G01 X97 Y-161 Z0.447059
G01 X98 Y-161 Z2
G01 X191 Y-161 Z2
G01 X192 Y-161 Z1.968627
G01 X193 Y-161 Z0.094118
G01 X194 Y-161 Z0
G01 X209 Y-161 Z0
G01 X210 Y-161 Z0.047059
G01 X213 Y-161 Z0.047059
G01 X214 Y-161 Z0
G01 X383 Y-161 Z0
G01 X384 Y-161 Z0.078431
G01 X385 Y-161 Z0.078431
G01 X386 Y-161 Z0.070588
G01 X387 Y-161 Z0.070588
G01 X388 Y-161 Z0
G01 X415 Y-161 Z0
G01 X416 Y-161 Z0.054902
G01 X417 Y-161 Z0.054902
G01 X418 Y-161 Z0.047059
G01 X419 Y-161 Z0.047059
G01 X420 Y-161 Z0
G01 X586 Y-161 Z0
G01 X587 Y-161 Z0.070588
G01 X590 Y-161 Z0.070588
G01 X591 Y-161 Z0
G01 X607 Y-161 Z0
G01 X608 Y-161 Z0.509804
G01 X609 Y-161 Z2
G01 X701 Y-161 Z2
G01 X702 Y-161 Z0.086275
G01 X703 Y-161 Z0
G01 X711 Y-161 Z0
G01 X712 Y-161 Z0.007843
G01 X713 Y-161 Z1.482353
G01 X714 Y-161 Z2
G01 X799 Y-161 Z2
G01 X799 Y-162 Z2
G01 X799 Y-163 Z2
G01 X715 Y-163 Z2
G01 X714 Y-163 Z0.313725
G01 X713 Y-163 Z0
G01 X704 Y-163 Z0
G01 X703 Y-163 Z1.019608
G01 X702 Y-163 Z2
G01 X612 Y-163 Z2
G01 X611 Y-163 Z0.188235
G01 X610 Y-163 Z0
G01 X595 Y-163 Z0
G01 X594 Y-163 Z0.070588
G01 X593 Y-163 Z0.070588
G01 X592 Y-163 Z0.054902
G01 X591 Y-163 Z0.054902
G01 X590 Y-163 Z0
G01 X416 Y-163 Z0
G01 X415 Y-163 Z0.070588
G01 X412 Y-163 Z0.070588
G01 X411 Y-163 Z0
G01 X392 Y-163 Z0
G01 X391 Y-163 Z0.070588
G01 X388 Y-163 Z0.070588
G01 X387 Y-163 Z0
G01 X210 Y-163 Z0
G01 X209 Y-163 Z0.047059
G01 X208 Y-163 Z0.047059
G01 X207 Y-163 Z0.054902
G01 X206 Y-163 Z0.054902
G01 X205 Y-163 Z0
G01 X191 Y-163 Z0
G01 X190 Y-163 Z0.023529
G01 X189 Y-163 Z1.090196
G01 X188 Y-163 Z2
G01 X96 Y-163 Z2
G01 X95 Y-163 Z0.023529
G01 X94 Y-163 Z0
G01 X86 Y-163 Z0
G01 X85 Y-163 Z0.031373
G01 X84 Y-163 Z1.741176
G01 X83 Y-163 Z2
G01 X0 Y-163 Z2
G01 X0 Y-164 Z2
G01 X0 Y-165 Z2
G01 X82 Y-165 Z2
G01 X83 Y-165 Z0.643137
G01 X84 Y-165 Z0
G01 X93 Y-165 Z0
G01 X94 Y-165 Z0.580392
G01 X95 Y-165 Z2
G01 X185 Y-165 Z2
G01 X186 Y-165 Z0.556863
G01 X187 Y-165 Z0
G01 X201 Y-165 Z0
G01 X202 Y-165 Z0.015686
G01 X203 Y-165 Z0.015686
G01 X204 Y-165 Z0.047059
G01 X205 Y-165 Z0.047059
G01 X206 Y-165 Z0
G01 X388 Y-165 Z0
G01 X389 Y-165 Z0.054902
G01 X390 Y-165 Z0.054902
G01 X391 Y-165 Z0.039216
G01 X392 Y-165 Z0.039216
G01 X393 Y-165 Z0
G01 X410 Y-165 Z0
G01 X411 Y-165 Z0.047059
G01 X412 Y-165 Z0.047059
G01 X413 Y-165 Z0
G01 X594 Y-165 Z0
G01 X595 Y-165 Z0.070588
G01 X598 Y-165 Z0.070588
G01 X599 Y-165 Z0
G01 X613 Y-165 Z0
G01 X614 Y-165 Z0.031373
G01 X615 Y-165 Z1.333333
G01 X616 Y-165 Z2
G01 X704 Y-165 Z2
G01 X705 Y-165 Z0.156863
G01 X706 Y-165 Z0
G01 X715 Y-165 Z0
G01 X716 Y-165 Z1.427451
G01 X717 Y-165 Z2
G01 X799 Y-165 Z2
G01 X799 Y-166 Z2
G01 X799 Y-167 Z2
G01 X718 Y-167 Z2
G01 X717 Y-167 Z0.4
G01 X716 Y-167 Z0
G01 X707 Y-167 Z0
G01 X706 Y-167 Z1.466667
G01 X705 Y-167 Z2
G01 X619 Y-167 Z2
G01 X618 Y-167 Z1.090196
G01 X617 Y-167 Z0.031373
G01 X616 Y-167 Z0
G01 X603 Y-167 Z0
G01 X602 Y-167 Z0.031373
G01 X601 Y-167 Z0.031373
G01 X600 Y-167 Z0.070588
G01 X599 Y-167 Z0.070588
G01 X598 Y-167 Z0
G01 X416 Y-167 Z0
G01 X415 Y-167 Z0.062745
G01 X414 Y-167 Z0.062745
G01 X413 Y-167 Z0
G01 X390 Y-167 Z0
G01 X389 Y-167 Z0.031373
G01 X388 Y-167 Z0.031373
G01 X387 Y-167 Z0.062745
G01 X386 Y-167 Z0.062745
G01 X385 Y-167 Z0
G01 X203 Y-167 Z0
G01 X202 Y-167 Z0.047059
G01 X201 Y-167 Z0.047059
G01 X200 Y-167 Z0.070588
G01 X199 Y-167 Z0.070588
G01 X198 Y-167 Z0
G01 X184 Y-167 Z0
G01 X183 Y-167 Z0.486275
G01 X182 Y-167 Z2
G01 X93 Y-167 Z2
G01 X92 Y-167 Z0.039216
G01 X91 Y-167 Z0
G01 X83 Y-167 Z0
G01 X82 Y-167 Z0.047059
G01 X81 Y-167 Z1.827451
G01 X80 Y-167 Z2
G01 X0 Y-167 Z2
G01 X0 Y-168 Z2
G01 X0 Y-169 Z2
G01 X79 Y-169 Z2
G01 X80 Y-169 Z0.886275
G01 X81 Y-169 Z0
G01 X90 Y-169 Z0
G01 X91 Y-169 Z0.690196
G01 X92 Y-169 Z2
G01 X179 Y-169 Z2
G01 X180 Y-169 Z0.596078
G01 X181 Y-169 Z0
G01 X194 Y-169 Z0
G01 X195 Y-169 Z0.015686
G01 X196 Y-169 Z0.015686
G01 X197 Y-169 Z0.062745
G01 X198 Y-169 Z0.062745
G01 X199 Y-169 Z0
G01 X382 Y-169 Z0
G01 X383 Y-169 Z0.047059
G01 X384 Y-169 Z0.047059
G01 X385 Y-169 Z0.031373
G01 X386 Y-169 Z0.031373
G01 X387 Y-169 Z0
G01 X416 Y-169 Z0
G01 X417 Y-169 Z0.070588
G01 X418 Y-169 Z0.070588
G01 X419 Y-169 Z0.007843
G01 X420 Y-169 Z0
G01 X601 Y-169 Z0
G01 X602 Y-169 Z0.007843
G01 X603 Y-169 Z0.007843
G01 X604 Y-169 Z0.070588
G01 X605 Y-169 Z0.070588
G01 X606 Y-169 Z0
G01 X619 Y-169 Z0
G01 X620 Y-169 Z0.015686
G01 X621 Y-169 Z1.090196
G01 X622 Y-169 Z2
G01 X707 Y-169 Z2
G01 X708 Y-169 Z0.196078
G01 X709 Y-169 Z0
G01 X717 Y-169 Z0
G01 X718 Y-169 Z0.007843
G01 X719 Y-169 Z1.623529
G01 X720 Y-169 Z2
G01 X799 Y-169 Z2
G01 X799 Y-170 Z2
G01 X799 Y-171 Z2
G01 X721 Y-171 Z2
G01 X720 Y-171 Z0.564706
G01 X719 Y-171 Z0
G01 X710 Y-171 Z0
G01 X709 Y-171 Z1.388235
G01 X708 Y-171 Z2
G01 X625 Y-171 Z2
G01 X624 Y-171 Z1.560784
G01 X623 Y-171 Z0.039216
G01 X622 Y-171 Z0
G01 X610 Y-171 Z0
G01 X609 Y-171 Z0.007843
G01 X608 Y-171 Z0.007843
G01 X607 Y-171 Z0.047059
G01 X606 Y-171 Z0.047059
G01 X605 Y-171 Z0
G01 X423 Y-171 Z0
G01 X422 Y-171 Z0.031373
G01 X421 Y-171 Z0.070588
G01 X420 Y-171 Z0.070588
G01 X419 Y-171 Z0
G01 X406 Y-171 Z0
G01 X405 Y-171 Z0.4
G01 X404 Y-171 Z2
G01 X399 Y-171 Z2
G01 X398 Y-171 Z0.572549
G01 X397 Y-171 Z0
G01 X384 Y-171 Z0
G01 X383 Y-171 Z0.047059
G01 X382 Y-171 Z0.047059
G01 X381 Y-171 Z0
G01 X196 Y-171 Z0
G01 X195 Y-171 Z0.070588
G01 X194 Y-171 Z0.070588
G01 X193 Y-171 Z0.047059
G01 X192 Y-171 Z0.047059
G01 X191 Y-171 Z0
G01 X178 Y-171 Z0
G01 X177 Y-171 Z0.917647
G01 X176 Y-171 Z2
G01 X90 Y-171 Z2
G01 X89 Y-171 Z0.039216
G01 X88 Y-171 Z0
G01 X80 Y-171 Z0
G01 X79 Y-171 Z0.094118
G01 X78 Y-171 Z1.937255
G01 X77 Y-171 Z2
G01 X0 Y-171 Z2
G01 X0 Y-172 Z2
G01 X0 Y-173 Z2
G01 X76 Y-173 Z2
G01 X77 Y-173 Z1.2
G01 X78 Y-173 Z0
G01 X87 Y-173 Z0
G01 X88 Y-173 Z0.501961
G01 X89 Y-173 Z2
G01 X174 Y-173 Z2
G01 X175 Y-173 Z0.047059
G01 X176 Y-173 Z0
G01 X188 Y-173 Z0
G01 X189 Y-173 Z0.070588
G01 X190 Y-173 Z0.070588
G01 X191 Y-173 Z0.031373
G01 X192 Y-173 Z0.031373
G01 X193 Y-173 Z0
G01 X377 Y-173 Z0
G01 X378 Y-173 Z0.031373
G01 X379 Y-173 Z0.070588
G01 X380 Y-173 Z0.070588
G01 X381 Y-173 Z0
G01 X394 Y-173 Z0
G01 X395 Y-173 Z0.666667
G01 X396 Y-173 Z2
G01 X407 Y-173 Z2
G01 X408 Y-173 Z0.54902
G01 X409 Y-173 Z0
G01 X422 Y-173 Z0
G01 X423 Y-173 Z0.015686
G01 X424 Y-173 Z0.070588
G01 X425 Y-173 Z0.070588
G01 X426 Y-173 Z0
G01 X608 Y-173 Z0
G01 X609 Y-173 Z0.070588
G01 X610 Y-173 Z0.070588
G01 X611 Y-173 Z0.015686
G01 X612 Y-173 Z0.015686
G01 X613 Y-173 Z0
G01 X625 Y-173 Z0
G01 X626 Y-173 Z0.188235
G01 X627 Y-173 Z2
G01 X710 Y-173 Z2
G01 X711 Y-173 Z0.133333
G01 X712 Y-173 Z0
G01 X720 Y-173 Z0
G01 X721 Y-173 Z0.047059
G01 X722 Y-173 Z1.858824
G01 X723 Y-173 Z2
G01 X799 Y-173 Z2
G01 X799 Y-174 Z2
G01 X799 Y-175 Z2
G01 X724 Y-175 Z2
G01 X723 Y-175 Z1.027451
G01 X722 Y-175 Z0
G01 X713 Y-175 Z0
G01 X712 Y-175 Z0.839216
G01 X711 Y-175 Z2
G01 X630 Y-175 Z2
G01 X629 Y-175 Z0.423529
G01 X628 Y-175 Z0
G01 X616 Y-175 Z0
G01 X615 Y-175 Z0.031373
G01 X614 Y-175 Z0.031373
G01 X613 Y-175 Z0.070588
G01 X612 Y-175 Z0.070588
G01 X611 Y-175 Z0
G01 X427 Y-175 Z0
G01 X426 Y-175 Z0.031373
G01 X425 Y-175 Z0.031373
G01 X424 Y-175 Z0
G01 X412 Y-175 Z0
G01 X411 Y-175 Z0.533333
G01 X410 Y-175 Z2
G01 X393 Y-175 Z2
G01 X392 Y-175 Z1.105882
G01 X391 Y-175 Z0.007843
G01 X390 Y-175 Z0
G01 X377 Y-175 Z0
G01 X376 Y-175 Z0.078431
G01 X375 Y-175 Z0.078431
G01 X374 Y-175 Z0
G01 X189 Y-175 Z0
G01 X188 Y-175 Z0.007843
G01 X187 Y-175 Z0.062745
G01 X186 Y-175 Z0.062745
G01 X185 Y-175 Z0
G01 X173 Y-175 Z0
G01 X172 Y-175 Z0.313725
G01 X171 Y-175 Z2
G01 X87 Y-175 Z2
G01 X86 Y-175 Z0.007843
G01 X85 Y-175 Z0
G01 X77 Y-175 Z0
G01 X76 Y-175 Z0.329412
G01 X75 Y-175 Z2
G01 X0 Y-175 Z2
G01 X0 Y-176 Z2
G01 X0 Y-177 Z2
G01 X73 Y-177 Z2
G01 X74 Y-177 Z1.756863
G01 X75 Y-177 Z0.023529
G01 X76 Y-177 Z0
G01 X84 Y-177 Z0
G01 X85 Y-177 Z0.337255
G01 X86 Y-177 Z2
G01 X168 Y-177 Z2
G01 X169 Y-177 Z1.090196
G01 X170 Y-177 Z0
G01 X182 Y-177 Z0
G01 X183 Y-177 Z0.047059
G01 X184 Y-177 Z0.047059
G01 X185 Y-177 Z0.031373
G01 X186 Y-177 Z0.031373
G01 X187 Y-177 Z0
G01 X372 Y-177 Z0
G01 X373 Y-177 Z0.007843
G01 X374 Y-177 Z0.039216
G01 X375 Y-177 Z0.039216
G01 X376 Y-177 Z0
G01 X388 Y-177 Z0
G01 X389 Y-177 Z0.792157
G01 X390 Y-177 Z2
G01 X413 Y-177 Z2
G01 X414 Y-177 Z0.439216
G01 X415 Y-177 Z0
G01 X427 Y-177 Z0
G01 X428 Y-177 Z0.078431
G01 X429 Y-177 Z0.078431
G01 X430 Y-177 Z0.054902
G01 X431 Y-177 Z0
G01 X614 Y-177 Z0
G01 X615 Y-177 Z0.062745
G01 X616 Y-177 Z0.062745
G01 X617 Y-177 Z0.023529
G01 X618 Y-177 Z0.023529
G01 X619 Y-177 Z0
G01 X630 Y-177 Z0
G01 X631 Y-177 Z0.007843
G01 X632 Y-177 Z1.333333
G01 X633 Y-177 Z2
G01 X713 Y-177 Z2
G01 X714 Y-177 Z0.047059
G01 X715 Y-177 Z0
G01 X723 Y-177 Z0
G01 X724 Y-177 Z0.258824
G01 X725 Y-177 Z2
G01 X799 Y-177 Z2
G01 X799 Y-178 Z2
G01 X799 Y-179 Z2
G01 X727 Y-179 Z2
G01 X726 Y-179 Z1.623529
G01 X725 Y-179 Z0.007843
G01 X724 Y-179 Z0
G01 X716 Y-179 Z0
G01 X715 Y-179 Z0.478431
G01 X714 Y-179 Z2
G01 X635 Y-179 Z2
G01 X634 Y-179 Z0.305882
G01 X633 Y-179 Z0
G01 X620 Y-179 Z0
G01 X619 Y-179 Z0.070588
G01 X618 Y-179 Z0.070588
G01 X617 Y-179 Z0
G01 X432 Y-179 Z0
G01 X431 Y-179 Z0.015686
G01 X430 Y-179 Z0.015686
G01 X429 Y-179 Z0
G01 X418 Y-179 Z0
G01 X417 Y-179 Z0.219608
G01 X416 Y-179 Z2
G01 X387 Y-179 Z2
G01 X386 Y-179 Z0.533333
G01 X385 Y-179 Z0
G01 X373 Y-179 Z0
G01 X372 Y-179 Z0.047059
G01 X371 Y-179 Z0.070588
G01 X370 Y-179 Z0.070588
G01 X369 Y-179 Z0
G01 X184 Y-179 Z0
G01 X183 Y-179 Z0.054902
G01 X182 Y-179 Z0.054902
G01 X181 Y-179 Z0.023529
G01 X180 Y-179 Z0.023529
G01 X179 Y-179 Z0
G01 X168 Y-179 Z0
G01 X167 Y-179 Z0.227451
G01 X166 Y-179 Z2
G01 X85 Y-179 Z2
G01 X84 Y-179 Z1.937255
G01 X83 Y-179 Z0
G01 X74 Y-179 Z0
G01 X73 Y-179 Z0.831373
G01 X72 Y-179 Z2
G01 X0 Y-179 Z2
G01 X0 Y-180 Z2
G01 X0 Y-181 Z2
G01 X71 Y-181 Z2
G01 X72 Y-181 Z0.203922
G01 X73 Y-181 Z0
G01 X81 Y-181 Z0
G01 X82 Y-181 Z0.094118
G01 X83 Y-181 Z2
G01 X164 Y-181 Z2
G01 X165 Y-181 Z0.015686
G01 X166 Y-181 Z0
G01 X177 Y-181 Z0
G01 X178 Y-181 Z0.039216
G01 X179 Y-181 Z0.070588
G01 X180 Y-181 Z0.070588
G01 X181 Y-181 Z0
G01 X367 Y-181 Z0
G01 X368 Y-181 Z0.015686
G01 X369 Y-181 Z0.047059
G01 X370 Y-181 Z0.047059
G01 X371 Y-181 Z0
G01 X382 Y-181 Z0
G01 X383 Y-181 Z0.227451
G01 X384 Y-181 Z2
G01 X419 Y-181 Z2
G01 X420 Y-181 Z0.047059
G01 X421 Y-181 Z0
G01 X432 Y-181 Z0
G01 X433 Y-181 Z0.054902
G01 X434 Y-181 Z0.070588
G01 X435 Y-181 Z0.070588
G01 X436 Y-181 Z0
G01 X620 Y-181 Z0
G01 X621 Y-181 Z0.047059
G01 X622 Y-181 Z0.070588
G01 X623 Y-181 Z0.070588
G01 X624 Y-181 Z0
G01 X635 Y-181 Z0
G01 X636 Y-181 Z0.007843
G01 X637 Y-181 Z1.560784
G01 X638 Y-181 Z2
G01 X716 Y-181 Z2
G01 X717 Y-181 Z0
G01 X726 Y-181 Z0
G01 X727 Y-181 Z0.831373
G01 X728 Y-181 Z2
G01 X799 Y-181 Z2
G01 X799 Y-182 Z2
G01 X799 Y-183 Z2
G01 X729 Y-183 Z2
G01 X728 Y-183 Z0.219608
G01 X727 Y-183 Z0
G01 X719 Y-183 Z0
G01 X718 Y-183 Z0.172549
G01 X717 Y-183 Z2
G01 X640 Y-183 Z2
G01 X639 Y-183 Z0.509804
G01 X638 Y-183 Z0
G01 X627 Y-183 Z0
G01 X626 Y-183 Z0.047059
G01 X625 Y-183 Z0.047059
G01 X624 Y-183 Z0.007843
G01 X623 Y-183 Z0
G01 X438 Y-183 Z0
G01 X437 Y-183 Z0.023529
G01 X436 Y-183 Z0.054902
G01 X435 Y-183 Z0.054902
G01 X434 Y-183 Z0
G01 X423 Y-183 Z0
G01 X422 Y-183 Z0.541176
G01 X421 Y-183 Z2
G01 X382 Y-183 Z2
G01 X381 Y-183 Z1.819608
G01 X380 Y-183 Z0.023529
G01 X379 Y-183 Z0
G01 X367 Y-183 Z0
G01 X366 Y-183 Z0.039216
G01 X365 Y-183 Z0.039216
G01 X364 Y-183 Z0
G01 X178 Y-183 Z0
G01 X177 Y-183 Z0.007843
G01 X176 Y-183 Z0.062745
G01 X175 Y-183 Z0.062745
G01 X174 Y-183 Z0
G01 X163 Y-183 Z0
G01 X162 Y-183 Z0.517647
G01 X161 Y-183 Z2
G01 X82 Y-183 Z2
G01 X81 Y-183 Z0.611765
G01 X80 Y-183 Z0
G01 X72 Y-183 Z0
G01 X71 Y-183 Z0.007843
G01 X70 Y-183 Z1.694118
G01 X69 Y-183 Z2
G01 X0 Y-183 Z2
G01 X0 Y-184 Z2
G01 X0 Y-185 Z2
G01 X68 Y-185 Z2
G01 X69 Y-185 Z0.941176
G01 X70 Y-185 Z0
G01 X79 Y-185 Z0
G01 X80 Y-185 Z2
G01 X159 Y-185 Z2
G01 X160 Y-185 Z0.164706
G01 X161 Y-185 Z0
G01 X173 Y-185 Z0
G01 X174 Y-185 Z0.062745
G01 X175 Y-185 Z0.062745
G01 X176 Y-185 Z0
G01 X362 Y-185 Z0
G01 X363 Y-185 Z0.070588
G01 X365 Y-185 Z0.070588
G01 X366 Y-185 Z0
G01 X377 Y-185 Z0
G01 X378 Y-185 Z0.376471
G01 X379 Y-185 Z2
G01 X424 Y-185 Z2
G01 X425 Y-185 Z0.086275
G01 X426 Y-185 Z0
G01 X436 Y-185 Z0
G01 X437 Y-185 Z0.007843
G01 X438 Y-185 Z0.007843
G01 X439 Y-185 Z0
G01 X625 Y-185 Z0
G01 X626 Y-185 Z0.070588
G01 X627 Y-185 Z0.070588
G01 X628 Y-185 Z0.031373
G01 X629 Y-185 Z0
G01 X640 Y-185 Z0
G01 X641 Y-185 Z0.203922
G01 X642 Y-185 Z2
G01 X718 Y-185 Z2
G01 X719 Y-185 Z0.658824
G01 X720 Y-185 Z0
G01 X728 Y-185 Z0
G01 X729 Y-185 Z0.015686
G01 X730 Y-185 Z1.709804
G01 X731 Y-185 Z2
G01 X799 Y-185 Z2
G01 X799 Y-186 Z2
G01 X799 Y-187 Z2
G01 X732 Y-187 Z2
G01 X731 Y-187 Z0.996078
G01 X730 Y-187 Z0
G01 X721 Y-187 Z0
G01 X720 Y-187 Z2
G01 X644 Y-187 Z2
G01 X643 Y-187 Z0.047059
G01 X642 Y-187 Z0
G01 X632 Y-187 Z0
G01 X631 Y-187 Z0.039216
G01 X630 Y-187 Z0.039216
G01 X629 Y-187 Z0.007843
G01 X628 Y-187 Z0
G01 X443 Y-187 Z0
G01 X442 Y-187 Z0.031373
G01 X441 Y-187 Z0.031373
G01 X440 Y-187 Z0
G01 X428 Y-187 Z0
G01 X427 Y-187 Z0.494118
G01 X426 Y-187 Z2
G01 X377 Y-187 Z2
G01 X376 Y-187 Z1.984314
G01 X375 Y-187 Z0.015686
G01 X374 Y-187 Z0
G01 X364 Y-187 Z0
G01 X363 Y-187 Z0.062745
G01 X362 Y-187 Z0.062745
G01 X361 Y-187 Z0.047059
G01 X360 Y-187 Z0
G01 X173 Y-187 Z0
G01 X172 Y-187 Z0.015686
G01 X171 Y-187 Z0.047059
G01 X170 Y-187 Z0.047059
G01 X169 Y-187 Z0
G01 X159 Y-187 Z0
G01 X158 Y-187 Z0.070588
G01 X157 Y-187 Z2
G01 X79 Y-187 Z2
G01 X78 Y-187 Z0.12549
G01 X77 Y-187 Z0
G01 X69 Y-187 Z0
G01 X68 Y-187 Z0.266667
G01 X67 Y-187 Z2
G01 X0 Y-187 Z2
G01 X0 Y-188 Z2
G01 X0 Y-189 Z2
G01 X65 Y-189 Z2
G01 X66 Y-189 Z1.890196
G01 X67 Y-189 Z0.039216
G01 X68 Y-189 Z0
G01 X76 Y-189 Z0
G01 X77 Y-189 Z0.580392
G01 X78 Y-189 Z2
G01 X155 Y-189 Z2
G01 X156 Y-189 Z0.015686
G01 X157 Y-189 Z0
G01 X167 Y-189 Z0
G01 X168 Y-189 Z0.062745
G01 X169 Y-189 Z0.070588
G01 X170 Y-189 Z0.070588
G01 X171 Y-189 Z0
G01 X358 Y-189 Z0
G01 X359 Y-189 Z0.023529
G01 X360 Y-189 Z0.031373
G01 X361 Y-189 Z0.031373
G01 X362 Y-189 Z0
G01 X372 Y-189 Z0
G01 X373 Y-189 Z0.211765
G01 X374 Y-189 Z2
G01 X429 Y-189 Z2
G01 X430 Y-189 Z0.015686
G01 X431 Y-189 Z0
G01 X441 Y-189 Z0
G01 X442 Y-189 Z0.054902
G01 X443 Y-189 Z0.070588
G01 X444 Y-189 Z0.070588
G01 X445 Y-189 Z0
G01 X630 Y-189 Z0
G01 X631 Y-189 Z0.070588
G01 X632 Y-189 Z0.070588
G01 X633 Y-189 Z0.054902
G01 X634 Y-189 Z0
G01 X645 Y-189 Z0
G01 X646 Y-189 Z1.333333
G01 X647 Y-189 Z2
G01 X721 Y-189 Z2
G01 X722 Y-189 Z0.133333
G01 X723 Y-189 Z0
G01 X731 Y-189 Z0
G01 X732 Y-189 Z0.392157
G01 X733 Y-189 Z2
G01 X799 Y-189 Z2
G01 X799 Y-190 Z2
G01 X799 Y-191 Z2
G01 X735 Y-191 Z2
G01 X734 Y-191 Z1.952941
G01 X733 Y-191 Z0.078431
G01 X732 Y-191 Z0
G01 X724 Y-191 Z0
G01 X723 Y-191 Z0.556863
G01 X722 Y-191 Z2
G01 X649 Y-191 Z2
G01 X648 Y-191 Z0.956863
G01 X647 Y-191 Z0
G01 X447 Y-191 Z0
G01 X446 Y-191 Z0.078431
G01 X445 Y-191 Z0.078431
G01 X444 Y-191 Z0.070588
G01 X443 Y-191 Z0
G01 X433 Y-191 Z0
G01 X432 Y-191 Z0.133333
G01 X431 Y-191 Z2
G01 X372 Y-191 Z2
G01 X371 Y-191 Z0.603922
G01 X370 Y-191 Z0
G01 X360 Y-191 Z0
G01 X359 Y-191 Z0.015686
G01 X358 Y-191 Z0.015686
G01 X357 Y-191 Z0.007843
G01 X356 Y-191 Z0
G01 X154 Y-191 Z0
G01 X153 Y-191 Z1.168627
G01 X152 Y-191 Z2
G01 X76 Y-191 Z2
G01 X75 Y-191 Z0
G01 X66 Y-191 Z0
G01 X65 Y-191 Z1.443137
G01 X64 Y-191 Z2
G01 X0 Y-191 Z2
G01 X0 Y-192 Z2
G01 X0 Y-193 Z2
G01 X63 Y-193 Z2
G01 X64 Y-193 Z0.760784
G01 X65 Y-193 Z0
G01 X73 Y-193 Z0
G01 X74 Y-193 Z0.054902
G01 X75 Y-193 Z2
G01 X150 Y-193 Z2
G01 X151 Y-193 Z1.356863
G01 X152 Y-193 Z0
G01 X162 Y-193 Z0
G01 X163 Y-193 Z0.015686
G01 X164 Y-193 Z0.015686
G01 X165 Y-193 Z0.007843
G01 X166 Y-193 Z0
G01 X354 Y-193 Z0
G01 X355 Y-193 Z0.007843
G01 X357 Y-193 Z0.007843
G01 X358 Y-193 Z0
G01 X368 Y-193 Z0
G01 X369 Y-193 Z1.341176
G01 X370 Y-193 Z2
G01 X433 Y-193 Z2
G01 X434 Y-193 Z0.352941
G01 X435 Y-193 Z0
G01 X445 Y-193 Z0
G01 X446 Y-193 Z0.078431
G01 X448 Y-193 Z0.078431
G01 X449 Y-193 Z0
G01 X635 Y-193 Z0
G01 X636 Y-193 Z0.015686
G01 X637 Y-193 Z0.031373
G01 X638 Y-193 Z0.031373
G01 X639 Y-193 Z0
G01 X649 Y-193 Z0
G01 X650 Y-193 Z0.713725
G01 X651 Y-193 Z2
G01 X723 Y-193 Z2
G01 X724 Y-193 Z1.905882
G01 X725 Y-193 Z0
G01 X734 Y-193 Z0
G01 X735 Y-193 Z1.607843
G01 X736 Y-193 Z2
G01 X799 Y-193 Z2
G01 X799 Y-194 Z2
G01 X799 Y-195 Z2
G01 X737 Y-195 Z2
G01 X736 Y-195 Z0.996078
G01 X735 Y-195 Z0
G01 X727 Y-195 Z0
G01 X726 Y-195 Z0.023529
G01 X725 Y-195 Z2
G01 X653 Y-195 Z2
G01 X652 Y-195 Z0.666667
G01 X651 Y-195 Z0
G01 X641 Y-195 Z0
G01 X640 Y-195 Z0.062745
G01 X639 Y-195 Z0.062745
G01 X638 Y-195 Z0.054902
G01 X637 Y-195 Z0
G01 X451 Y-195 Z0
G01 X450 Y-195 Z0.070588
G01 X448 Y-195 Z0.070588
G01 X447 Y-195 Z0
G01 X437 Y-195 Z0
G01 X436 Y-195 Z0.52549
G01 X435 Y-195 Z2
G01 X367 Y-195 Z2
G01 X366 Y-195 Z0.047059
G01 X365 Y-195 Z0
G01 X356 Y-195 Z0
G01 X355 Y-195 Z0.007843
G01 X353 Y-195 Z0.007843
G01 X352 Y-195 Z0
G01 X164 Y-195 Z0
G01 X163 Y-195 Z0.031373
G01 X162 Y-195 Z0.039216
G01 X161 Y-195 Z0.039216
G01 X160 Y-195 Z0
G01 X150 Y-195 Z0
G01 X149 Y-195 Z1.647059
G01 X148 Y-195 Z2
G01 X74 Y-195 Z2
G01 X73 Y-195 Z0.290196
G01 X72 Y-195 Z0
G01 X64 Y-195 Z0
G01 X63 Y-195 Z0.27451
G01 X62 Y-195 Z2
G01 X0 Y-195 Z2
G01 X0 Y-196 Z2
G01 X0 Y-197 Z2
G01 X60 Y-197 Z2
G01 X61 Y-197 Z1.968627
G01 X62 Y-197 Z0.078431
G01 X63 Y-197 Z0
G01 X71 Y-197 Z0
G01 X72 Y-197 Z0.784314
G01 X73 Y-197 Z2
G01 X147 Y-197 Z2
G01 X148 Y-197 Z0
G01 X158 Y-197 Z0
G01 X159 Y-197 Z0.070588
G01 X160 Y-197 Z0.070588
G01 X161 Y-197 Z0.054902
G01 X162 Y-197 Z0
G01 X350 Y-197 Z0
G01 X351 Y-197 Z0.015686
G01 X353 Y-197 Z0.015686
G01 X354 Y-197 Z0
G01 X363 Y-197 Z0
G01 X364 Y-197 Z0.086275
G01 X365 Y-197 Z2
G01 X437 Y-197 Z2
G01 X438 Y-197 Z0.666667
G01 X439 Y-197 Z0
G01 X449 Y-197 Z0
G01 X450 Y-197 Z0.062745
G01 X451 Y-197 Z0.062745
G01 X452 Y-197 Z0.047059
G01 X453 Y-197 Z0
G01 X639 Y-197 Z0
G01 X640 Y-197 Z0.070588
G01 X642 Y-197 Z0.070588
G01 X643 Y-197 Z0
G01 X653 Y-197 Z0
G01 X654 Y-197 Z0.980392
G01 X655 Y-197 Z2
G01 X726 Y-197 Z2
G01 X727 Y-197 Z0.211765
G01 X728 Y-197 Z0
G01 X736 Y-197 Z0
G01 X737 Y-197 Z0.52549
G01 X738 Y-197 Z2
G01 X799 Y-197 Z2
G01 X799 Y-198 Z2
G01 X799 Y-199 Z2
G01 X739 Y-199 Z2
G01 X738 Y-199 Z0.219608
G01 X737 Y-199 Z0
G01 X729 Y-199 Z0
G01 X728 Y-199 Z0.596078
G01 X727 Y-199 Z2
G01 X657 Y-199 Z2
G01 X656 Y-199 Z1.87451
G01 X655 Y-199 Z0
G01 X645 Y-199 Z0
G01 X644 Y-199 Z0.070588
G01 X642 Y-199 Z0.070588
G01 X641 Y-199 Z0
G01 X454 Y-199 Z0
G01 X453 Y-199 Z0.015686
G01 X452 Y-199 Z0.015686
G01 X451 Y-199 Z0
G01 X441 Y-199 Z0
G01 X440 Y-199 Z0.776471
G01 X439 Y-199 Z2
G01 X363 Y-199 Z2
G01 X362 Y-199 Z0.133333
G01 X361 Y-199 Z0
G01 X352 Y-199 Z0
G01 X351 Y-199 Z0.023529
G01 X350 Y-199 Z0.047059
G01 X349 Y-199 Z0.047059
G01 X348 Y-199 Z0
G01 X160 Y-199 Z0
G01 X159 Y-199 Z0.070588
G01 X157 Y-199 Z0.070588
G01 X156 Y-199 Z0
G01 X147 Y-199 Z0
G01 X146 Y-199 Z0.007843
G01 X145 Y-199 Z2
G01 X71 Y-199 Z2
G01 X70 Y-199 Z0
G01 X62 Y-199 Z0
G01 X61 Y-199 Z0.007843
G01 X60 Y-199 Z1.72549
G01 X59 Y-199 Z2
G01 X0 Y-199 Z2
G01 X0 Y-200 Z2
G01 X0 Y-201 Z2
G01 X58 Y-201 Z2
G01 X59 Y-201 Z1.286275
G01 X60 Y-201 Z0
G01 X68 Y-201 Z0
G01 X69 Y-201 Z0.015686
G01 X70 Y-201 Z2
G01 X143 Y-201 Z2
G01 X144 Y-201 Z0.133333
G01 X145 Y-201 Z0
G01 X154 Y-201 Z0
G01 X155 Y-201 Z0.062745
G01 X157 Y-201 Z0.062745
G01 X158 Y-201 Z0
G01 X346 Y-201 Z0
G01 X347 Y-201 Z0.070588
G01 X348 Y-201 Z0.070588
G01 X349 Y-201 Z0.062745
G01 X350 Y-201 Z0
G01 X359 Y-201 Z0
G01 X360 Y-201 Z0.086275
G01 X361 Y-201 Z2
G01 X441 Y-201 Z2
G01 X442 Y-201 Z0.745098
G01 X443 Y-201 Z0
G01 X643 Y-201 Z0
G01 X644 Y-201 Z0.070588
G01 X646 Y-201 Z0.070588
G01 X647 Y-201 Z0
G01 X656 Y-201 Z0
G01 X657 Y-201 Z0.015686
G01 X658 Y-201 Z2
G01 X728 Y-201 Z2
G01 X729 Y-201 Z1.466667
G01 X730 Y-201 Z0
G01 X738 Y-201 Z0
G01 X739 Y-201 Z0.054902
G01 X740 Y-201 Z1.921569
G01 X741 Y-201 Z2
G01 X799 Y-201 Z2
G01 X799 Y-202 Z2
G01 X799 Y-203 Z2
G01 X742 Y-203 Z2
G01 X741 Y-203 Z1.623529
G01 X740 Y-203 Z0
G01 X731 Y-203 Z0
G01 X730 Y-203 Z2
G01 X660 Y-203 Z2
G01 X659 Y-203 Z0.078431
G01 X658 Y-203 Z0
G01 X649 Y-203 Z0
G01 X648 Y-203 Z0.070588
G01 X646 Y-203 Z0.070588
G01 X645 Y-203 Z0
G01 X458 Y-203 Z0
G01 X457 Y-203 Z0.031373
G01 X456 Y-203 Z0.031373
G01 X455 Y-203 Z0.015686
G01 X454 Y-203 Z0
G01 X445 Y-203 Z0
G01 X444 Y-203 Z0.588235
G01 X443 Y-203 Z2
G01 X359 Y-203 Z2
G01 X358 Y-203 Z0.078431
G01 X357 Y-203 Z0
G01 X348 Y-203 Z0
G01 X347 Y-203 Z0.070588
G01 X346 Y-203 Z0.070588
G01 X345 Y-203 Z0.039216
G01 X344 Y-203 Z0
G01 X156 Y-203 Z0
G01 X155 Y-203 Z0.054902
G01 X154 Y-203 Z0.054902
G01 X153 Y-203 Z0.047059
G01 X152 Y-203 Z0
G01 X143 Y-203 Z0
G01 X142 Y-203 Z0.368627
G01 X141 Y-203 Z2
G01 X69 Y-203 Z2
G01 X68 Y-203 Z0.14902
G01 X67 Y-203 Z0
G01 X59 Y-203 Z0
G01 X58 Y-203 Z0.792157
G01 X57 Y-203 Z2
G01 X0 Y-203 Z2
G01 X0 Y-204 Z2
G01 X0 Y-205 Z2
G01 X56 Y-205 Z2
G01 X57 Y-205 Z0.486275
G01 X58 Y-205 Z0
G01 X66 Y-205 Z0
G01 X67 Y-205 Z0.384314
G01 X68 Y-205 Z2
G01 X139 Y-205 Z2
G01 X140 Y-205 Z0.752941
G01 X141 Y-205 Z0
G01 X150 Y-205 Z0
G01 X151 Y-205 Z0.031373
G01 X152 Y-205 Z0.039216
G01 X153 Y-205 Z0.039216
G01 X154 Y-205 Z0
G01 X355 Y-205 Z0
G01 X356 Y-205 Z0.015686
G01 X357 Y-205 Z2
G01 X445 Y-205 Z2
G01 X446 Y-205 Z0.407843
G01 X447 Y-205 Z0
G01 X456 Y-205 Z0
G01 X457 Y-205 Z0.054902
G01 X458 Y-205 Z0.070588
G01 X459 Y-205 Z0.070588
G01 X460 Y-205 Z0
G01 X647 Y-205 Z0
G01 X648 Y-205 Z0.070588
G01 X649 Y-205 Z0.070588
G01 X650 Y-205 Z0.054902
G01 X651 Y-205 Z0
G01 X660 Y-205 Z0
G01 X661 Y-205 Z0.337255
G01 X662 Y-205 Z2
G01 X731 Y-205 Z2
G01 X732 Y-205 Z0.039216
G01 X733 Y-205 Z0
G01 X741 Y-205 Z0
G01 X742 Y-205 Z1.301961
G01 X743 Y-205 Z2
G01 X799 Y-205 Z2
G01 X799 Y-206 Z2
G01 X799 Y-207 Z2
G01 X744 Y-207 Z2
G01 X743 Y-207 Z1.027451
G01 X742 Y-207 Z0
G01 X734 Y-207 Z0
G01 X733 Y-207 Z0.196078
G01 X732 Y-207 Z2
G01 X664 Y-207 Z2
G01 X663 Y-207 Z1.192157
G01 X662 Y-207 Z0
G01 X653 Y-207 Z0
G01 X652 Y-207 Z0.031373
G01 X651 Y-207 Z0.047059
G01 X650 Y-207 Z0.047059
G01 X649 Y-207 Z0
G01 X461 Y-207 Z0
G01 X460 Y-207 Z0.031373
G01 X459 Y-207 Z0.031373
G01 X458 Y-207 Z0
G01 X449 Y-207 Z0
G01 X448 Y-207 Z0.196078
G01 X447 Y-207 Z2
G01 X356 Y-207 Z2
G01 X355 Y-207 Z1.701961
G01 X354 Y-207 Z0
G01 X345 Y-207 Z0
G01 X344 Y-207 Z0.007843
G01 X343 Y-207 Z0.031373
G01 X342 Y-207 Z0.031373
G01 X341 Y-207 Z0
G01 X152 Y-207 Z0
G01 X151 Y-207 Z0.007843
G01 X150 Y-207 Z0.007843
G01 X149 Y-207 Z0
G01 X139 Y-207 Z0
G01 X138 Y-207 Z2
G01 X67 Y-207 Z2
G01 X66 Y-207 Z0.745098
G01 X65 Y-207 Z0
G01 X57 Y-207 Z0
G01 X56 Y-207 Z0.282353
G01 X55 Y-207 Z2
G01 X0 Y-207 Z2
G01 X0 Y-208 Z2
G01 X0 Y-209 Z2
G01 X54 Y-209 Z2
G01 X55 Y-209 Z0.133333
G01 X56 Y-209 Z0
G01 X64 Y-209 Z0
G01 X65 Y-209 Z1.592157
G01 X66 Y-209 Z2
G01 X136 Y-209 Z2
G01 X137 Y-209 Z0.266667
G01 X138 Y-209 Z0
G01 X147 Y-209 Z0
G01 X148 Y-209 Z0.015686
G01 X149 Y-209 Z0.015686
G01 X150 Y-209 Z0
G01 X339 Y-209 Z0
G01 X340 Y-209 Z0.054902
G01 X341 Y-209 Z0.070588
G01 X342 Y-209 Z0.070588
G01 X343 Y-209 Z0
G01 X352 Y-209 Z0
G01 X353 Y-209 Z0.658824
G01 X354 Y-209 Z2
G01 X449 Y-209 Z2
G01 X450 Y-209 Z0.039216
G01 X451 Y-209 Z0
G01 X460 Y-209 Z0
G01 X461 Y-209 Z0.023529
G01 X462 Y-209 Z0.023529
G01 X463 Y-209 Z0
G01 X651 Y-209 Z0
G01 X652 Y-209 Z0.023529
G01 X653 Y-209 Z0.023529
G01 X654 Y-209 Z0
G01 X663 Y-209 Z0
G01 X664 Y-209 Z0.031373
G01 X665 Y-209 Z2
G01 X733 Y-209 Z2
G01 X734 Y-209 Z0.352941
G01 X735 Y-209 Z0
G01 X743 Y-209 Z0
G01 X744 Y-209 Z0.713725
G01 X745 Y-209 Z2
G01 X799 Y-209 Z2
G01 X799 Y-210 Z2
G01 X799 Y-211 Z2
G01 X746 Y-211 Z2
G01 X745 Y-211 Z0.462745
G01 X744 Y-211 Z0
G01 X736 Y-211 Z0
G01 X735 Y-211 Z0.564706
G01 X734 Y-211 Z2
G01 X667 Y-211 Z2
G01 X666 Y-211 Z0.290196
G01 X665 Y-211 Z0
G01 X656 Y-211 Z0
G01 X655 Y-211 Z0.007843
G01 X654 Y-211 Z0.007843
G01 X653 Y-211 Z0
G01 X465 Y-211 Z0
G01 X464 Y-211 Z0.062745
G01 X463 Y-211 Z0.070588
G01 X462 Y-211 Z0.070588
G01 X461 Y-211 Z0
G01 X452 Y-211 Z0
G01 X451 Y-211 Z1.482353
G01 X450 Y-211 Z2
G01 X352 Y-211 Z2
G01 X351 Y-211 Z0.25098
G01 X350 Y-211 Z0
G01 X149 Y-211 Z0
G01 X148 Y-211 Z0.062745
G01 X147 Y-211 Z0.078431
G01 X146 Y-211 Z0.078431
G01 X145 Y-211 Z0
G01 X136 Y-211 Z0
G01 X135 Y-211 Z1.145098
G01 X134 Y-211 Z2
G01 X64 Y-211 Z2
G01 X63 Y-211 Z0
G01 X55 Y-211 Z0
G01 X54 Y-211 Z0.054902
G01 X53 Y-211 Z1.952941
G01 X52 Y-211 Z2
G01 X0 Y-211 Z2
G01 X0 Y-212 Z2
G01 X0 Y-213 Z2
G01 X51 Y-213 Z2
G01 X52 Y-213 Z1.87451
G01 X53 Y-213 Z0.023529
G01 X54 Y-213 Z0
G01 X62 Y-213 Z0
G01 X63 Y-213 Z2
G01 X133 Y-213 Z2
G01 X134 Y-213 Z0.070588
G01 X135 Y-213 Z0
G01 X143 Y-213 Z0
G01 X144 Y-213 Z0.015686
G01 X145 Y-213 Z0.062745
G01 X146 Y-213 Z0.062745
G01 X147 Y-213 Z0
G01 X336 Y-213 Z0
G01 X337 Y-213 Z0.070588
G01 X338 Y-213 Z0.070588
G01 X339 Y-213 Z0.031373
G01 X340 Y-213 Z0
G01 X348 Y-213 Z0
G01 X349 Y-213 Z0.039216
G01 X350 Y-213 Z2
G01 X452 Y-213 Z2
G01 X453 Y-213 Z0.392157
G01 X454 Y-213 Z0
G01 X654 Y-213 Z0
G01 X655 Y-213 Z0.070588
G01 X657 Y-213 Z0.070588
G01 X658 Y-213 Z0
G01 X667 Y-213 Z0
G01 X668 Y-213 Z2
G01 X735 Y-213 Z2
G01 X736 Y-213 Z0.894118
G01 X737 Y-213 Z0
G01 X745 Y-213 Z0
G01 X746 Y-213 Z0.313725
G01 X747 Y-213 Z2
G01 X799 Y-213 Z2
G01 X799 Y-214 Z2
G01 X799 Y-215 Z2
G01 X748 Y-215 Z2
G01 X747 Y-215 Z0.243137
G01 X746 Y-215 Z0
G01 X738 Y-215 Z0
G01 X737 Y-215 Z1.686275
G01 X736 Y-215 Z2
G01 X670 Y-215 Z2
G01 X669 Y-215 Z0.188235
G01 X668 Y-215 Z0
G01 X660 Y-215 Z0
G01 X659 Y-215 Z0.007843
G01 X658 Y-215 Z0.039216
G01 X657 Y-215 Z0.039216
G01 X656 Y-215 Z0
G01 X468 Y-215 Z0
G01 X467 Y-215 Z0.070588
G01 X466 Y-215 Z0.070588
G01 X465 Y-215 Z0.047059
G01 X464 Y-215 Z0
G01 X456 Y-215 Z0
G01 X455 Y-215 Z0.054902
G01 X454 Y-215 Z2
G01 X349 Y-215 Z2
G01 X348 Y-215 Z0.901961
G01 X347 Y-215 Z0
G01 X338 Y-215 Z0
G01 X337 Y-215 Z0.023529
G01 X336 Y-215 Z0.023529
G01 X335 Y-215 Z0
G01 X133 Y-215 Z0
G01 X132 Y-215 Z0.627451
G01 X131 Y-215 Z2
G01 X62 Y-215 Z2
G01 X61 Y-215 Z0.023529
G01 X60 Y-215 Z0
G01 X53 Y-215 Z0
G01 X52 Y-215 Z0.007843
G01 X51 Y-215 Z1.764706
G01 X50 Y-215 Z2
G01 X0 Y-215 Z2
G01 X0 Y-216 Z2
G01 X0 Y-217 Z2
G01 X49 Y-217 Z2
G01 X50 Y-217 Z1.654902
G01 X51 Y-217 Z0
G01 X59 Y-217 Z0
G01 X60 Y-217 Z0.062745
G01 X61 Y-217 Z2
G01 X130 Y-217 Z2
G01 X131 Y-217 Z0.070588
G01 X132 Y-217 Z0
G01 X140 Y-217 Z0
G01 X141 Y-217 Z0.054902
G01 X142 Y-217 Z0.070588
G01 X143 Y-217 Z0.070588
G01 X144 Y-217 Z0
G01 X333 Y-217 Z0
G01 X334 Y-217 Z0.070588
G01 X335 Y-217 Z0.070588
G01 X336 Y-217 Z0.023529
G01 X337 Y-217 Z0
G01 X345 Y-217 Z0
G01 X346 Y-217 Z0.188235
G01 X347 Y-217 Z2
G01 X455 Y-217 Z2
G01 X456 Y-217 Z0.878431
G01 X457 Y-217 Z0
G01 X658 Y-217 Z0
G01 X659 Y-217 Z0.023529
G01 X660 Y-217 Z0.023529
G01 X661 Y-217 Z0
G01 X670 Y-217 Z0
G01 X671 Y-217 Z1.505882
G01 X672 Y-217 Z2
G01 X738 Y-217 Z2
G01 X739 Y-217 Z0
G01 X747 Y-217 Z0
G01 X748 Y-217 Z0.172549
G01 X749 Y-217 Z2
G01 X799 Y-217 Z2
G01 X799 Y-218 Z2
G01 X799 Y-219 Z2
G01 X750 Y-219 Z2
G01 X749 Y-219 Z0.109804
G01 X748 Y-219 Z0
G01 X740 Y-219 Z0
G01 X739 Y-219 Z2
G01 X673 Y-219 Z2
G01 X672 Y-219 Z0.156863
G01 X671 Y-219 Z0
G01 X663 Y-219 Z0
G01 X662 Y-219 Z0.031373
G01 X661 Y-219 Z0.070588
G01 X660 Y-219 Z0.070588
G01 X659 Y-219 Z0
G01 X471 Y-219 Z0
G01 X470 Y-219 Z0.054902
G01 X469 Y-219 Z0.054902
G01 X468 Y-219 Z0.047059
G01 X467 Y-219 Z0
G01 X459 Y-219 Z0
G01 X458 Y-219 Z0.164706
G01 X457 Y-219 Z2
G01 X345 Y-219 Z2
G01 X344 Y-219 Z0
G01 X335 Y-219 Z0
G01 X334 Y-219 Z0.023529
G01 X333 Y-219 Z0.023529
G01 X332 Y-219 Z0
G01 X142 Y-219 Z0
G01 X141 Y-219 Z0.023529
G01 X140 Y-219 Z0.023529
G01 X139 Y-219 Z0
G01 X130 Y-219 Z0
G01 X129 Y-219 Z0.870588
G01 X128 Y-219 Z2
G01 X60 Y-219 Z2
G01 X59 Y-219 Z0.109804
G01 X58 Y-219 Z0
G01 X50 Y-219 Z0
G01 X49 Y-219 Z1.537255
G01 X48 Y-219 Z2
G01 X0 Y-219 Z2
G01 X0 Y-220 Z2
G01 X0 Y-221 Z2
G01 X47 Y-221 Z2
G01 X48 Y-221 Z1.47451
G01 X49 Y-221 Z0
G01 X57 Y-221 Z0
G01 X58 Y-221 Z0.156863
G01 X59 Y-221 Z2
G01 X127 Y-221 Z2
G01 X128 Y-221 Z0.141176
G01 X129 Y-221 Z0
G01 X137 Y-221 Z0
G01 X138 Y-221 Z0.070588
G01 X139 Y-221 Z0.070588
G01 X140 Y-221 Z0.023529
G01 X141 Y-221 Z0
G01 X330 Y-221 Z0
G01 X331 Y-221 Z0.062745
G01 X332 Y-221 Z0.062745
G01 X333 Y-221 Z0.039216
G01 X334 Y-221 Z0
G01 X342 Y-221 Z0
G01 X343 Y-221 Z0.282353
G01 X344 Y-221 Z2
G01 X458 Y-221 Z2
G01 X459 Y-221 Z1.317647
G01 X460 Y-221 Z0
G01 X469 Y-221 Z0
G01 X470 Y-221 Z0.023529
G01 X471 Y-221 Z0.023529
G01 X472 Y-221 Z0
G01 X673 Y-221 Z0
G01 X674 Y-221 Z2
G01 X740 Y-221 Z2
G01 X741 Y-221 Z0
G01 X749 Y-221 Z0
G01 X750 Y-221 Z0.078431
G01 X751 Y-221 Z1.984314
G01 X752 Y-221 Z2
G01 X799 Y-221 Z2
G01 X799 Y-222 Z2
G01 X799 Y-223 Z2
G01 X753 Y-223 Z2
G01 X752 Y-223 Z1.984314
G01 X751 Y-223 Z0.078431
G01 X750 Y-223 Z0
G01 X742 Y-223 Z0
G01 X741 Y-223 Z2
G01 X676 Y-223 Z2
G01 X675 Y-223 Z0.454902
G01 X674 Y-223 Z0
G01 X666 Y-223 Z0
G01 X665 Y-223 Z0.047059
G01 X664 Y-223 Z0.070588
G01 X663 Y-223 Z0.070588
G01 X662 Y-223 Z0
G01 X473 Y-223 Z0
G01 X472 Y-223 Z0.078431
G01 X471 Y-223 Z0.078431
G01 X470 Y-223 Z0
G01 X462 Y-223 Z0
G01 X461 Y-223 Z0.141176
G01 X460 Y-223 Z2
G01 X342 Y-223 Z2
G01 X341 Y-223 Z0
G01 X332 Y-223 Z0
G01 X331 Y-223 Z0.015686
G01 X330 Y-223 Z0.015686
G01 X329 Y-223 Z0
G01 X139 Y-223 Z0
G01 X138 Y-223 Z0.015686
G01 X137 Y-223 Z0.015686
G01 X136 Y-223 Z0
G01 X127 Y-223 Z0
G01 X126 Y-223 Z1.905882
G01 X125 Y-223 Z2
G01 X58 Y-223 Z2
G01 X57 Y-223 Z0.235294
G01 X56 Y-223 Z0
G01 X48 Y-223 Z0
G01 X47 Y-223 Z1.482353
G01 X46 Y-223 Z2
G01 X0 Y-223 Z2
G01 X0 Y-224 Z2
G01 X0 Y-225 Z2
G01 X45 Y-225 Z2
G01 X46 Y-225 Z1.498039
G01 X47 Y-225 Z0
G01 X55 Y-225 Z0
G01 X56 Y-225 Z0.243137
G01 X57 Y-225 Z2
G01 X124 Y-225 Z2
G01 X125 Y-225 Z0.486275
G01 X126 Y-225 Z0
G01 X134 Y-225 Z0
G01 X135 Y-225 Z0.054902
G01 X137 Y-225 Z0.054902
G01 X138 Y-225 Z0
G01 X328 Y-225 Z0
G01 X329 Y-225 Z0.078431
G01 X330 Y-225 Z0.078431
G01 X331 Y-225 Z0
G01 X339 Y-225 Z0
G01 X340 Y-225 Z0.211765
G01 X341 Y-225 Z2
G01 X461 Y-225 Z2
G01 X462 Y-225 Z0.847059
G01 X463 Y-225 Z0
G01 X471 Y-225 Z0
G01 X472 Y-225 Z0.015686
G01 X473 Y-225 Z0.070588
G01 X474 Y-225 Z0.070588
G01 X475 Y-225 Z0
G01 X675 Y-225 Z0
G01 X676 Y-225 Z0.039216
G01 X677 Y-225 Z2
G01 X742 Y-225 Z2
G01 X743 Y-225 Z0
G01 X751 Y-225 Z0
G01 X752 Y-225 Z0.094118
G01 X753 Y-225 Z2
G01 X799 Y-225 Z2
G01 X799 Y-226 Z2
G01 X799 Y-227 Z2
G01 X754 Y-227 Z2
G01 X753 Y-227 Z0.094118
G01 X752 Y-227 Z0
G01 X744 Y-227 Z0
G01 X743 Y-227 Z2
G01 X679 Y-227 Z2
G01 X678 Y-227 Z1.301961
G01 X677 Y-227 Z0
G01 X669 Y-227 Z0
G01 X668 Y-227 Z0.007843
G01 X667 Y-227 Z0.062745
G01 X666 Y-227 Z0.062745
G01 X665 Y-227 Z0
G01 X476 Y-227 Z0
G01 X475 Y-227 Z0.023529
G01 X474 Y-227 Z0.023529
G01 X473 Y-227 Z0
G01 X465 Y-227 Z0
G01 X464 Y-227 Z0.023529
G01 X463 Y-227 Z2
G01 X340 Y-227 Z2
G01 X339 Y-227 Z1.152941
G01 X338 Y-227 Z0
G01 X330 Y-227 Z0
G01 X329 Y-227 Z0.015686
G01 X328 Y-227 Z0.070588
G01 X327 Y-227 Z0.070588
G01 X326 Y-227 Z0
G01 X136 Y-227 Z0
G01 X135 Y-227 Z0.007843
G01 X134 Y-227 Z0.007843
G01 X133 Y-227 Z0
G01 X125 Y-227 Z0
G01 X124 Y-227 Z0.101961
G01 X123 Y-227 Z2
G01 X56 Y-227 Z2
G01 X55 Y-227 Z0.235294
G01 X54 Y-227 Z0
G01 X46 Y-227 Z0
G01 X45 Y-227 Z1.537255
G01 X44 Y-227 Z2
G01 X0 Y-227 Z2
G01 X0 Y-228 Z2
G01 X0 Y-229 Z2
G01 X43 Y-229 Z2
G01 X44 Y-229 Z1.537255
G01 X45 Y-229 Z0
G01 X53 Y-229 Z0
G01 X54 Y-229 Z0.235294
G01 X55 Y-229 Z2
G01 X122 Y-229 Z2
G01 X123 Y-229 Z0
G01 X131 Y-229 Z0
G01 X132 Y-229 Z0.007843
G01 X133 Y-229 Z0.070588
G01 X134 Y-229 Z0.070588
G01 X135 Y-229 Z0
G01 X325 Y-229 Z0
G01 X326 Y-229 Z0.023529
G01 X327 Y-229 Z0.023529
G01 X328 Y-229 Z0
G01 X336 Y-229 Z0
G01 X337 Y-229 Z0.047059
G01 X338 Y-229 Z2
G01 X464 Y-229 Z2
G01 X465 Y-229 Z0.352941
G01 X466 Y-229 Z0
G01 X474 Y-229 Z0
G01 X475 Y-229 Z0.070588
G01 X476 Y-229 Z0.070588
G01 X477 Y-229 Z0
G01 X667 Y-229 Z0
G01 X668 Y-229 Z0.070588
G01 X669 Y-229 Z0.070588
G01 X670 Y-229 Z0
G01 X678 Y-229 Z0
G01 X679 Y-229 Z0.415686
G01 X680 Y-229 Z2
G01 X744 Y-229 Z2
G01 X745 Y-229 Z0
G01 X753 Y-229 Z0
G01 X754 Y-229 Z0.109804
G01 X755 Y-229 Z2
G01 X799 Y-229 Z2
G01 X799 Y-230 Z2
G01 X799 Y-231 Z2
G01 X756 Y-231 Z2
G01 X755 Y-231 Z0.180392
G01 X754 Y-231 Z0
G01 X746 Y-231 Z0
G01 X745 Y-231 Z2
G01 X681 Y-231 Z2
G01 X680 Y-231 Z0.109804
G01 X679 Y-231 Z0
G01 X671 Y-231 Z0
G01 X670 Y-231 Z0.023529
G01 X669 Y-231 Z0.023529
G01 X668 Y-231 Z0
G01 X478 Y-231 Z0
G01 X477 Y-231 Z0.047059
G01 X476 Y-231 Z0.047059
G01 X475 Y-231 Z0
G01 X467 Y-231 Z0
G01 X466 Y-231 Z1.396078
G01 X465 Y-231 Z2
G01 X337 Y-231 Z2
G01 X336 Y-231 Z0.360784
G01 X335 Y-231 Z0
G01 X327 Y-231 Z0
G01 X326 Y-231 Z0.054902
G01 X325 Y-231 Z0.054902
G01 X324 Y-231 Z0
G01 X133 Y-231 Z0
G01 X132 Y-231 Z0.062745
G01 X131 Y-231 Z0.062745
G01 X130 Y-231 Z0
G01 X122 Y-231 Z0
G01 X121 Y-231 Z0.65098
G01 X120 Y-231 Z2
G01 X54 Y-231 Z2
G01 X53 Y-231 Z0.227451
G01 X52 Y-231 Z0
G01 X44 Y-231 Z0
G01 X43 Y-231 Z1.709804
G01 X42 Y-231 Z2
G01 X0 Y-231 Z2
G01 X0 Y-232 Z2
G01 X0 Y-233 Z2
G01 X41 Y-233 Z2
G01 X42 Y-233 Z1.827451
G01 X43 Y-233 Z0.007843
G01 X44 Y-233 Z0
G01 X51 Y-233 Z0
G01 X52 Y-233 Z0.180392
G01 X53 Y-233 Z2
G01 X119 Y-233 Z2
G01 X120 Y-233 Z0.352941
G01 X121 Y-233 Z0
G01 X323 Y-233 Z0
G01 X324 Y-233 Z0.062745
G01 X325 Y-233 Z0.062745
G01 X326 Y-233 Z0
G01 X334 Y-233 Z0
G01 X335 Y-233 Z1.364706
G01 X336 Y-233 Z2
G01 X467 Y-233 Z2
G01 X468 Y-233 Z0.015686
G01 X469 Y-233 Z0
G01 X477 Y-233 Z0
G01 X478 Y-233 Z0.070588
G01 X479 Y-233 Z0.070588
G01 X480 Y-233 Z0
G01 X669 Y-233 Z0
G01 X670 Y-233 Z0.070588
G01 X671 Y-233 Z0.070588
G01 X672 Y-233 Z0.007843
G01 X673 Y-233 Z0
G01 X681 Y-233 Z0
G01 X682 Y-233 Z2
G01 X746 Y-233 Z2
G01 X747 Y-233 Z0
G01 X755 Y-233 Z0
G01 X756 Y-233 Z0.266667
G01 X757 Y-233 Z2
G01 X799 Y-233 Z2
G01 X799 Y-234 Z2
G01 X799 Y-235 Z2
G01 X758 Y-235 Z2
G01 X757 Y-235 Z0.376471
G01 X756 Y-235 Z0
G01 X748 Y-235 Z0
G01 X747 Y-235 Z2
G01 X684 Y-235 Z2
G01 X683 Y-235 Z1.333333
G01 X682 Y-235 Z0
G01 X674 Y-235 Z0
G01 X673 Y-235 Z0.062745
G01 X672 Y-235 Z0.062745
G01 X671 Y-235 Z0
G01 X481 Y-235 Z0
G01 X480 Y-235 Z0.047059
G01 X479 Y-235 Z0.047059
G01 X478 Y-235 Z0
G01 X470 Y-235 Z0
G01 X469 Y-235 Z0.188235
G01 X468 Y-235 Z2
G01 X334 Y-235 Z2
G01 X333 Y-235 Z0.007843
G01 X332 Y-235 Z0
G01 X325 Y-235 Z0
G01 X324 Y-235 Z0.015686
G01 X323 Y-235 Z0.070588
G01 X322 Y-235 Z0.070588
G01 X321 Y-235 Z0
G01 X131 Y-235 Z0
G01 X130 Y-235 Z0.062745
G01 X129 Y-235 Z0.062745
G01 X128 Y-235 Z0
G01 X120 Y-235 Z0
G01 X119 Y-235 Z0.117647
G01 X118 Y-235 Z2
G01 X52 Y-235 Z2
G01 X51 Y-235 Z0.109804
G01 X50 Y-235 Z0
G01 X43 Y-235 Z0
G01 X42 Y-235 Z0.023529
G01 X41 Y-235 Z1.921569
G01 X40 Y-235 Z2
G01 X0 Y-235 Z2
G01 X0 Y-236 Z2
G01 X0 Y-237 Z2
G01 X39 Y-237 Z2
G01 X40 Y-237 Z1.984314
G01 X41 Y-237 Z0.054902
G01 X42 Y-237 Z0
G01 X49 Y-237 Z0
G01 X50 Y-237 Z0.054902
G01 X51 Y-237 Z2
G01 X117 Y-237 Z2
G01 X118 Y-237 Z0.015686
G01 X119 Y-237 Z0
G01 X126 Y-237 Z0
G01 X127 Y-237 Z0.015686
G01 X128 Y-237 Z0.047059
G01 X129 Y-237 Z0.047059
G01 X130 Y-237 Z0
G01 X320 Y-237 Z0
G01 X321 Y-237 Z0.070588
G01 X322 Y-237 Z0.070588
G01 X323 Y-237 Z0
G01 X331 Y-237 Z0
G01 X332 Y-237 Z0.109804
G01 X333 Y-237 Z2
G01 X469 Y-237 Z2
G01 X470 Y-237 Z0.580392
G01 X471 Y-237 Z0
G01 X479 Y-237 Z0
G01 X480 Y-237 Z0.007843
G01 X481 Y-237 Z0.007843
G01 X482 Y-237 Z0
G01 X672 Y-237 Z0
G01 X673 Y-237 Z0.039216
G01 X674 Y-237 Z0.039216
G01 X675 Y-237 Z0
G01 X683 Y-237 Z0
G01 X684 Y-237 Z0.643137
G01 X685 Y-237 Z2
G01 X748 Y-237 Z2
G01 X749 Y-237 Z0
G01 X757 Y-237 Z0
G01 X758 Y-237 Z0.501961
G01 X759 Y-237 Z2
G01 X799 Y-237 Z2
G01 X799 Y-238 Z2
G01 X799 Y-239 Z2
G01 X760 Y-239 Z2
G01 X759 Y-239 Z0.737255
G01 X758 Y-239 Z0
G01 X750 Y-239 Z0
G01 X749 Y-239 Z1.780392
G01 X748 Y-239 Z2
G01 X686 Y-239 Z2
G01 X685 Y-239 Z0.384314
G01 X684 Y-239 Z0
G01 X676 Y-239 Z0
G01 X675 Y-239 Z0.039216
G01 X674 Y-239 Z0.039216
G01 X673 Y-239 Z0
G01 X483 Y-239 Z0
G01 X482 Y-239 Z0.062745
G01 X481 Y-239 Z0.062745
G01 X480 Y-239 Z0
G01 X472 Y-239 Z0
G01 X471 Y-239 Z1.317647
G01 X470 Y-239 Z2
G01 X332 Y-239 Z2
G01 X331 Y-239 Z0.4
G01 X330 Y-239 Z0
G01 X322 Y-239 Z0
G01 X321 Y-239 Z0.039216
G01 X320 Y-239 Z0.039216
G01 X319 Y-239 Z0
G01 X128 Y-239 Z0
G01 X127 Y-239 Z0.062745
G01 X126 Y-239 Z0.062745
G01 X125 Y-239 Z0
G01 X117 Y-239 Z0
G01 X116 Y-239 Z2
G01 X50 Y-239 Z2
G01 X49 Y-239 Z0.015686
G01 X48 Y-239 Z0
G01 X41 Y-239 Z0
G01 X40 Y-239 Z0.141176
G01 X39 Y-239 Z2
G01 X0 Y-239 Z2
G01 X0 Y-240 Z2
G01 X0 Y-241 Z2
G01 X38 Y-241 Z2
G01 X39 Y-241 Z0.313725
G01 X40 Y-241 Z0
G01 X48 Y-241 Z0
G01 X49 Y-241 Z2
G01 X114 Y-241 Z2
G01 X115 Y-241 Z1.87451
G01 X116 Y-241 Z0
G01 X124 Y-241 Z0
G01 X125 Y-241 Z0.070588
G01 X126 Y-241 Z0.070588
G01 X127 Y-241 Z0
G01 X318 Y-241 Z0
G01 X319 Y-241 Z0.007843
G01 X320 Y-241 Z0.007843
G01 X321 Y-241 Z0
G01 X329 Y-241 Z0
G01 X330 Y-241 Z0.776471
G01 X331 Y-241 Z2
G01 X472 Y-241 Z2
G01 X473 Y-241 Z0
G01 X481 Y-241 Z0
G01 X482 Y-241 Z0.070588
G01 X483 Y-241 Z0.070588
G01 X484 Y-241 Z0
G01 X674 Y-241 Z0
G01 X675 Y-241 Z0.070588
G01 X676 Y-241 Z0.070588
G01 X677 Y-241 Z0
G01 X685 Y-241 Z0
G01 X686 Y-241 Z0.243137
G01 X687 Y-241 Z2
G01 X749 Y-241 Z2
G01 X750 Y-241 Z1.247059
G01 X751 Y-241 Z0
G01 X759 Y-241 Z0
G01 X760 Y-241 Z1.07451
G01 X761 Y-241 Z2
G01 X799 Y-241 Z2
G01 X799 Y-242 Z2
G01 X799 Y-243 Z2
G01 X762 Y-243 Z2
G01 X761 Y-243 Z1.419608
G01 X760 Y-243 Z0
G01 X752 Y-243 Z0
G01 X751 Y-243 Z0.658824
G01 X750 Y-243 Z2
G01 X688 Y-243 Z2
G01 X687 Y-243 Z0.101961
G01 X686 Y-243 Z0
G01 X679 Y-243 Z0
G01 X678 Y-243 Z0.007843
G01 X677 Y-243 Z0.054902
G01 X676 Y-243 Z0.054902
G01 X675 Y-243 Z0
G01 X485 Y-243 Z0
G01 X484 Y-243 Z0.062745
G01 X483 Y-243 Z0.062745
G01 X482 Y-243 Z0
G01 X474 Y-243 Z0
G01 X473 Y-243 Z2
G01 X330 Y-243 Z2
G01 X329 Y-243 Z1.639216
G01 X328 Y-243 Z0
G01 X320 Y-243 Z0
G01 X319 Y-243 Z0.039216
G01 X318 Y-243 Z0.039216
G01 X317 Y-243 Z0
G01 X126 Y-243 Z0
G01 X125 Y-243 Z0.007843
G01 X124 Y-243 Z0.007843
G01 X123 Y-243 Z0
G01 X115 Y-243 Z0
G01 X114 Y-243 Z1.443137
G01 X113 Y-243 Z2
G01 X48 Y-243 Z2
G01 X47 Y-243 Z0
G01 X39 Y-243 Z0
G01 X38 Y-243 Z0.54902
G01 X37 Y-243 Z2
G01 X0 Y-243 Z2
G01 X0 Y-244 Z2
G01 X0 Y-245 Z2
G01 X36 Y-245 Z2
G01 X37 Y-245 Z0.854902
G01 X38 Y-245 Z0
G01 X46 Y-245 Z0
G01 X47 Y-245 Z1.87451
G01 X48 Y-245 Z2
G01 X112 Y-245 Z2
G01 X113 Y-245 Z1.090196
G01 X114 Y-245 Z0
G01 X122 Y-245 Z0
G01 X123 Y-245 Z0.031373
G01 X124 Y-245 Z0.031373
G01 X125 Y-245 Z0
G01 X316 Y-245 Z0
G01 X317 Y-245 Z0.062745
G01 X318 Y-245 Z0.062745
G01 X319 Y-245 Z0
G01 X327 Y-245 Z0
G01 X328 Y-245 Z2
G01 X474 Y-245 Z2
G01 X475 Y-245 Z0.031373
G01 X476 Y-245 Z0
G01 X483 Y-245 Z0
G01 X484 Y-245 Z0.047059
G01 X485 Y-245 Z0.047059
G01 X486 Y-245 Z0
G01 X677 Y-245 Z0
G01 X678 Y-245 Z0.039216
G01 X679 Y-245 Z0.039216
G01 X680 Y-245 Z0
G01 X687 Y-245 Z0
G01 X688 Y-245 Z0.039216
G01 X689 Y-245 Z2
G01 X751 Y-245 Z2
G01 X752 Y-245 Z0.423529
G01 X753 Y-245 Z0
G01 X761 Y-245 Z0
G01 X762 Y-245 Z1.72549
G01 X763 Y-245 Z2
G01 X799 Y-245 Z2
G01 X799 Y-246 Z2
G01 X799 Y-247 Z2
G01 X764 Y-247 Z2
G01 X763 Y-247 Z1.968627
G01 X762 Y-247 Z0.031373
G01 X761 Y-247 Z0
G01 X754 Y-247 Z0
G01 X753 Y-247 Z0.219608
G01 X752 Y-247 Z2
G01 X690 Y-247 Z2
G01 X689 Y-247 Z0.039216
G01 X688 Y-247 Z0
G01 X681 Y-247 Z0
G01 X680 Y-247 Z0.062745
G01 X679 Y-247 Z0.062745
G01 X678 Y-247 Z0
G01 X487 Y-247 Z0
G01 X486 Y-247 Z0.047059
G01 X485 Y-247 Z0.047059
G01 X484 Y-247 Z0
G01 X477 Y-247 Z0
G01 X476 Y-247 Z0.086275
G01 X475 Y-247 Z2
G01 X327 Y-247 Z2
G01 X326 Y-247 Z0
G01 X318 Y-247 Z0
G01 X317 Y-247 Z0.070588
G01 X316 Y-247 Z0.070588
G01 X315 Y-247 Z0
G01 X124 Y-247 Z0
G01 X123 Y-247 Z0.047059
G01 X122 Y-247 Z0.047059
G01 X121 Y-247 Z0
G01 X113 Y-247 Z0
G01 X112 Y-247 Z0.8
G01 X111 Y-247 Z2
G01 X47 Y-247 Z2
G01 X46 Y-247 Z0.980392
G01 X45 Y-247 Z0
G01 X37 Y-247 Z0
G01 X36 Y-247 Z1.317647
G01 X35 Y-247 Z2
G01 X0 Y-247 Z2
G01 X0 Y-248 Z2
G01 X0 Y-249 Z2
G01 X34 Y-249 Z2
G01 X35 Y-249 Z1.764706
G01 X36 Y-249 Z0
G01 X44 Y-249 Z0
G01 X45 Y-249 Z0.556863
G01 X46 Y-249 Z2
G01 X110 Y-249 Z2
G01 X111 Y-249 Z0.8
G01 X112 Y-249 Z0
G01 X120 Y-249 Z0
G01 X121 Y-249 Z0.062745
G01 X122 Y-249 Z0.062745
G01 X123 Y-249 Z0
G01 X314 Y-249 Z0
G01 X315 Y-249 Z0.070588
G01 X316 Y-249 Z0.070588
G01 X317 Y-249 Z0
G01 X325 Y-249 Z0
G01 X326 Y-249 Z2
G01 X476 Y-249 Z2
G01 X477 Y-249 Z0.109804
G01 X478 Y-249 Z0
G01 X485 Y-249 Z0
G01 X486 Y-249 Z0.047059
G01 X487 Y-249 Z0.047059
G01 X488 Y-249 Z0
G01 X679 Y-249 Z0
G01 X680 Y-249 Z0.070588
G01 X681 Y-249 Z0.070588
G01 X682 Y-249 Z0
G01 X689 Y-249 Z0
G01 X690 Y-249 Z0.054902
G01 X691 Y-249 Z2
G01 X753 Y-249 Z2
G01 X754 Y-249 Z0.062745
G01 X755 Y-249 Z0
G01 X762 Y-249 Z0
G01 X763 Y-249 Z0.196078
G01 X764 Y-249 Z2
G01 X799 Y-249 Z2
G01 X799 Y-250 Z2
G01 X799 Y-251 Z2
G01 X765 Y-251 Z2
G01 X764 Y-251 Z0.494118
G01 X763 Y-251 Z0
G01 X755 Y-251 Z0
G01 X754 Y-251 Z2
G01 X692 Y-251 Z2
G01 X691 Y-251 Z0.062745
G01 X690 Y-251 Z0
G01 X683 Y-251 Z0
G01 X682 Y-251 Z0.070588
G01 X681 Y-251 Z0.070588
G01 X680 Y-251 Z0
G01 X489 Y-251 Z0
G01 X488 Y-251 Z0.054902
G01 X487 Y-251 Z0.054902
G01 X486 Y-251 Z0
G01 X479 Y-251 Z0
G01 X478 Y-251 Z0.117647
G01 X477 Y-251 Z2
G01 X325 Y-251 Z2
G01 X324 Y-251 Z0.007843
G01 X323 Y-251 Z0
G01 X316 Y-251 Z0
G01 X315 Y-251 Z0.062745
G01 X314 Y-251 Z0.062745
G01 X313 Y-251 Z0
G01 X122 Y-251 Z0
G01 X121 Y-251 Z0.070588
G01 X120 Y-251 Z0.070588
G01 X119 Y-251 Z0
G01 X111 Y-251 Z0
G01 X110 Y-251 Z1.145098
G01 X109 Y-251 Z2
G01 X45 Y-251 Z2
G01 X44 Y-251 Z0.227451
G01 X43 Y-251 Z0
G01 X36 Y-251 Z0
G01 X35 Y-251 Z0.054902
G01 X34 Y-251 Z2
G01 X0 Y-251 Z2
G01 X0 Y-252 Z2
G01 X0 Y-253 Z2
G01 X33 Y-253 Z2
G01 X34 Y-253 Z0.235294
G01 X35 Y-253 Z0
G01 X42 Y-253 Z0
G01 X43 Y-253 Z0.039216
G01 X44 Y-253 Z2
G01 X108 Y-253 Z2
G01 X109 Y-253 Z1.623529
G01 X110 Y-253 Z0
G01 X118 Y-253 Z0
G01 X119 Y-253 Z0.070588
G01 X120 Y-253 Z0.070588
G01 X121 Y-253 Z0
G01 X312 Y-253 Z0
G01 X313 Y-253 Z0.054902
G01 X314 Y-253 Z0.054902
G01 X315 Y-253 Z0
G01 X323 Y-253 Z0
G01 X324 Y-253 Z2
G01 X478 Y-253 Z2
G01 X479 Y-253 Z0.109804
G01 X480 Y-253 Z0
G01 X487 Y-253 Z0
G01 X488 Y-253 Z0.070588
G01 X489 Y-253 Z0.070588
G01 X490 Y-253 Z0
G01 X681 Y-253 Z0
G01 X682 Y-253 Z0.062745
G01 X683 Y-253 Z0.062745
G01 X684 Y-253 Z0
G01 X691 Y-253 Z0
G01 X692 Y-253 Z0.062745
G01 X693 Y-253 Z2
G01 X755 Y-253 Z2
G01 X756 Y-253 Z0
G01 X764 Y-253 Z0
G01 X765 Y-253 Z0.92549
G01 X766 Y-253 Z2
G01 X799 Y-253 Z2
G01 X799 Y-254 Z2
G01 X799 Y-255 Z2
G01 X767 Y-255 Z2
G01 X766 Y-255 Z1.47451
G01 X765 Y-255 Z0
G01 X757 Y-255 Z0
G01 X756 Y-255 Z0.980392
G01 X755 Y-255 Z2
G01 X694 Y-255 Z2
G01 X693 Y-255 Z0.133333
G01 X692 Y-255 Z0
G01 X685 Y-255 Z0
G01 X684 Y-255 Z0.062745
G01 X683 Y-255 Z0.062745
G01 X682 Y-255 Z0
G01 X491 Y-255 Z0
G01 X490 Y-255 Z0.070588
G01 X489 Y-255 Z0.070588
G01 X488 Y-255 Z0
G01 X481 Y-255 Z0
G01 X480 Y-255 Z0.070588
G01 X479 Y-255 Z2
G01 X323 Y-255 Z2
G01 X322 Y-255 Z0
G01 X314 Y-255 Z0
G01 X313 Y-255 Z0.015686
G01 X312 Y-255 Z0.015686
G01 X311 Y-255 Z0
G01 X120 Y-255 Z0
G01 X119 Y-255 Z0.062745
G01 X118 Y-255 Z0.062745
G01 X117 Y-255 Z0
G01 X109 Y-255 Z0
G01 X108 Y-255 Z2
G01 X43 Y-255 Z2
G01 X42 Y-255 Z0
G01 X34 Y-255 Z0
G01 X33 Y-255 Z0.556863
G01 X32 Y-255 Z2
G01 X0 Y-255 Z2
G01 X0 Y-256 Z2
G01 X0 Y-257 Z2
G01 X31 Y-257 Z2
G01 X32 Y-257 Z1.145098
G01 X33 Y-257 Z0
G01 X41 Y-257 Z0
G01 X42 Y-257 Z2
G01 X107 Y-257 Z2
G01 X108 Y-257 Z0
G01 X116 Y-257 Z0
G01 X117 Y-257 Z0.047059
G01 X118 Y-257 Z0.047059
G01 X119 Y-257 Z0
G01 X310 Y-257 Z0
G01 X311 Y-257 Z0.047059
G01 X312 Y-257 Z0.047059
G01 X313 Y-257 Z0
G01 X321 Y-257 Z0
G01 X322 Y-257 Z2
G01 X480 Y-257 Z2
G01 X481 Y-257 Z0.023529
G01 X482 Y-257 Z0
G01 X489 Y-257 Z0
G01 X490 Y-257 Z0.031373
G01 X491 Y-257 Z0.031373
G01 X492 Y-257 Z0
G01 X683 Y-257 Z0
G01 X684 Y-257 Z0.054902
G01 X685 Y-257 Z0.054902
G01 X686 Y-257 Z0
G01 X693 Y-257 Z0
G01 X694 Y-257 Z0.337255
G01 X695 Y-257 Z2
G01 X756 Y-257 Z2
G01 X757 Y-257 Z0.447059
G01 X758 Y-257 Z0
G01 X765 Y-257 Z0
G01 X766 Y-257 Z0.015686
G01 X767 Y-257 Z1.952941
G01 X768 Y-257 Z2
G01 X799 Y-257 Z2
G01 X799 Y-258 Z2
G01 X799 Y-259 Z2
G01 X768 Y-259 Z2
G01 X767 Y-259 Z0.219608
G01 X766 Y-259 Z0
G01 X759 Y-259 Z0
G01 X758 Y-259 Z0.12549
G01 X757 Y-259 Z2
G01 X696 Y-259 Z2
G01 X695 Y-259 Z0.603922
G01 X694 Y-259 Z0
G01 X687 Y-259 Z0
G01 X686 Y-259 Z0.023529
G01 X685 Y-259 Z0.023529
G01 X684 Y-259 Z0
G01 X493 Y-259 Z0
G01 X492 Y-259 Z0.039216
G01 X491 Y-259 Z0.039216
G01 X490 Y-259 Z0
G01 X482 Y-259 Z0
G01 X481 Y-259 Z2
G01 X321 Y-259 Z2
G01 X320 Y-259 Z0
G01 X312 Y-259 Z0
G01 X311 Y-259 Z0.070588
G01 X310 Y-259 Z0.070588
G01 X309 Y-259 Z0
G01 X118 Y-259 Z0
G01 X117 Y-259 Z0.031373
G01 X116 Y-259 Z0.031373
G01 X115 Y-259 Z0
G01 X107 Y-259 Z0
G01 X106 Y-259 Z2
G01 X42 Y-259 Z2
G01 X41 Y-259 Z0.713725
G01 X40 Y-259 Z0
G01 X32 Y-259 Z0
G01 X31 Y-259 Z1.811765
G01 X30 Y-259 Z2
G01 X0 Y-259 Z2
G01 X0 Y-260 Z2
G01 X0 Y-261 Z2
G01 X30 Y-261 Z2
G01 X31 Y-261 Z0.109804
G01 X32 Y-261 Z0
G01 X39 Y-261 Z0
G01 X40 Y-261 Z0.219608
G01 X41 Y-261 Z2
G01 X105 Y-261 Z2
G01 X106 Y-261 Z0.086275
G01 X107 Y-261 Z0
G01 X114 Y-261 Z0
G01 X115 Y-261 Z0.023529
G01 X116 Y-261 Z0.023529
G01 X117 Y-261 Z0
G01 X308 Y-261 Z0
G01 X309 Y-261 Z0.031373
G01 X310 Y-261 Z0.031373
G01 X311 Y-261 Z0
G01 X319 Y-261 Z0
G01 X320 Y-261 Z1.733333
G01 X321 Y-261 Z2
G01 X482 Y-261 Z2
G01 X483 Y-261 Z0
G01 X491 Y-261 Z0
G01 X492 Y-261 Z0.070588
G01 X493 Y-261 Z0.070588
G01 X494 Y-261 Z0
G01 X695 Y-261 Z0
G01 X696 Y-261 Z1.090196
G01 X697 Y-261 Z2
G01 X758 Y-261 Z2
G01 X759 Y-261 Z0
G01 X767 Y-261 Z0
G01 X768 Y-261 Z0.658824
G01 X769 Y-261 Z2
G01 X799 Y-261 Z2
G01 X799 Y-262 Z2
G01 X799 Y-263 Z2
G01 X770 Y-263 Z2
G01 X769 Y-263 Z1.32549
G01 X768 Y-263 Z0
G01 X760 Y-263 Z0
G01 X759 Y-263 Z1.835294
G01 X758 Y-263 Z2
G01 X697 Y-263 Z2
G01 X696 Y-263 Z0
G01 X688 Y-263 Z0
G01 X687 Y-263 Z0.062745
G01 X686 Y-263 Z0.062745
G01 X685 Y-263 Z0
G01 X484 Y-263 Z0
G01 X483 Y-263 Z1.733333
G01 X482 Y-263 Z2
G01 X320 Y-263 Z2
G01 X319 Y-263 Z0.92549
G01 X318 Y-263 Z0
G01 X311 Y-263 Z0
G01 X310 Y-263 Z0.015686
G01 X309 Y-263 Z0.015686
G01 X308 Y-263 Z0
G01 X116 Y-263 Z0
G01 X115 Y-263 Z0.070588
G01 X114 Y-263 Z0.070588
G01 X113 Y-263 Z0
G01 X106 Y-263 Z0
G01 X105 Y-263 Z0.337255
G01 X104 Y-263 Z2
G01 X40 Y-263 Z2
G01 X39 Y-263 Z0.007843
G01 X38 Y-263 Z0
G01 X31 Y-263 Z0
G01 X30 Y-263 Z0.454902
G01 X29 Y-263 Z2
G01 X0 Y-263 Z2
G01 X0 Y-264 Z2
G01 X0 Y-265 Z2
G01 X28 Y-265 Z2
G01 X29 Y-265 Z1.082353
G01 X30 Y-265 Z0
G01 X38 Y-265 Z0
G01 X39 Y-265 Z2
G01 X103 Y-265 Z2
G01 X104 Y-265 Z0.682353
G01 X105 Y-265 Z0
G01 X112 Y-265 Z0
G01 X113 Y-265 Z0.023529
G01 X114 Y-265 Z0.023529
G01 X115 Y-265 Z0
G01 X307 Y-265 Z0
G01 X308 Y-265 Z0.062745
G01 X309 Y-265 Z0.062745
G01 X310 Y-265 Z0
G01 X317 Y-265 Z0
G01 X318 Y-265 Z0.447059
G01 X319 Y-265 Z2
G01 X483 Y-265 Z2
G01 X484 Y-265 Z0.658824
G01 X485 Y-265 Z0
G01 X492 Y-265 Z0
G01 X493 Y-265 Z0.031373
G01 X494 Y-265 Z0.031373
G01 X495 Y-265 Z0
G01 X686 Y-265 Z0
G01 X687 Y-265 Z0.070588
G01 X688 Y-265 Z0.070588
G01 X689 Y-265 Z0
G01 X697 Y-265 Z0
G01 X698 Y-265 Z2
G01 X759 Y-265 Z2
G01 X760 Y-265 Z0.572549
G01 X761 Y-265 Z0
G01 X768 Y-265 Z0
G01 X769 Y-265 Z0.007843
G01 X770 Y-265 Z1.937255
G01 X771 Y-265 Z2
G01 X799 Y-265 Z2
G01 X799 Y-266 Z2
G01 X799 Y-267 Z2
G01 X771 Y-267 Z2
G01 X770 Y-267 Z0.27451
G01 X769 Y-267 Z0
G01 X762 Y-267 Z0
G01 X761 Y-267 Z0.133333
G01 X760 Y-267 Z2
G01 X699 Y-267 Z2
G01 X698 Y-267 Z0.156863
G01 X697 Y-267 Z0
G01 X690 Y-267 Z0
G01 X689 Y-267 Z0.023529
G01 X688 Y-267 Z0.023529
G01 X687 Y-267 Z0
G01 X496 Y-267 Z0
G01 X495 Y-267 Z0.062745
G01 X494 Y-267 Z0.062745
G01 X493 Y-267 Z0
G01 X486 Y-267 Z0
G01 X485 Y-267 Z0.290196
G01 X484 Y-267 Z2
G01 X318 Y-267 Z2
G01 X317 Y-267 Z0.12549
G01 X316 Y-267 Z0
G01 X309 Y-267 Z0
G01 X308 Y-267 Z0.039216
G01 X307 Y-267 Z0.039216
G01 X306 Y-267 Z0
G01 X104 Y-267 Z0
G01 X103 Y-267 Z1.968627
G01 X102 Y-267 Z2
G01 X39 Y-267 Z2
G01 X38 Y-267 Z0.815686
G01 X37 Y-267 Z0
G01 X30 Y-267 Z0
G01 X29 Y-267 Z0.007843
G01 X28 Y-267 Z1.890196
G01 X27 Y-267 Z2
G01 X0 Y-267 Z2
G01 X0 Y-268 Z2
G01 X0 Y-269 Z2
G01 X27 Y-269 Z2
G01 X28 Y-269 Z0.211765
G01 X29 Y-269 Z0
G01 X36 Y-269 Z0
G01 X37 Y-269 Z0.188235
G01 X38 Y-269 Z2
G01 X102 Y-269 Z2
G01 X103 Y-269 Z0
G01 X111 Y-269 Z0
G01 X112 Y-269 Z0.070588
G01 X113 Y-269 Z0.070588
G01 X114 Y-269 Z0
G01 X305 Y-269 Z0
G01 X306 Y-269 Z0.070588
G01 X307 Y-269 Z0.070588
G01 X308 Y-269 Z0
G01 X316 Y-269 Z0
G01 X317 Y-269 Z2
G01 X485 Y-269 Z2
G01 X486 Y-269 Z0.031373
G01 X487 Y-269 Z0
G01 X494 Y-269 Z0
G01 X495 Y-269 Z0.070588
G01 X496 Y-269 Z0.070588
G01 X497 Y-269 Z0
G01 X688 Y-269 Z0
G01 X689 Y-269 Z0.070588
G01 X690 Y-269 Z0.070588
G01 X691 Y-269 Z0
G01 X698 Y-269 Z0
G01 X699 Y-269 Z0.603922
G01 X700 Y-269 Z2
G01 X761 Y-269 Z2
G01 X762 Y-269 Z0
G01 X770 Y-269 Z0
G01 X771 Y-269 Z0.886275
G01 X772 Y-269 Z2
G01 X799 Y-269 Z2
G01 X799 Y-270 Z2
G01 X799 Y-271 Z2
G01 X773 Y-271 Z2
G01 X772 Y-271 Z1.72549
G01 X771 Y-271 Z0
G01 X763 Y-271 Z0
G01 X762 Y-271 Z1.223529
G01 X761 Y-271 Z2
G01 X701 Y-271 Z2
G01 X700 Y-271 Z1.968627
G01 X699 Y-271 Z0
G01 X487 Y-271 Z0
G01 X486 Y-271 Z2
G01 X316 Y-271 Z2
G01 X315 Y-271 Z0
G01 X113 Y-271 Z0
G01 X112 Y-271 Z0.023529
G01 X111 Y-271 Z0.023529
G01 X110 Y-271 Z0
G01 X103 Y-271 Z0
G01 X102 Y-271 Z0.258824
G01 X101 Y-271 Z2
G01 X37 Y-271 Z2
G01 X36 Y-271 Z0
G01 X28 Y-271 Z0
G01 X27 Y-271 Z0.776471
G01 X26 Y-271 Z2
G01 X0 Y-271 Z2
G01 X0 Y-272 Z2
G01 X0 Y-273 Z2
G01 X25 Y-273 Z2
G01 X26 Y-273 Z1.662745
G01 X27 Y-273 Z0
G01 X35 Y-273 Z0
G01 X36 Y-273 Z1.537255
G01 X37 Y-273 Z2
G01 X100 Y-273 Z2
G01 X101 Y-273 Z0.996078
G01 X102 Y-273 Z0
G01 X109 Y-273 Z0
G01 X110 Y-273 Z0.047059
G01 X111 Y-273 Z0.047059
G01 X112 Y-273 Z0
G01 X304 Y-273 Z0
G01 X305 Y-273 Z0.062745
G01 X306 Y-273 Z0.062745
G01 X307 Y-273 Z0
G01 X314 Y-273 Z0
G01 X315 Y-273 Z0.658824
G01 X316 Y-273 Z2
G01 X486 Y-273 Z2
G01 X487 Y-273 Z0.878431
G01 X488 Y-273 Z0
G01 X495 Y-273 Z0
G01 X496 Y-273 Z0.054902
G01 X497 Y-273 Z0.054902
G01 X498 Y-273 Z0
G01 X689 Y-273 Z0
G01 X690 Y-273 Z0.070588
G01 X691 Y-273 Z0.070588
G01 X692 Y-273 Z0
G01 X700 Y-273 Z0
G01 X701 Y-273 Z2
G01 X762 Y-273 Z2
G01 X763 Y-273 Z0.305882
G01 X764 Y-273 Z0
G01 X771 Y-273 Z0
G01 X772 Y-273 Z0.141176
G01 X773 Y-273 Z2
G01 X799 Y-273 Z2
G01 X799 Y-274 Z2
G01 X799 Y-275 Z2
G01 X774 Y-275 Z2
G01 X773 Y-275 Z0.713725
G01 X772 Y-275 Z0
G01 X765 Y-275 Z0
G01 X764 Y-275 Z0.007843
G01 X763 Y-275 Z2
G01 X702 Y-275 Z2
G01 X701 Y-275 Z0.329412
G01 X700 Y-275 Z0
G01 X693 Y-275 Z0
G01 X692 Y-275 Z0.031373
G01 X691 Y-275 Z0.031373
G01 X690 Y-275 Z0
G01 X499 Y-275 Z0
G01 X498 Y-275 Z0.054902
G01 X497 Y-275 Z0.054902
G01 X496 Y-275 Z0
G01 X489 Y-275 Z0
G01 X488 Y-275 Z0.196078
G01 X487 Y-275 Z2
G01 X315 Y-275 Z2
G01 X314 Y-275 Z0.164706
G01 X313 Y-275 Z0
G01 X306 Y-275 Z0
G01 X305 Y-275 Z0.062745
G01 X304 Y-275 Z0.062745
G01 X303 Y-275 Z0
G01 X101 Y-275 Z0
G01 X100 Y-275 Z2
G01 X36 Y-275 Z2
G01 X35 Y-275 Z0.4
G01 X34 Y-275 Z0
G01 X27 Y-275 Z0
G01 X26 Y-275 Z0.133333
G01 X25 Y-275 Z2
G01 X0 Y-275 Z2
G01 X0 Y-276 Z2
G01 X0 Y-277 Z2
G01 X24 Y-277 Z2
G01 X25 Y-277 Z0.752941
G01 X26 Y-277 Z0
G01 X34 Y-277 Z0
G01 X35 Y-277 Z2
G01 X99 Y-277 Z2
G01 X100 Y-277 Z0.12549
G01 X101 Y-277 Z0
G01 X108 Y-277 Z0
G01 X109 Y-277 Z0.062745
G01 X110 Y-277 Z0.062745
G01 X111 Y-277 Z0
G01 X313 Y-277 Z0
G01 X314 Y-277 Z2
G01 X488 Y-277 Z2
G01 X489 Y-277 Z0
G01 X691 Y-277 Z0
G01 X692 Y-277 Z0.039216
G01 X693 Y-277 Z0.039216
G01 X694 Y-277 Z0
G01 X701 Y-277 Z0
G01 X702 Y-277 Z1.74902
G01 X703 Y-277 Z2
G01 X763 Y-277 Z2
G01 X764 Y-277 Z1.780392
G01 X765 Y-277 Z0
G01 X773 Y-277 Z0
G01 X774 Y-277 Z1.72549
G01 X775 Y-277 Z2
G01 X799 Y-277 Z2
G01 X799 Y-278 Z2
G01 X799 Y-279 Z2
G01 X775 Y-279 Z2
G01 X774 Y-279 Z0.180392
G01 X773 Y-279 Z0
G01 X766 Y-279 Z0
G01 X765 Y-279 Z0.352941
G01 X764 Y-279 Z2
G01 X703 Y-279 Z2
G01 X702 Y-279 Z0.007843
G01 X701 Y-279 Z0
G01 X694 Y-279 Z0
G01 X693 Y-279 Z0.023529
G01 X692 Y-279 Z0.023529
G01 X691 Y-279 Z0
G01 X500 Y-279 Z0
G01 X499 Y-279 Z0.070588
G01 X498 Y-279 Z0.070588
G01 X497 Y-279 Z0
G01 X490 Y-279 Z0
G01 X489 Y-279 Z1.105882
G01 X488 Y-279 Z2
G01 X314 Y-279 Z2
G01 X313 Y-279 Z0.901961
G01 X312 Y-279 Z0
G01 X305 Y-279 Z0
G01 X304 Y-279 Z0.062745
G01 X303 Y-279 Z0.062745
G01 X302 Y-279 Z0
G01 X110 Y-279 Z0
G01 X109 Y-279 Z0.070588
G01 X108 Y-279 Z0.070588
G01 X107 Y-279 Z0
G01 X100 Y-279 Z0
G01 X99 Y-279 Z1.192157
G01 X98 Y-279 Z2
G01 X35 Y-279 Z2
G01 X34 Y-279 Z1.709804
G01 X33 Y-279 Z0
G01 X25 Y-279 Z0
G01 X24 Y-279 Z1.764706
G01 X23 Y-279 Z2
G01 X0 Y-279 Z2
G01 X0 Y-280 Z2
G01 X0 Y-281 Z2
G01 X23 Y-281 Z2
G01 X24 Y-281 Z0.196078
G01 X25 Y-281 Z0
G01 X32 Y-281 Z0
G01 X33 Y-281 Z0.329412
G01 X34 Y-281 Z2
G01 X98 Y-281 Z2
G01 X99 Y-281 Z0
G01 X301 Y-281 Z0
G01 X302 Y-281 Z0.070588
G01 X303 Y-281 Z0.070588
G01 X304 Y-281 Z0
G01 X311 Y-281 Z0
G01 X312 Y-281 Z0.14902
G01 X313 Y-281 Z2
G01 X489 Y-281 Z2
G01 X490 Y-281 Z0.133333
G01 X491 Y-281 Z0
G01 X498 Y-281 Z0
G01 X499 Y-281 Z0.070588
G01 X500 Y-281 Z0.070588
G01 X501 Y-281 Z0
G01 X692 Y-281 Z0
G01 X693 Y-281 Z0.047059
G01 X694 Y-281 Z0.047059
G01 X695 Y-281 Z0
G01 X702 Y-281 Z0
G01 X703 Y-281 Z0.494118
G01 X704 Y-281 Z2
G01 X765 Y-281 Z2
G01 X766 Y-281 Z0
G01 X774 Y-281 Z0
G01 X775 Y-281 Z0.847059
G01 X776 Y-281 Z2
G01 X799 Y-281 Z2
G01 X799 Y-282 Z2
G01 X799 Y-283 Z2
G01 X777 Y-283 Z2
G01 X776 Y-283 Z1.87451
G01 X775 Y-283 Z0
G01 X767 Y-283 Z0
G01 X766 Y-283 Z1.411765
G01 X765 Y-283 Z2
G01 X704 Y-283 Z2
G01 X703 Y-283 Z0
G01 X696 Y-283 Z0
G01 X695 Y-283 Z0.007843
G01 X694 Y-283 Z0.007843
G01 X693 Y-283 Z0
G01 X501 Y-283 Z0
G01 X500 Y-283 Z0.007843
G01 X499 Y-283 Z0.007843
G01 X498 Y-283 Z0
G01 X491 Y-283 Z0
G01 X490 Y-283 Z2
G01 X312 Y-283 Z2
G01 X311 Y-283 Z0
G01 X304 Y-283 Z0
G01 X303 Y-283 Z0.007843
G01 X302 Y-283 Z0.007843
G01 X301 Y-283 Z0
G01 X109 Y-283 Z0
G01 X108 Y-283 Z0.039216
G01 X107 Y-283 Z0.039216
G01 X106 Y-283 Z0
G01 X99 Y-283 Z0
G01 X98 Y-283 Z0.486275
G01 X97 Y-283 Z2
G01 X33 Y-283 Z2
G01 X32 Y-283 Z0
G01 X24 Y-283 Z0
G01 X23 Y-283 Z0.917647
G01 X22 Y-283 Z2
G01 X0 Y-283 Z2
G01 X0 Y-284 Z2
G01 X0 Y-285 Z2
G01 X21 Y-285 Z2
G01 X22 Y-285 Z1.968627
G01 X23 Y-285 Z0.015686
G01 X24 Y-285 Z0
G01 X31 Y-285 Z0
G01 X32 Y-285 Z1.223529
G01 X33 Y-285 Z2
G01 X97 Y-285 Z2
G01 X98 Y-285 Z0
G01 X105 Y-285 Z0
G01 X106 Y-285 Z0.007843
G01 X107 Y-285 Z0.007843
G01 X108 Y-285 Z0
G01 X300 Y-285 Z0
G01 X301 Y-285 Z0.039216
G01 X302 Y-285 Z0.039216
G01 X303 Y-285 Z0
G01 X310 Y-285 Z0
G01 X311 Y-285 Z0.501961
G01 X312 Y-285 Z2
G01 X490 Y-285 Z2
G01 X491 Y-285 Z0.509804
G01 X492 Y-285 Z0
G01 X499 Y-285 Z0
G01 X500 Y-285 Z0.062745
G01 X501 Y-285 Z0.062745
G01 X502 Y-285 Z0
G01 X693 Y-285 Z0
G01 X694 Y-285 Z0.062745
G01 X695 Y-285 Z0.062745
G01 X696 Y-285 Z0
G01 X703 Y-285 Z0
G01 X704 Y-285 Z0.180392
G01 X705 Y-285 Z2
G01 X766 Y-285 Z2
G01 X767 Y-285 Z0.243137
G01 X768 Y-285 Z0
G01 X775 Y-285 Z0
G01 X776 Y-285 Z0.345098
G01 X777 Y-285 Z2
G01 X799 Y-285 Z2
G01 X799 Y-286 Z2
G01 X799 Y-287 Z2
G01 X778 Y-287 Z2
G01 X777 Y-287 Z1.341176
G01 X776 Y-287 Z0
G01 X768 Y-287 Z0
G01 X767 Y-287 Z2
G01 X705 Y-287 Z2
G01 X704 Y-287 Z0
G01 X697 Y-287 Z0
G01 X696 Y-287 Z0.054902
G01 X695 Y-287 Z0.054902
G01 X694 Y-287 Z0
G01 X492 Y-287 Z0
G01 X491 Y-287 Z2
G01 X311 Y-287 Z2
G01 X310 Y-287 Z0
G01 X108 Y-287 Z0
G01 X107 Y-287 Z0.070588
G01 X106 Y-287 Z0.070588
G01 X105 Y-287 Z0
G01 X98 Y-287 Z0
G01 X97 Y-287 Z0.211765
G01 X96 Y-287 Z2
G01 X32 Y-287 Z2
G01 X31 Y-287 Z0.117647
G01 X30 Y-287 Z0
G01 X23 Y-287 Z0
G01 X22 Y-287 Z0.470588
G01 X21 Y-287 Z2
G01 X0 Y-287 Z2
G01 X0 Y-288 Z2
G01 X0 Y-289 Z2
G01 X20 Y-289 Z2
G01 X21 Y-289 Z1.568627
G01 X22 Y-289 Z0
G01 X30 Y-289 Z0
G01 X31 Y-289 Z2
G01 X96 Y-289 Z2
G01 X97 Y-289 Z0
G01 X104 Y-289 Z0
G01 X105 Y-289 Z0.047059
G01 X106 Y-289 Z0.047059
G01 X107 Y-289 Z0
G01 X299 Y-289 Z0
G01 X300 Y-289 Z0.054902
G01 X301 Y-289 Z0.054902
G01 X302 Y-289 Z0
G01 X309 Y-289 Z0
G01 X310 Y-289 Z0.847059
G01 X311 Y-289 Z2
G01 X491 Y-289 Z2
G01 X492 Y-289 Z0.682353
G01 X493 Y-289 Z0
G01 X500 Y-289 Z0
G01 X501 Y-289 Z0.047059
G01 X502 Y-289 Z0.047059
G01 X503 Y-289 Z0
G01 X694 Y-289 Z0
G01 X695 Y-289 Z0.015686
G01 X696 Y-289 Z0.015686
G01 X697 Y-289 Z0
G01 X704 Y-289 Z0
G01 X705 Y-289 Z0.086275
G01 X706 Y-289 Z2
G01 X767 Y-289 Z2
G01 X768 Y-289 Z0.619608
G01 X769 Y-289 Z0
G01 X776 Y-289 Z0
G01 X777 Y-289 Z0.101961
G01 X778 Y-289 Z2
G01 X799 Y-289 Z2
G01 X799 Y-290 Z2
G01 X799 Y-291 Z2
G01 X779 Y-291 Z2
G01 X778 Y-291 Z0.792157
G01 X777 Y-291 Z0
G01 X770 Y-291 Z0
G01 X769 Y-291 Z0.007843
G01 X768 Y-291 Z2
G01 X707 Y-291 Z2
G01 X706 Y-291 Z1.560784
G01 X705 Y-291 Z0
G01 X698 Y-291 Z0
G01 X697 Y-291 Z0.070588
G01 X696 Y-291 Z0.070588
G01 X695 Y-291 Z0
G01 X493 Y-291 Z0
G01 X492 Y-291 Z2
G01 X310 Y-291 Z2
G01 X309 Y-291 Z0
G01 X107 Y-291 Z0
G01 X106 Y-291 Z0.039216
G01 X105 Y-291 Z0.039216
G01 X104 Y-291 Z0
G01 X97 Y-291 Z0
G01 X96 Y-291 Z0.235294
G01 X95 Y-291 Z2
G01 X31 Y-291 Z2
G01 X30 Y-291 Z0.470588
G01 X29 Y-291 Z0
G01 X22 Y-291 Z0
G01 X21 Y-291 Z0.172549
G01 X20 Y-291 Z2
G01 X0 Y-291 Z2
G01 X0 Y-292 Z2
G01 X0 Y-293 Z2
G01 X19 Y-293 Z2
G01 X20 Y-293 Z1.05098
G01 X21 Y-293 Z0
G01 X29 Y-293 Z0
G01 X30 Y-293 Z2
G01 X95 Y-293 Z2
G01 X96 Y-293 Z0
G01 X103 Y-293 Z0
G01 X104 Y-293 Z0.047059
G01 X105 Y-293 Z0.047059
G01 X106 Y-293 Z0
G01 X298 Y-293 Z0
G01 X299 Y-293 Z0.070588
G01 X300 Y-293 Z0.070588
G01 X301 Y-293 Z0
G01 X308 Y-293 Z0
G01 X309 Y-293 Z1.058824
G01 X310 Y-293 Z2
G01 X492 Y-293 Z2
G01 X493 Y-293 Z0.705882
G01 X494 Y-293 Z0
G01 X501 Y-293 Z0
G01 X502 Y-293 Z0.054902
G01 X503 Y-293 Z0.054902
G01 X504 Y-293 Z0
G01 X705 Y-293 Z0
G01 X706 Y-293 Z0.039216
G01 X707 Y-293 Z2
G01 X768 Y-293 Z2
G01 X769 Y-293 Z1.537255
G01 X770 Y-293 Z0
G01 X777 Y-293 Z0
G01 X778 Y-293 Z0.007843
G01 X779 Y-293 Z1.968627
G01 X780 Y-293 Z2
G01 X799 Y-293 Z2
G01 X799 Y-294 Z2
G01 X799 Y-295 Z2
G01 X780 Y-295 Z2
G01 X779 Y-295 Z0.54902
G01 X778 Y-295 Z0
G01 X771 Y-295 Z0
G01 X770 Y-295 Z0.141176
G01 X769 Y-295 Z2
G01 X708 Y-295 Z2
G01 X707 Y-295 Z1.905882
G01 X706 Y-295 Z0
G01 X699 Y-295 Z0
G01 X698 Y-295 Z0.078431
G01 X697 Y-295 Z0.078431
G01 X696 Y-295 Z0
G01 X494 Y-295 Z0
G01 X493 Y-295 Z2
G01 X309 Y-295 Z2
G01 X308 Y-295 Z0
G01 X106 Y-295 Z0
G01 X105 Y-295 Z0.039216
G01 X104 Y-295 Z0.039216
G01 X103 Y-295 Z0
G01 X96 Y-295 Z0
G01 X95 Y-295 Z0.243137
G01 X94 Y-295 Z2
G01 X30 Y-295 Z2
G01 X29 Y-295 Z0.894118
G01 X28 Y-295 Z0
G01 X21 Y-295 Z0
G01 X20 Y-295 Z0.070588
G01 X19 Y-295 Z2
G01 X0 Y-295 Z2
G01 X0 Y-296 Z2
G01 X0 Y-297 Z2
G01 X18 Y-297 Z2
G01 X19 Y-297 Z0.831373
G01 X20 Y-297 Z0
G01 X27 Y-297 Z0
G01 X28 Y-297 Z0.015686
G01 X29 Y-297 Z2
G01 X94 Y-297 Z2
G01 X95 Y-297 Z0
G01 X102 Y-297 Z0
G01 X103 Y-297 Z0.039216
G01 X104 Y-297 Z0.039216
G01 X105 Y-297 Z0
G01 X297 Y-297 Z0
G01 X298 Y-297 Z0.062745
G01 X299 Y-297 Z0.062745
G01 X300 Y-297 Z0
G01 X307 Y-297 Z0
G01 X308 Y-297 Z0.745098
G01 X309 Y-297 Z2
G01 X493 Y-297 Z2
G01 X494 Y-297 Z0.580392
G01 X495 Y-297 Z0
G01 X502 Y-297 Z0
G01 X503 Y-297 Z0.070588
G01 X504 Y-297 Z0.070588
G01 X505 Y-297 Z0
G01 X706 Y-297 Z0
G01 X707 Y-297 Z0.235294
G01 X708 Y-297 Z2
G01 X770 Y-297 Z2
G01 X771 Y-297 Z0
G01 X779 Y-297 Z0
