(bit size: 2mm)
(x size: 700mm)
(max z: 2mm)

G21 (Programming in millimeters)
G90 (Absolute programming)
G92 X0 Y0 Z2 (Tell the machine it is at 0, 0, 2)
G00 X0 Y-1 Z2 (Starting position)

G01 X2 Y-1 Z2
G01 X699 Y-1 Z2
G01 X699 Y-2 Z2
G01 X699 Y-3 Z2
G01 X699 Y-4 Z2
G01 X0 Y-4 Z2
G01 X0 Y-5 Z2
G01 X0 Y-6 Z2
G01 X0 Y-7 Z2
G01 X699 Y-7 Z2
G01 X699 Y-8 Z2
G01 X699 Y-9 Z2
G01 X699 Y-10 Z2
G01 X0 Y-10 Z2
G01 X0 Y-11 Z2
G01 X0 Y-12 Z2
G01 X0 Y-13 Z2
G01 X699 Y-13 Z2
G01 X699 Y-14 Z2
G01 X699 Y-15 Z2
G01 X699 Y-16 Z2
G01 X0 Y-16 Z2
G01 X0 Y-17 Z2
G01 X0 Y-18 Z2
G01 X0 Y-19 Z2
G01 X699 Y-19 Z2
G01 X699 Y-20 Z2
G01 X699 Y-21 Z2
G01 X699 Y-22 Z2
G01 X0 Y-22 Z2
G01 X0 Y-23 Z2
G01 X0 Y-24 Z2
G01 X0 Y-25 Z2
G01 X699 Y-25 Z2
G01 X699 Y-26 Z2
G01 X699 Y-27 Z2
G01 X699 Y-28 Z2
G01 X0 Y-28 Z2
G01 X0 Y-29 Z2
G01 X0 Y-30 Z2
G01 X0 Y-31 Z2
G01 X699 Y-31 Z2
G01 X699 Y-32 Z2
G01 X699 Y-33 Z2
G01 X699 Y-34 Z2
G01 X0 Y-34 Z2
G01 X0 Y-35 Z2
G01 X0 Y-36 Z2
G01 X0 Y-37 Z2
G01 X699 Y-37 Z2
G01 X699 Y-38 Z2
G01 X699 Y-39 Z2
G01 X699 Y-40 Z2
G01 X0 Y-40 Z2
G01 X0 Y-41 Z2
G01 X0 Y-42 Z2
G01 X0 Y-43 Z2
G01 X699 Y-43 Z2
G01 X699 Y-44 Z2
G01 X699 Y-45 Z2
G01 X699 Y-46 Z2
G01 X0 Y-46 Z2
G01 X0 Y-47 Z2
G01 X0 Y-48 Z2
G01 X0 Y-49 Z2
G01 X699 Y-49 Z2
G01 X699 Y-50 Z2
G01 X699 Y-51 Z2
G01 X699 Y-52 Z2
G01 X387 Y-52 Z2
G01 X386 Y-52 Z1
G01 X313 Y-52 Z1
G01 X312 Y-52 Z2
G01 X0 Y-52 Z2
G01 X0 Y-53 Z2
G01 X0 Y-54 Z2
G01 X0 Y-55 Z2
G01 X293 Y-55 Z2
G01 X294 Y-55 Z1
G01 X405 Y-55 Z1
G01 X406 Y-55 Z2
G01 X699 Y-55 Z2
G01 X699 Y-56 Z2
G01 X699 Y-57 Z2
G01 X699 Y-58 Z2
G01 X420 Y-58 Z2
G01 X419 Y-58 Z1
G01 X280 Y-58 Z1
G01 X279 Y-58 Z2
G01 X0 Y-58 Z2
G01 X0 Y-59 Z2
G01 X0 Y-60 Z2
G01 X0 Y-61 Z2
G01 X268 Y-61 Z2
G01 X269 Y-61 Z1
G01 X430 Y-61 Z1
G01 X431 Y-61 Z2
G01 X699 Y-61 Z2
G01 X699 Y-62 Z2
G01 X699 Y-63 Z2
G01 X699 Y-64 Z2
G01 X441 Y-64 Z2
G01 X440 Y-64 Z1
G01 X259 Y-64 Z1
G01 X258 Y-64 Z2
G01 X0 Y-64 Z2
G01 X0 Y-65 Z2
G01 X0 Y-66 Z2
G01 X0 Y-67 Z2
G01 X249 Y-67 Z2
G01 X250 Y-67 Z1
G01 X385 Y-67 Z1
G01 X386 Y-67 Z2
G01 X407 Y-67 Z2
G01 X408 Y-67 Z1
G01 X449 Y-67 Z1
G01 X450 Y-67 Z2
G01 X699 Y-67 Z2
G01 X699 Y-68 Z2
G01 X699 Y-69 Z2
G01 X699 Y-70 Z2
G01 X458 Y-70 Z2
G01 X457 Y-70 Z1
G01 X412 Y-70 Z1
G01 X411 Y-70 Z2
G01 X382 Y-70 Z2
G01 X381 Y-70 Z1
G01 X242 Y-70 Z1
G01 X241 Y-70 Z2
G01 X0 Y-70 Z2
G01 X0 Y-71 Z2
G01 X0 Y-72 Z2
G01 X0 Y-73 Z2
G01 X233 Y-73 Z2
G01 X234 Y-73 Z1
G01 X379 Y-73 Z1
G01 X380 Y-73 Z2
G01 X413 Y-73 Z2
G01 X414 Y-73 Z1
G01 X465 Y-73 Z1
G01 X466 Y-73 Z2
G01 X699 Y-73 Z2
G01 X699 Y-74 Z2
G01 X699 Y-75 Z2
G01 X699 Y-76 Z2
G01 X473 Y-76 Z2
G01 X472 Y-76 Z1
G01 X416 Y-76 Z1
G01 X415 Y-76 Z2
G01 X378 Y-76 Z2
G01 X377 Y-76 Z1
G01 X227 Y-76 Z1
G01 X226 Y-76 Z2
G01 X0 Y-76 Z2
G01 X0 Y-77 Z2
G01 X0 Y-78 Z2
G01 X0 Y-79 Z2
G01 X220 Y-79 Z2
G01 X221 Y-79 Z1
G01 X376 Y-79 Z1
G01 X377 Y-79 Z2
G01 X416 Y-79 Z2
G01 X417 Y-79 Z1
G01 X478 Y-79 Z1
G01 X479 Y-79 Z2
G01 X699 Y-79 Z2
G01 X699 Y-80 Z2
G01 X699 Y-81 Z2
G01 X699 Y-82 Z2
G01 X485 Y-82 Z2
G01 X484 Y-82 Z1
G01 X417 Y-82 Z1
G01 X416 Y-82 Z2
G01 X377 Y-82 Z2
G01 X376 Y-82 Z1
G01 X215 Y-82 Z1
G01 X214 Y-82 Z2
G01 X0 Y-82 Z2
G01 X0 Y-83 Z2
G01 X0 Y-84 Z2
G01 X0 Y-85 Z2
G01 X208 Y-85 Z2
G01 X209 Y-85 Z1
G01 X376 Y-85 Z1
G01 X377 Y-85 Z2
G01 X416 Y-85 Z2
G01 X417 Y-85 Z1
G01 X490 Y-85 Z1
G01 X491 Y-85 Z2
G01 X699 Y-85 Z2
G01 X699 Y-86 Z2
G01 X699 Y-87 Z2
G01 X699 Y-88 Z2
G01 X496 Y-88 Z2
G01 X495 Y-88 Z1
G01 X417 Y-88 Z1
G01 X416 Y-88 Z2
G01 X377 Y-88 Z2
G01 X376 Y-88 Z1
G01 X332 Y-88 Z1
G01 X331 Y-88 Z2
G01 X292 Y-88 Z2
G01 X291 Y-88 Z1
G01 X204 Y-88 Z1
G01 X203 Y-88 Z2
G01 X0 Y-88 Z2
G01 X0 Y-89 Z2
G01 X0 Y-90 Z2
G01 X0 Y-91 Z2
G01 X197 Y-91 Z2
G01 X198 Y-91 Z1
G01 X282 Y-91 Z1
G01 X283 Y-91 Z2
G01 X340 Y-91 Z2
G01 X341 Y-91 Z1
G01 X377 Y-91 Z1
G01 X378 Y-91 Z2
G01 X415 Y-91 Z2
G01 X416 Y-91 Z1
G01 X501 Y-91 Z1
G01 X502 Y-91 Z2
G01 X699 Y-91 Z2
G01 X699 Y-92 Z2
G01 X699 Y-93 Z2
G01 X699 Y-94 Z2
G01 X507 Y-94 Z2
G01 X506 Y-94 Z1
G01 X415 Y-94 Z1
G01 X414 Y-94 Z2
G01 X379 Y-94 Z2
G01 X378 Y-94 Z1
G01 X347 Y-94 Z1
G01 X346 Y-94 Z2
G01 X277 Y-94 Z2
G01 X276 Y-94 Z1
G01 X225 Y-94 Z1
G01 X224 Y-94 Z2
G01 X213 Y-94 Z2
G01 X212 Y-94 Z1
G01 X193 Y-94 Z1
G01 X192 Y-94 Z2
G01 X0 Y-94 Z2
G01 X0 Y-95 Z2
G01 X0 Y-96 Z2
G01 X0 Y-97 Z2
G01 X188 Y-97 Z2
G01 X189 Y-97 Z1
G01 X206 Y-97 Z1
G01 X207 Y-97 Z2
G01 X230 Y-97 Z2
G01 X231 Y-97 Z1
G01 X272 Y-97 Z1
G01 X273 Y-97 Z2
G01 X350 Y-97 Z2
G01 X351 Y-97 Z1
G01 X380 Y-97 Z1
G01 X381 Y-97 Z2
G01 X412 Y-97 Z2
G01 X413 Y-97 Z1
G01 X510 Y-97 Z1
G01 X511 Y-97 Z2
G01 X699 Y-97 Z2
G01 X699 Y-98 Z2
G01 X699 Y-99 Z2
G01 X699 Y-100 Z2
G01 X516 Y-100 Z2
G01 X515 Y-100 Z1
G01 X411 Y-100 Z1
G01 X410 Y-100 Z2
G01 X383 Y-100 Z2
G01 X382 Y-100 Z1
G01 X356 Y-100 Z1
G01 X355 Y-100 Z2
G01 X268 Y-100 Z2
G01 X267 Y-100 Z1
G01 X235 Y-100 Z1
G01 X234 Y-100 Z2
G01 X203 Y-100 Z2
G01 X202 Y-100 Z1
G01 X184 Y-100 Z1
G01 X183 Y-100 Z2
G01 X0 Y-100 Z2
G01 X0 Y-101 Z2
G01 X0 Y-102 Z2
G01 X0 Y-103 Z2
G01 X179 Y-103 Z2
G01 X180 Y-103 Z1
G01 X200 Y-103 Z1
G01 X201 Y-103 Z2
G01 X236 Y-103 Z2
G01 X237 Y-103 Z1
G01 X264 Y-103 Z1
G01 X265 Y-103 Z2
G01 X358 Y-103 Z2
G01 X359 Y-103 Z1
G01 X387 Y-103 Z1
G01 X388 Y-103 Z2
G01 X405 Y-103 Z2
G01 X406 Y-103 Z1
G01 X519 Y-103 Z1
G01 X520 Y-103 Z2
G01 X699 Y-103 Z2
G01 X699 Y-104 Z2
G01 X699 Y-105 Z2
G01 X699 Y-106 Z2
G01 X525 Y-106 Z2
G01 X524 Y-106 Z1
G01 X493 Y-106 Z1
G01 X492 Y-106 Z2
G01 X453 Y-106 Z2
G01 X452 Y-106 Z1
G01 X362 Y-106 Z1
G01 X361 Y-106 Z2
G01 X262 Y-106 Z2
G01 X261 Y-106 Z1
G01 X238 Y-106 Z1
G01 X237 Y-106 Z2
G01 X200 Y-106 Z2
G01 X199 Y-106 Z1
G01 X175 Y-106 Z1
G01 X174 Y-106 Z2
G01 X0 Y-106 Z2
G01 X0 Y-107 Z2
G01 X0 Y-108 Z2
G01 X0 Y-109 Z2
G01 X170 Y-109 Z2
G01 X171 Y-109 Z1
G01 X198 Y-109 Z1
G01 X199 Y-109 Z2
G01 X238 Y-109 Z2
G01 X239 Y-109 Z1
G01 X258 Y-109 Z1
G01 X259 Y-109 Z2
G01 X364 Y-109 Z2
G01 X365 Y-109 Z1
G01 X443 Y-109 Z1
G01 X444 Y-109 Z2
G01 X501 Y-109 Z2
G01 X502 Y-109 Z1
G01 X528 Y-109 Z1
G01 X529 Y-109 Z2
G01 X699 Y-109 Z2
G01 X699 Y-110 Z2
G01 X699 Y-111 Z2
G01 X699 Y-112 Z2
G01 X533 Y-112 Z2
G01 X532 Y-112 Z1
G01 X508 Y-112 Z1
G01 X507 Y-112 Z2
G01 X438 Y-112 Z2
G01 X437 Y-112 Z1
G01 X368 Y-112 Z1
G01 X367 Y-112 Z2
G01 X256 Y-112 Z2
G01 X255 Y-112 Z1
G01 X239 Y-112 Z1
G01 X238 Y-112 Z2
G01 X199 Y-112 Z2
G01 X198 Y-112 Z1
G01 X167 Y-112 Z1
G01 X166 Y-112 Z2
G01 X0 Y-112 Z2
G01 X0 Y-113 Z2
G01 X0 Y-114 Z2
G01 X0 Y-115 Z2
G01 X162 Y-115 Z2
G01 X163 Y-115 Z1
G01 X198 Y-115 Z1
G01 X199 Y-115 Z2
G01 X238 Y-115 Z2
G01 X239 Y-115 Z1
G01 X253 Y-115 Z1
G01 X254 Y-115 Z2
G01 X369 Y-115 Z2
G01 X370 Y-115 Z1
G01 X433 Y-115 Z1
G01 X434 Y-115 Z2
G01 X511 Y-115 Z2
G01 X512 Y-115 Z1
G01 X536 Y-115 Z1
G01 X537 Y-115 Z2
G01 X699 Y-115 Z2
G01 X699 Y-116 Z2
G01 X699 Y-117 Z2
G01 X699 Y-118 Z2
G01 X540 Y-118 Z2
G01 X539 Y-118 Z1
G01 X517 Y-118 Z1
G01 X516 Y-118 Z2
G01 X429 Y-118 Z2
G01 X428 Y-118 Z1
G01 X372 Y-118 Z1
G01 X371 Y-118 Z2
G01 X252 Y-118 Z2
G01 X251 Y-118 Z1
G01 X239 Y-118 Z1
G01 X238 Y-118 Z2
G01 X199 Y-118 Z2
G01 X198 Y-118 Z1
G01 X160 Y-118 Z1
G01 X159 Y-118 Z2
G01 X0 Y-118 Z2
G01 X0 Y-119 Z2
G01 X0 Y-120 Z2
G01 X0 Y-121 Z2
G01 X155 Y-121 Z2
G01 X156 Y-121 Z1
G01 X199 Y-121 Z1
G01 X200 Y-121 Z2
G01 X237 Y-121 Z2
G01 X238 Y-121 Z1
G01 X249 Y-121 Z1
G01 X250 Y-121 Z2
G01 X373 Y-121 Z2
G01 X374 Y-121 Z1
G01 X425 Y-121 Z1
G01 X426 Y-121 Z2
G01 X519 Y-121 Z2
G01 X520 Y-121 Z1
G01 X543 Y-121 Z1
G01 X544 Y-121 Z2
G01 X699 Y-121 Z2
G01 X699 Y-122 Z2
G01 X699 Y-123 Z2
G01 X699 Y-124 Z2
G01 X547 Y-124 Z2
G01 X546 Y-124 Z1
G01 X523 Y-124 Z1
G01 X522 Y-124 Z2
G01 X423 Y-124 Z2
G01 X422 Y-124 Z1
G01 X375 Y-124 Z1
G01 X374 Y-124 Z2
G01 X249 Y-124 Z2
G01 X248 Y-124 Z1
G01 X237 Y-124 Z1
G01 X236 Y-124 Z2
G01 X201 Y-124 Z2
G01 X200 Y-124 Z1
G01 X153 Y-124 Z1
G01 X152 Y-124 Z2
G01 X0 Y-124 Z2
G01 X0 Y-125 Z2
G01 X0 Y-126 Z2
G01 X0 Y-127 Z2
G01 X148 Y-127 Z2
G01 X149 Y-127 Z1
G01 X202 Y-127 Z1
G01 X203 Y-127 Z2
G01 X234 Y-127 Z2
G01 X235 Y-127 Z1
G01 X246 Y-127 Z1
G01 X247 Y-127 Z2
G01 X376 Y-127 Z2
G01 X377 Y-127 Z1
G01 X419 Y-127 Z1
G01 X420 Y-127 Z2
G01 X525 Y-127 Z2
G01 X526 Y-127 Z1
G01 X550 Y-127 Z1
G01 X551 Y-127 Z2
G01 X699 Y-127 Z2
G01 X699 Y-128 Z2
G01 X699 Y-129 Z2
G01 X699 Y-130 Z2
G01 X554 Y-130 Z2
G01 X553 Y-130 Z1
G01 X529 Y-130 Z1
G01 X528 Y-130 Z2
G01 X417 Y-130 Z2
G01 X416 Y-130 Z1
G01 X378 Y-130 Z1
G01 X377 Y-130 Z2
G01 X246 Y-130 Z2
G01 X245 Y-130 Z1
G01 X231 Y-130 Z1
G01 X230 Y-130 Z2
G01 X207 Y-130 Z2
G01 X206 Y-130 Z1
G01 X146 Y-130 Z1
G01 X145 Y-130 Z2
G01 X0 Y-130 Z2
G01 X0 Y-131 Z2
G01 X0 Y-132 Z2
G01 X0 Y-133 Z2
G01 X142 Y-133 Z2
G01 X143 Y-133 Z1
G01 X212 Y-133 Z1
G01 X213 Y-133 Z2
G01 X224 Y-133 Z2
G01 X225 Y-133 Z1
G01 X244 Y-133 Z1
G01 X245 Y-133 Z2
G01 X378 Y-133 Z2
G01 X379 Y-133 Z1
G01 X414 Y-133 Z1
G01 X415 Y-133 Z2
G01 X530 Y-133 Z2
G01 X531 Y-133 Z1
G01 X556 Y-133 Z1
G01 X557 Y-133 Z2
G01 X699 Y-133 Z2
G01 X699 Y-134 Z2
G01 X699 Y-135 Z2
G01 X699 Y-136 Z2
G01 X560 Y-136 Z2
G01 X559 Y-136 Z1
G01 X533 Y-136 Z1
G01 X532 Y-136 Z2
G01 X413 Y-136 Z2
G01 X412 Y-136 Z1
G01 X380 Y-136 Z1
G01 X379 Y-136 Z2
G01 X244 Y-136 Z2
G01 X243 Y-136 Z1
G01 X140 Y-136 Z1
G01 X139 Y-136 Z2
G01 X0 Y-136 Z2
G01 X0 Y-137 Z2
G01 X0 Y-138 Z2
G01 X0 Y-139 Z2
G01 X136 Y-139 Z2
G01 X137 Y-139 Z1
G01 X242 Y-139 Z1
G01 X243 Y-139 Z2
G01 X380 Y-139 Z2
G01 X381 Y-139 Z1
G01 X410 Y-139 Z1
G01 X411 Y-139 Z2
G01 X534 Y-139 Z2
G01 X535 Y-139 Z1
G01 X562 Y-139 Z1
G01 X563 Y-139 Z2
G01 X699 Y-139 Z2
G01 X699 Y-140 Z2
G01 X699 Y-141 Z2
G01 X699 Y-142 Z2
G01 X566 Y-142 Z2
G01 X565 Y-142 Z1
G01 X536 Y-142 Z1
G01 X535 Y-142 Z2
G01 X410 Y-142 Z2
G01 X409 Y-142 Z1
G01 X381 Y-142 Z1
G01 X380 Y-142 Z2
G01 X243 Y-142 Z2
G01 X242 Y-142 Z1
G01 X134 Y-142 Z1
G01 X133 Y-142 Z2
G01 X0 Y-142 Z2
G01 X0 Y-143 Z2
G01 X0 Y-144 Z2
G01 X0 Y-145 Z2
G01 X130 Y-145 Z2
G01 X131 Y-145 Z1
G01 X241 Y-145 Z1
G01 X242 Y-145 Z2
G01 X381 Y-145 Z2
G01 X382 Y-145 Z1
G01 X407 Y-145 Z1
G01 X408 Y-145 Z2
G01 X537 Y-145 Z2
G01 X538 Y-145 Z1
G01 X568 Y-145 Z1
G01 X569 Y-145 Z2
G01 X699 Y-145 Z2
G01 X699 Y-146 Z2
G01 X699 Y-147 Z2
G01 X699 Y-148 Z2
G01 X572 Y-148 Z2
G01 X571 Y-148 Z1
G01 X539 Y-148 Z1
G01 X538 Y-148 Z2
G01 X407 Y-148 Z2
G01 X406 Y-148 Z1
G01 X382 Y-148 Z1
G01 X381 Y-148 Z2
G01 X242 Y-148 Z2
G01 X241 Y-148 Z1
G01 X128 Y-148 Z1
G01 X127 Y-148 Z2
G01 X0 Y-148 Z2
G01 X0 Y-149 Z2
G01 X0 Y-150 Z2
G01 X0 Y-151 Z2
G01 X125 Y-151 Z2
G01 X126 Y-151 Z1
G01 X159 Y-151 Z1
G01 X160 Y-151 Z2
G01 X193 Y-151 Z2
G01 X194 Y-151 Z1
G01 X241 Y-151 Z1
G01 X242 Y-151 Z2
G01 X381 Y-151 Z2
G01 X382 Y-151 Z1
G01 X405 Y-151 Z1
G01 X406 Y-151 Z2
G01 X539 Y-151 Z2
G01 X540 Y-151 Z1
G01 X573 Y-151 Z1
G01 X574 Y-151 Z2
G01 X699 Y-151 Z2
G01 X699 Y-152 Z2
G01 X699 Y-153 Z2
G01 X699 Y-154 Z2
G01 X577 Y-154 Z2
G01 X576 Y-154 Z1
G01 X541 Y-154 Z1
G01 X540 Y-154 Z2
G01 X405 Y-154 Z2
G01 X404 Y-154 Z1
G01 X382 Y-154 Z1
G01 X381 Y-154 Z2
G01 X242 Y-154 Z2
G01 X241 Y-154 Z1
G01 X203 Y-154 Z1
G01 X202 Y-154 Z2
G01 X151 Y-154 Z2
G01 X150 Y-154 Z1
G01 X123 Y-154 Z1
G01 X122 Y-154 Z2
G01 X0 Y-154 Z2
G01 X0 Y-155 Z2
G01 X0 Y-156 Z2
G01 X0 Y-157 Z2
G01 X119 Y-157 Z2
G01 X120 Y-157 Z1
G01 X143 Y-157 Z1
G01 X144 Y-157 Z2
G01 X209 Y-157 Z2
G01 X210 Y-157 Z1
G01 X241 Y-157 Z1
G01 X242 Y-157 Z2
G01 X381 Y-157 Z2
G01 X382 Y-157 Z1
G01 X403 Y-157 Z1
G01 X404 Y-157 Z2
G01 X541 Y-157 Z2
G01 X542 Y-157 Z1
G01 X579 Y-157 Z1
G01 X580 Y-157 Z2
G01 X699 Y-157 Z2
G01 X699 Y-158 Z2
G01 X699 Y-159 Z2
G01 X699 Y-160 Z2
G01 X582 Y-160 Z2
G01 X581 Y-160 Z1
G01 X542 Y-160 Z1
G01 X541 Y-160 Z2
G01 X404 Y-160 Z2
G01 X403 Y-160 Z1
G01 X382 Y-160 Z1
G01 X381 Y-160 Z2
G01 X242 Y-160 Z2
G01 X241 Y-160 Z1
G01 X215 Y-160 Z1
G01 X214 Y-160 Z2
G01 X139 Y-160 Z2
G01 X138 Y-160 Z1
G01 X118 Y-160 Z1
G01 X117 Y-160 Z2
G01 X0 Y-160 Z2
G01 X0 Y-161 Z2
G01 X0 Y-162 Z2
G01 X0 Y-163 Z2
G01 X114 Y-163 Z2
G01 X115 Y-163 Z1
G01 X134 Y-163 Z1
G01 X135 Y-163 Z2
G01 X218 Y-163 Z2
G01 X219 Y-163 Z1
G01 X241 Y-163 Z1
G01 X242 Y-163 Z2
G01 X381 Y-163 Z2
G01 X382 Y-163 Z1
G01 X402 Y-163 Z1
G01 X403 Y-163 Z2
G01 X542 Y-163 Z2
G01 X543 Y-163 Z1
G01 X584 Y-163 Z1
G01 X585 Y-163 Z2
G01 X699 Y-163 Z2
G01 X699 Y-164 Z2
G01 X699 Y-165 Z2
G01 X699 Y-166 Z2
G01 X587 Y-166 Z2
G01 X586 Y-166 Z1
G01 X543 Y-166 Z1
G01 X542 Y-166 Z2
G01 X403 Y-166 Z2
G01 X402 Y-166 Z1
G01 X382 Y-166 Z1
G01 X381 Y-166 Z2
G01 X242 Y-166 Z2
G01 X241 Y-166 Z1
G01 X223 Y-166 Z1
G01 X222 Y-166 Z2
G01 X131 Y-166 Z2
G01 X130 Y-166 Z1
G01 X113 Y-166 Z1
G01 X112 Y-166 Z2
G01 X0 Y-166 Z2
G01 X0 Y-167 Z2
G01 X0 Y-168 Z2
G01 X0 Y-169 Z2
G01 X110 Y-169 Z2
G01 X111 Y-169 Z1
G01 X127 Y-169 Z1
G01 X128 Y-169 Z2
G01 X225 Y-169 Z2
G01 X226 Y-169 Z1
G01 X242 Y-169 Z1
G01 X243 Y-169 Z2
G01 X380 Y-169 Z2
G01 X381 Y-169 Z1
G01 X402 Y-169 Z1
G01 X403 Y-169 Z2
G01 X542 Y-169 Z2
G01 X543 Y-169 Z1
G01 X588 Y-169 Z1
G01 X589 Y-169 Z2
G01 X699 Y-169 Z2
G01 X699 Y-170 Z2
G01 X699 Y-171 Z2
G01 X699 Y-172 Z2
G01 X591 Y-172 Z2
G01 X590 Y-172 Z1
G01 X543 Y-172 Z1
G01 X542 Y-172 Z2
G01 X403 Y-172 Z2
G01 X402 Y-172 Z1
G01 X381 Y-172 Z1
G01 X380 Y-172 Z2
G01 X243 Y-172 Z2
G01 X242 Y-172 Z1
G01 X229 Y-172 Z1
G01 X228 Y-172 Z2
G01 X125 Y-172 Z2
G01 X124 Y-172 Z1
G01 X109 Y-172 Z1
G01 X108 Y-172 Z2
G01 X0 Y-172 Z2
G01 X0 Y-173 Z2
G01 X0 Y-174 Z2
G01 X0 Y-175 Z2
G01 X105 Y-175 Z2
G01 X106 Y-175 Z1
G01 X121 Y-175 Z1
G01 X122 Y-175 Z2
G01 X231 Y-175 Z2
G01 X232 Y-175 Z1
G01 X243 Y-175 Z1
G01 X244 Y-175 Z2
G01 X379 Y-175 Z2
G01 X380 Y-175 Z1
G01 X402 Y-175 Z1
G01 X403 Y-175 Z2
G01 X542 Y-175 Z2
G01 X543 Y-175 Z1
G01 X593 Y-175 Z1
G01 X594 Y-175 Z2
G01 X699 Y-175 Z2
G01 X699 Y-176 Z2
G01 X699 Y-177 Z2
G01 X699 Y-178 Z2
G01 X596 Y-178 Z2
G01 X595 Y-178 Z1
G01 X543 Y-178 Z1
G01 X542 Y-178 Z2
G01 X403 Y-178 Z2
G01 X402 Y-178 Z1
G01 X379 Y-178 Z1
G01 X378 Y-178 Z2
G01 X245 Y-178 Z2
G01 X244 Y-178 Z1
G01 X234 Y-178 Z1
G01 X233 Y-178 Z2
G01 X120 Y-178 Z2
G01 X119 Y-178 Z1
G01 X104 Y-178 Z1
G01 X103 Y-178 Z2
G01 X0 Y-178 Z2
G01 X0 Y-179 Z2
G01 X0 Y-180 Z2
G01 X0 Y-181 Z2
G01 X101 Y-181 Z2
G01 X102 Y-181 Z1
G01 X117 Y-181 Z1
G01 X118 Y-181 Z2
G01 X235 Y-181 Z2
G01 X236 Y-181 Z1
G01 X245 Y-181 Z1
G01 X246 Y-181 Z2
G01 X377 Y-181 Z2
G01 X378 Y-181 Z1
G01 X402 Y-181 Z1
G01 X403 Y-181 Z2
G01 X542 Y-181 Z2
G01 X543 Y-181 Z1
G01 X597 Y-181 Z1
G01 X598 Y-181 Z2
G01 X699 Y-181 Z2
G01 X699 Y-182 Z2
G01 X699 Y-183 Z2
G01 X699 Y-184 Z2
G01 X600 Y-184 Z2
G01 X599 Y-184 Z1
G01 X543 Y-184 Z1
G01 X542 Y-184 Z2
G01 X403 Y-184 Z2
G01 X402 Y-184 Z1
G01 X377 Y-184 Z1
G01 X376 Y-184 Z2
G01 X247 Y-184 Z2
G01 X246 Y-184 Z1
G01 X238 Y-184 Z1
G01 X237 Y-184 Z2
G01 X116 Y-184 Z2
G01 X115 Y-184 Z1
G01 X100 Y-184 Z1
G01 X99 Y-184 Z2
G01 X0 Y-184 Z2
G01 X0 Y-185 Z2
G01 X0 Y-186 Z2
G01 X0 Y-187 Z2
G01 X97 Y-187 Z2
G01 X98 Y-187 Z1
G01 X113 Y-187 Z1
G01 X114 Y-187 Z2
G01 X239 Y-187 Z2
G01 X240 Y-187 Z1
G01 X248 Y-187 Z1
G01 X249 Y-187 Z2
G01 X374 Y-187 Z2
G01 X375 Y-187 Z1
G01 X403 Y-187 Z1
G01 X404 Y-187 Z2
G01 X541 Y-187 Z2
G01 X542 Y-187 Z1
G01 X566 Y-187 Z1
G01 X567 Y-187 Z2
G01 X584 Y-187 Z2
G01 X585 Y-187 Z1
G01 X601 Y-187 Z1
G01 X602 Y-187 Z2
G01 X699 Y-187 Z2
G01 X699 Y-188 Z2
G01 X699 Y-189 Z2
G01 X699 Y-190 Z2
G01 X604 Y-190 Z2
G01 X603 Y-190 Z1
G01 X590 Y-190 Z1
G01 X589 Y-190 Z2
G01 X562 Y-190 Z2
G01 X561 Y-190 Z1
G01 X542 Y-190 Z1
G01 X541 Y-190 Z2
G01 X404 Y-190 Z2
G01 X403 Y-190 Z1
G01 X374 Y-190 Z1
G01 X373 Y-190 Z2
G01 X250 Y-190 Z2
G01 X249 Y-190 Z1
G01 X241 Y-190 Z1
G01 X240 Y-190 Z2
G01 X113 Y-190 Z2
G01 X112 Y-190 Z1
G01 X96 Y-190 Z1
G01 X95 Y-190 Z2
G01 X0 Y-190 Z2
G01 X0 Y-191 Z2
G01 X0 Y-192 Z2
G01 X0 Y-193 Z2
G01 X93 Y-193 Z2
G01 X94 Y-193 Z1
G01 X111 Y-193 Z1
G01 X112 Y-193 Z2
G01 X241 Y-193 Z2
G01 X242 Y-193 Z1
G01 X251 Y-193 Z1
G01 X252 Y-193 Z2
G01 X371 Y-193 Z2
G01 X372 Y-193 Z1
G01 X404 Y-193 Z1
G01 X405 Y-193 Z2
G01 X540 Y-193 Z2
G01 X541 Y-193 Z1
G01 X559 Y-193 Z1
G01 X560 Y-193 Z2
G01 X591 Y-193 Z2
G01 X592 Y-193 Z1
G01 X605 Y-193 Z1
G01 X606 Y-193 Z2
G01 X699 Y-193 Z2
G01 X699 Y-194 Z2
G01 X699 Y-195 Z2
G01 X699 Y-196 Z2
G01 X607 Y-196 Z2
G01 X606 Y-196 Z1
G01 X594 Y-196 Z1
G01 X593 Y-196 Z2
G01 X558 Y-196 Z2
G01 X557 Y-196 Z1
G01 X540 Y-196 Z1
G01 X539 Y-196 Z2
G01 X406 Y-196 Z2
G01 X405 Y-196 Z1
G01 X370 Y-196 Z1
G01 X369 Y-196 Z2
G01 X254 Y-196 Z2
G01 X253 Y-196 Z1
G01 X243 Y-196 Z1
G01 X242 Y-196 Z2
G01 X111 Y-196 Z2
G01 X110 Y-196 Z1
G01 X93 Y-196 Z1
G01 X92 Y-196 Z2
G01 X0 Y-196 Z2
G01 X0 Y-197 Z2
G01 X0 Y-198 Z2
G01 X0 Y-199 Z2
G01 X90 Y-199 Z2
G01 X91 Y-199 Z1
G01 X109 Y-199 Z1
G01 X110 Y-199 Z2
G01 X243 Y-199 Z2
G01 X244 Y-199 Z1
G01 X255 Y-199 Z1
G01 X256 Y-199 Z2
G01 X367 Y-199 Z2
G01 X368 Y-199 Z1
G01 X406 Y-199 Z1
G01 X407 Y-199 Z2
G01 X538 Y-199 Z2
G01 X539 Y-199 Z1
G01 X556 Y-199 Z1
G01 X557 Y-199 Z2
G01 X594 Y-199 Z2
G01 X595 Y-199 Z1
G01 X608 Y-199 Z1
G01 X609 Y-199 Z2
G01 X699 Y-199 Z2
G01 X699 Y-200 Z2
G01 X699 Y-201 Z2
G01 X699 Y-202 Z2
G01 X611 Y-202 Z2
G01 X610 Y-202 Z1
G01 X596 Y-202 Z1
G01 X595 Y-202 Z2
G01 X556 Y-202 Z2
G01 X555 Y-202 Z1
G01 X538 Y-202 Z1
G01 X537 Y-202 Z2
G01 X408 Y-202 Z2
G01 X407 Y-202 Z1
G01 X365 Y-202 Z1
G01 X364 Y-202 Z2
G01 X259 Y-202 Z2
G01 X258 Y-202 Z1
G01 X245 Y-202 Z1
G01 X244 Y-202 Z2
G01 X109 Y-202 Z2
G01 X108 Y-202 Z1
G01 X89 Y-202 Z1
G01 X88 Y-202 Z2
G01 X0 Y-202 Z2
G01 X0 Y-203 Z2
G01 X0 Y-204 Z2
G01 X0 Y-205 Z2
G01 X86 Y-205 Z2
G01 X87 Y-205 Z1
G01 X107 Y-205 Z1
G01 X108 Y-205 Z2
G01 X245 Y-205 Z2
G01 X246 Y-205 Z1
G01 X261 Y-205 Z1
G01 X262 Y-205 Z2
G01 X361 Y-205 Z2
G01 X362 Y-205 Z1
G01 X409 Y-205 Z1
G01 X410 Y-205 Z2
G01 X535 Y-205 Z2
G01 X536 Y-205 Z1
G01 X555 Y-205 Z1
G01 X556 Y-205 Z2
G01 X595 Y-205 Z2
G01 X596 Y-205 Z1
G01 X612 Y-205 Z1
G01 X613 Y-205 Z2
G01 X699 Y-205 Z2
G01 X699 Y-206 Z2
G01 X699 Y-207 Z2
G01 X699 Y-208 Z2
G01 X614 Y-208 Z2
G01 X613 Y-208 Z1
G01 X596 Y-208 Z1
G01 X595 Y-208 Z2
G01 X556 Y-208 Z2
G01 X555 Y-208 Z1
G01 X535 Y-208 Z1
G01 X534 Y-208 Z2
G01 X411 Y-208 Z2
G01 X410 Y-208 Z1
G01 X359 Y-208 Z1
G01 X358 Y-208 Z2
G01 X265 Y-208 Z2
G01 X264 Y-208 Z1
G01 X247 Y-208 Z1
G01 X246 Y-208 Z2
G01 X107 Y-208 Z2
G01 X106 Y-208 Z1
G01 X86 Y-208 Z1
G01 X85 Y-208 Z2
G01 X0 Y-208 Z2
G01 X0 Y-209 Z2
G01 X0 Y-210 Z2
G01 X0 Y-211 Z2
G01 X83 Y-211 Z2
G01 X84 Y-211 Z1
G01 X106 Y-211 Z1
G01 X107 Y-211 Z2
G01 X246 Y-211 Z2
G01 X247 Y-211 Z1
G01 X267 Y-211 Z1
G01 X268 Y-211 Z2
G01 X355 Y-211 Z2
G01 X356 Y-211 Z1
G01 X412 Y-211 Z1
G01 X413 Y-211 Z2
G01 X532 Y-211 Z2
G01 X533 Y-211 Z1
G01 X555 Y-211 Z1
G01 X556 Y-211 Z2
G01 X595 Y-211 Z2
G01 X596 Y-211 Z1
G01 X615 Y-211 Z1
G01 X616 Y-211 Z2
G01 X699 Y-211 Z2
G01 X699 Y-212 Z2
G01 X699 Y-213 Z2
G01 X699 Y-214 Z2
G01 X617 Y-214 Z2
G01 X616 Y-214 Z1
G01 X595 Y-214 Z1
G01 X594 Y-214 Z2
G01 X557 Y-214 Z2
G01 X556 Y-214 Z1
G01 X531 Y-214 Z1
G01 X530 Y-214 Z2
G01 X415 Y-214 Z2
G01 X414 Y-214 Z1
G01 X351 Y-214 Z1
G01 X350 Y-214 Z2
G01 X273 Y-214 Z2
G01 X272 Y-214 Z1
G01 X247 Y-214 Z1
G01 X246 Y-214 Z2
G01 X107 Y-214 Z2
G01 X106 Y-214 Z1
G01 X83 Y-214 Z1
G01 X82 Y-214 Z2
G01 X0 Y-214 Z2
G01 X0 Y-215 Z2
G01 X0 Y-216 Z2
G01 X0 Y-217 Z2
G01 X80 Y-217 Z2
G01 X81 Y-217 Z1
G01 X106 Y-217 Z1
G01 X107 Y-217 Z2
G01 X246 Y-217 Z2
G01 X247 Y-217 Z1
G01 X276 Y-217 Z1
G01 X277 Y-217 Z2
G01 X346 Y-217 Z2
G01 X347 Y-217 Z1
G01 X416 Y-217 Z1
G01 X417 Y-217 Z2
G01 X528 Y-217 Z2
G01 X529 Y-217 Z1
G01 X558 Y-217 Z1
G01 X559 Y-217 Z2
G01 X592 Y-217 Z2
G01 X593 Y-217 Z1
G01 X618 Y-217 Z1
G01 X619 Y-217 Z2
G01 X699 Y-217 Z2
G01 X699 Y-218 Z2
G01 X699 Y-219 Z2
G01 X699 Y-220 Z2
G01 X620 Y-220 Z2
G01 X619 Y-220 Z1
G01 X591 Y-220 Z1
G01 X590 Y-220 Z2
G01 X561 Y-220 Z2
G01 X560 Y-220 Z1
G01 X526 Y-220 Z1
G01 X525 Y-220 Z2
G01 X420 Y-220 Z2
G01 X419 Y-220 Z1
G01 X390 Y-220 Z1
G01 X389 Y-220 Z2
G01 X378 Y-220 Z2
G01 X377 Y-220 Z1
G01 X341 Y-220 Z1
G01 X340 Y-220 Z2
G01 X283 Y-220 Z2
G01 X282 Y-220 Z1
G01 X247 Y-220 Z1
G01 X246 Y-220 Z2
G01 X107 Y-220 Z2
G01 X106 Y-220 Z1
G01 X80 Y-220 Z1
G01 X79 Y-220 Z2
G01 X0 Y-220 Z2
G01 X0 Y-221 Z2
G01 X0 Y-222 Z2
G01 X0 Y-223 Z2
G01 X77 Y-223 Z2
G01 X78 Y-223 Z1
G01 X106 Y-223 Z1
G01 X107 Y-223 Z2
G01 X246 Y-223 Z2
G01 X247 Y-223 Z1
G01 X291 Y-223 Z1
G01 X292 Y-223 Z2
G01 X331 Y-223 Z2
G01 X332 Y-223 Z1
G01 X371 Y-223 Z1
G01 X372 Y-223 Z2
G01 X395 Y-223 Z2
G01 X396 Y-223 Z1
G01 X422 Y-223 Z1
G01 X423 Y-223 Z2
G01 X522 Y-223 Z2
G01 X523 Y-223 Z1
G01 X564 Y-223 Z1
G01 X565 Y-223 Z2
G01 X586 Y-223 Z2
G01 X587 Y-223 Z1
G01 X621 Y-223 Z1
G01 X622 Y-223 Z2
G01 X699 Y-223 Z2
G01 X699 Y-224 Z2
G01 X699 Y-225 Z2
G01 X699 Y-226 Z2
G01 X623 Y-226 Z2
G01 X622 Y-226 Z1
G01 X520 Y-226 Z1
G01 X519 Y-226 Z2
G01 X426 Y-226 Z2
G01 X425 Y-226 Z1
G01 X400 Y-226 Z1
G01 X399 Y-226 Z2
G01 X368 Y-226 Z2
G01 X367 Y-226 Z1
G01 X247 Y-226 Z1
G01 X246 Y-226 Z2
G01 X107 Y-226 Z2
G01 X106 Y-226 Z1
G01 X77 Y-226 Z1
G01 X76 Y-226 Z2
G01 X0 Y-226 Z2
G01 X0 Y-227 Z2
G01 X0 Y-228 Z2
G01 X0 Y-229 Z2
G01 X75 Y-229 Z2
G01 X76 Y-229 Z1
G01 X106 Y-229 Z1
G01 X107 Y-229 Z2
G01 X246 Y-229 Z2
G01 X247 Y-229 Z1
G01 X365 Y-229 Z1
G01 X366 Y-229 Z2
G01 X401 Y-229 Z2
G01 X402 Y-229 Z1
G01 X428 Y-229 Z1
G01 X429 Y-229 Z2
G01 X516 Y-229 Z2
G01 X517 Y-229 Z1
G01 X623 Y-229 Z1
G01 X624 Y-229 Z2
G01 X699 Y-229 Z2
G01 X699 Y-230 Z2
G01 X699 Y-231 Z2
G01 X699 Y-232 Z2
G01 X626 Y-232 Z2
G01 X625 Y-232 Z1
G01 X512 Y-232 Z1
G01 X511 Y-232 Z2
G01 X434 Y-232 Z2
G01 X433 Y-232 Z1
G01 X403 Y-232 Z1
G01 X402 Y-232 Z2
G01 X365 Y-232 Z2
G01 X364 Y-232 Z1
G01 X246 Y-232 Z1
G01 X245 Y-232 Z2
G01 X108 Y-232 Z2
G01 X107 Y-232 Z1
G01 X74 Y-232 Z1
G01 X73 Y-232 Z2
G01 X0 Y-232 Z2
G01 X0 Y-233 Z2
G01 X0 Y-234 Z2
G01 X0 Y-235 Z2
G01 X72 Y-235 Z2
G01 X73 Y-235 Z1
G01 X107 Y-235 Z1
G01 X108 Y-235 Z2
G01 X245 Y-235 Z2
G01 X246 Y-235 Z1
G01 X363 Y-235 Z1
G01 X364 Y-235 Z2
G01 X403 Y-235 Z2
G01 X404 Y-235 Z1
G01 X437 Y-235 Z1
G01 X438 Y-235 Z2
G01 X507 Y-235 Z2
G01 X508 Y-235 Z1
G01 X626 Y-235 Z1
G01 X627 Y-235 Z2
G01 X699 Y-235 Z2
G01 X699 Y-236 Z2
G01 X699 Y-237 Z2
G01 X699 Y-238 Z2
G01 X628 Y-238 Z2
G01 X627 Y-238 Z1
G01 X502 Y-238 Z1
G01 X501 Y-238 Z2
G01 X444 Y-238 Z2
G01 X443 Y-238 Z1
G01 X404 Y-238 Z1
G01 X403 Y-238 Z2
G01 X364 Y-238 Z2
G01 X363 Y-238 Z1
G01 X245 Y-238 Z1
G01 X244 Y-238 Z2
G01 X109 Y-238 Z2
G01 X108 Y-238 Z1
G01 X72 Y-238 Z1
G01 X71 Y-238 Z2
G01 X0 Y-238 Z2
G01 X0 Y-239 Z2
G01 X0 Y-240 Z2
G01 X0 Y-241 Z2
G01 X70 Y-241 Z2
G01 X71 Y-241 Z1
G01 X109 Y-241 Z1
G01 X110 Y-241 Z2
G01 X243 Y-241 Z2
G01 X244 Y-241 Z1
G01 X296 Y-241 Z1
G01 X297 Y-241 Z2
G01 X314 Y-241 Z2
G01 X315 Y-241 Z1
G01 X363 Y-241 Z1
G01 X364 Y-241 Z2
G01 X403 Y-241 Z2
G01 X404 Y-241 Z1
G01 X452 Y-241 Z1
G01 X453 Y-241 Z2
G01 X492 Y-241 Z2
G01 X493 Y-241 Z1
G01 X628 Y-241 Z1
G01 X629 Y-241 Z2
G01 X699 Y-241 Z2
G01 X699 Y-242 Z2
G01 X699 Y-243 Z2
G01 X699 Y-244 Z2
G01 X631 Y-244 Z2
G01 X630 Y-244 Z1
G01 X574 Y-244 Z1
G01 X573 Y-244 Z2
G01 X550 Y-244 Z2
G01 X549 Y-244 Z1
G01 X404 Y-244 Z1
G01 X403 Y-244 Z2
G01 X364 Y-244 Z2
G01 X363 Y-244 Z1
G01 X320 Y-244 Z1
G01 X319 Y-244 Z2
G01 X292 Y-244 Z2
G01 X291 Y-244 Z1
G01 X243 Y-244 Z1
G01 X242 Y-244 Z2
G01 X111 Y-244 Z2
G01 X110 Y-244 Z1
G01 X69 Y-244 Z1
G01 X68 Y-244 Z2
G01 X0 Y-244 Z2
G01 X0 Y-245 Z2
G01 X0 Y-246 Z2
G01 X0 Y-247 Z2
G01 X67 Y-247 Z2
G01 X68 Y-247 Z1
G01 X111 Y-247 Z1
G01 X112 Y-247 Z2
G01 X241 Y-247 Z2
G01 X242 Y-247 Z1
G01 X289 Y-247 Z1
G01 X290 Y-247 Z2
G01 X321 Y-247 Z2
G01 X322 Y-247 Z1
G01 X364 Y-247 Z1
G01 X365 Y-247 Z2
G01 X402 Y-247 Z2
G01 X403 Y-247 Z1
G01 X538 Y-247 Z1
G01 X539 Y-247 Z2
G01 X584 Y-247 Z2
G01 X585 Y-247 Z1
G01 X631 Y-247 Z1
G01 X632 Y-247 Z2
G01 X699 Y-247 Z2
G01 X699 Y-248 Z2
G01 X699 Y-249 Z2
G01 X699 Y-250 Z2
G01 X633 Y-250 Z2
G01 X632 Y-250 Z1
G01 X593 Y-250 Z1
G01 X592 Y-250 Z2
G01 X531 Y-250 Z2
G01 X530 Y-250 Z1
G01 X402 Y-250 Z1
G01 X401 Y-250 Z2
G01 X366 Y-250 Z2
G01 X365 Y-250 Z1
G01 X324 Y-250 Z1
G01 X323 Y-250 Z2
G01 X288 Y-250 Z2
G01 X287 Y-250 Z1
G01 X241 Y-250 Z1
G01 X240 Y-250 Z2
G01 X113 Y-250 Z2
G01 X112 Y-250 Z1
G01 X67 Y-250 Z1
G01 X66 Y-250 Z2
G01 X0 Y-250 Z2
G01 X0 Y-251 Z2
G01 X0 Y-252 Z2
G01 X0 Y-253 Z2
G01 X65 Y-253 Z2
G01 X66 Y-253 Z1
G01 X114 Y-253 Z1
G01 X115 Y-253 Z2
G01 X238 Y-253 Z2
G01 X239 Y-253 Z1
G01 X286 Y-253 Z1
G01 X287 Y-253 Z2
G01 X324 Y-253 Z2
G01 X325 Y-253 Z1
G01 X367 Y-253 Z1
G01 X368 Y-253 Z2
G01 X399 Y-253 Z2
G01 X400 Y-253 Z1
G01 X525 Y-253 Z1
G01 X526 Y-253 Z2
G01 X597 Y-253 Z2
G01 X598 Y-253 Z1
G01 X633 Y-253 Z1
G01 X634 Y-253 Z2
G01 X699 Y-253 Z2
G01 X699 Y-254 Z2
G01 X699 Y-255 Z2
G01 X699 Y-256 Z2
G01 X635 Y-256 Z2
G01 X634 Y-256 Z1
G01 X603 Y-256 Z1
G01 X602 Y-256 Z2
G01 X521 Y-256 Z2
G01 X520 Y-256 Z1
G01 X396 Y-256 Z1
G01 X395 Y-256 Z2
G01 X372 Y-256 Z2
G01 X371 Y-256 Z1
G01 X326 Y-256 Z1
G01 X325 Y-256 Z2
G01 X286 Y-256 Z2
G01 X285 Y-256 Z1
G01 X237 Y-256 Z1
G01 X236 Y-256 Z2
G01 X117 Y-256 Z2
G01 X116 Y-256 Z1
G01 X65 Y-256 Z1
G01 X64 Y-256 Z2
G01 X0 Y-256 Z2
G01 X0 Y-257 Z2
G01 X0 Y-258 Z2
G01 X0 Y-259 Z2
G01 X63 Y-259 Z2
G01 X64 Y-259 Z1
G01 X118 Y-259 Z1
G01 X119 Y-259 Z2
G01 X234 Y-259 Z2
G01 X235 Y-259 Z1
G01 X285 Y-259 Z1
G01 X286 Y-259 Z2
G01 X325 Y-259 Z2
G01 X326 Y-259 Z1
G01 X377 Y-259 Z1
G01 X378 Y-259 Z2
G01 X389 Y-259 Z2
G01 X390 Y-259 Z1
G01 X516 Y-259 Z1
G01 X517 Y-259 Z2
G01 X606 Y-259 Z2
G01 X607 Y-259 Z1
G01 X635 Y-259 Z1
G01 X636 Y-259 Z2
G01 X699 Y-259 Z2
G01 X699 Y-260 Z2
G01 X699 Y-261 Z2
G01 X699 Y-262 Z2
G01 X637 Y-262 Z2
G01 X636 Y-262 Z1
G01 X610 Y-262 Z1
G01 X609 Y-262 Z2
G01 X514 Y-262 Z2
G01 X513 Y-262 Z1
G01 X326 Y-262 Z1
G01 X325 Y-262 Z2
G01 X286 Y-262 Z2
G01 X285 Y-262 Z1
G01 X233 Y-262 Z1
G01 X232 Y-262 Z2
G01 X121 Y-262 Z2
G01 X120 Y-262 Z1
G01 X63 Y-262 Z1
G01 X62 Y-262 Z2
G01 X0 Y-262 Z2
G01 X0 Y-263 Z2
G01 X0 Y-264 Z2
G01 X0 Y-265 Z2
G01 X61 Y-265 Z2
G01 X62 Y-265 Z1
G01 X122 Y-265 Z1
G01 X123 Y-265 Z2
G01 X230 Y-265 Z2
G01 X231 Y-265 Z1
G01 X285 Y-265 Z1
G01 X286 Y-265 Z2
G01 X325 Y-265 Z2
G01 X326 Y-265 Z1
G01 X434 Y-265 Z1
G01 X435 Y-265 Z2
G01 X452 Y-265 Z2
G01 X453 Y-265 Z1
G01 X510 Y-265 Z1
G01 X511 Y-265 Z2
G01 X612 Y-265 Z2
G01 X613 Y-265 Z1
G01 X637 Y-265 Z1
G01 X638 Y-265 Z2
G01 X699 Y-265 Z2
G01 X699 Y-266 Z2
G01 X699 Y-267 Z2
G01 X699 Y-268 Z2
G01 X638 Y-268 Z2
G01 X637 Y-268 Z1
G01 X616 Y-268 Z1
G01 X615 Y-268 Z2
G01 X508 Y-268 Z2
G01 X507 Y-268 Z1
G01 X458 Y-268 Z1
G01 X457 Y-268 Z2
G01 X430 Y-268 Z2
G01 X429 Y-268 Z1
G01 X325 Y-268 Z1
G01 X324 Y-268 Z2
G01 X287 Y-268 Z2
G01 X286 Y-268 Z1
G01 X228 Y-268 Z1
G01 X227 Y-268 Z2
G01 X126 Y-268 Z2
G01 X125 Y-268 Z1
G01 X62 Y-268 Z1
G01 X61 Y-268 Z2
G01 X0 Y-268 Z2
G01 X0 Y-269 Z2
G01 X0 Y-270 Z2
G01 X0 Y-271 Z2
G01 X60 Y-271 Z2
G01 X61 Y-271 Z1
G01 X128 Y-271 Z1
G01 X129 Y-271 Z2
G01 X224 Y-271 Z2
G01 X225 Y-271 Z1
G01 X288 Y-271 Z1
G01 X289 Y-271 Z2
G01 X322 Y-271 Z2
G01 X323 Y-271 Z1
G01 X427 Y-271 Z1
G01 X428 Y-271 Z2
G01 X459 Y-271 Z2
G01 X460 Y-271 Z1
G01 X505 Y-271 Z1
G01 X506 Y-271 Z2
G01 X617 Y-271 Z2
G01 X618 Y-271 Z1
G01 X638 Y-271 Z1
G01 X639 Y-271 Z2
G01 X699 Y-271 Z2
G01 X699 Y-272 Z2
G01 X699 Y-273 Z2
G01 X699 Y-274 Z2
G01 X640 Y-274 Z2
G01 X639 Y-274 Z1
G01 X620 Y-274 Z1
G01 X619 Y-274 Z2
G01 X504 Y-274 Z2
G01 X503 Y-274 Z1
G01 X462 Y-274 Z1
G01 X461 Y-274 Z2
G01 X426 Y-274 Z2
G01 X425 Y-274 Z1
G01 X321 Y-274 Z1
G01 X320 Y-274 Z2
G01 X291 Y-274 Z2
G01 X290 Y-274 Z1
G01 X222 Y-274 Z1
G01 X221 Y-274 Z2
G01 X132 Y-274 Z2
G01 X131 Y-274 Z1
G01 X99 Y-274 Z1
G01 X98 Y-274 Z2
G01 X77 Y-274 Z2
G01 X76 Y-274 Z1
G01 X60 Y-274 Z1
G01 X59 Y-274 Z2
G01 X0 Y-274 Z2
G01 X0 Y-275 Z2
G01 X0 Y-276 Z2
G01 X0 Y-277 Z2
G01 X58 Y-277 Z2
G01 X59 Y-277 Z1
G01 X72 Y-277 Z1
G01 X73 Y-277 Z2
G01 X102 Y-277 Z2
G01 X103 Y-277 Z1
G01 X135 Y-277 Z1
G01 X136 Y-277 Z2
G01 X217 Y-277 Z2
G01 X218 Y-277 Z1
G01 X294 Y-277 Z1
G01 X295 Y-277 Z2
G01 X316 Y-277 Z2
G01 X317 Y-277 Z1
G01 X424 Y-277 Z1
G01 X425 Y-277 Z2
G01 X462 Y-277 Z2
G01 X463 Y-277 Z1
G01 X501 Y-277 Z1
G01 X502 Y-277 Z2
G01 X621 Y-277 Z2
G01 X622 Y-277 Z1
G01 X640 Y-277 Z1
G01 X641 Y-277 Z2
G01 X699 Y-277 Z2
G01 X699 Y-278 Z2
G01 X699 Y-279 Z2
G01 X699 Y-280 Z2
G01 X642 Y-280 Z2
G01 X641 Y-280 Z1
G01 X624 Y-280 Z1
G01 X623 Y-280 Z2
G01 X500 Y-280 Z2
G01 X499 Y-280 Z1
G01 X464 Y-280 Z1
G01 X463 Y-280 Z2
G01 X424 Y-280 Z2
G01 X423 Y-280 Z1
G01 X378 Y-280 Z1
G01 X377 Y-280 Z2
G01 X338 Y-280 Z2
G01 X337 Y-280 Z1
G01 X213 Y-280 Z1
G01 X212 Y-280 Z2
G01 X141 Y-280 Z2
G01 X140 Y-280 Z1
G01 X105 Y-280 Z1
G01 X104 Y-280 Z2
G01 X71 Y-280 Z2
G01 X70 Y-280 Z1
G01 X58 Y-280 Z1
G01 X57 Y-280 Z2
G01 X0 Y-280 Z2
G01 X0 Y-281 Z2
G01 X0 Y-282 Z2
G01 X0 Y-283 Z2
G01 X57 Y-283 Z2
G01 X58 Y-283 Z1
G01 X68 Y-283 Z1
G01 X69 Y-283 Z2
G01 X106 Y-283 Z2
G01 X107 Y-283 Z1
G01 X145 Y-283 Z1
G01 X146 Y-283 Z2
G01 X207 Y-283 Z2
G01 X208 Y-283 Z1
G01 X328 Y-283 Z1
G01 X329 Y-283 Z2
G01 X386 Y-283 Z2
G01 X387 Y-283 Z1
G01 X423 Y-283 Z1
G01 X424 Y-283 Z2
G01 X463 Y-283 Z2
G01 X464 Y-283 Z1
G01 X497 Y-283 Z1
G01 X498 Y-283 Z2
G01 X625 Y-283 Z2
G01 X626 Y-283 Z1
G01 X641 Y-283 Z1
G01 X642 Y-283 Z2
G01 X699 Y-283 Z2
G01 X699 Y-284 Z2
G01 X699 Y-285 Z2
G01 X699 Y-286 Z2
G01 X643 Y-286 Z2
G01 X642 Y-286 Z1
G01 X627 Y-286 Z1
G01 X626 Y-286 Z2
G01 X497 Y-286 Z2
G01 X496 Y-286 Z1
G01 X464 Y-286 Z1
G01 X463 Y-286 Z2
G01 X424 Y-286 Z2
G01 X423 Y-286 Z1
G01 X393 Y-286 Z1
G01 X392 Y-286 Z2
G01 X323 Y-286 Z2
G01 X322 Y-286 Z1
G01 X260 Y-286 Z1
G01 X259 Y-286 Z2
G01 X242 Y-286 Z2
G01 X241 Y-286 Z1
G01 X200 Y-286 Z1
G01 X199 Y-286 Z2
G01 X154 Y-286 Z2
G01 X153 Y-286 Z1
G01 X108 Y-286 Z1
G01 X107 Y-286 Z2
G01 X68 Y-286 Z2
G01 X67 Y-286 Z1
G01 X57 Y-286 Z1
G01 X56 Y-286 Z2
G01 X0 Y-286 Z2
G01 X0 Y-287 Z2
G01 X0 Y-288 Z2
G01 X0 Y-289 Z2
G01 X55 Y-289 Z2
G01 X56 Y-289 Z1
G01 X67 Y-289 Z1
G01 X68 Y-289 Z2
G01 X107 Y-289 Z2
G01 X108 Y-289 Z1
G01 X164 Y-289 Z1
G01 X165 Y-289 Z2
G01 X188 Y-289 Z2
G01 X189 Y-289 Z1
G01 X236 Y-289 Z1
G01 X237 Y-289 Z2
G01 X264 Y-289 Z2
G01 X265 Y-289 Z1
G01 X318 Y-289 Z1
G01 X319 Y-289 Z2
G01 X396 Y-289 Z2
G01 X397 Y-289 Z1
G01 X423 Y-289 Z1
G01 X424 Y-289 Z2
G01 X463 Y-289 Z2
G01 X464 Y-289 Z1
G01 X495 Y-289 Z1
G01 X496 Y-289 Z2
G01 X627 Y-289 Z2
G01 X628 Y-289 Z1
G01 X643 Y-289 Z1
G01 X644 Y-289 Z2
G01 X699 Y-289 Z2
G01 X699 Y-290 Z2
G01 X699 Y-291 Z2
G01 X699 Y-292 Z2
G01 X644 Y-292 Z2
G01 X643 Y-292 Z1
G01 X629 Y-292 Z1
G01 X628 Y-292 Z2
G01 X495 Y-292 Z2
G01 X494 Y-292 Z1
G01 X463 Y-292 Z1
G01 X462 Y-292 Z2
G01 X425 Y-292 Z2
G01 X424 Y-292 Z1
G01 X402 Y-292 Z1
G01 X401 Y-292 Z2
G01 X314 Y-292 Z2
G01 X313 Y-292 Z1
G01 X267 Y-292 Z1
G01 X266 Y-292 Z2
G01 X235 Y-292 Z2
G01 X234 Y-292 Z1
G01 X108 Y-292 Z1
G01 X107 Y-292 Z2
G01 X68 Y-292 Z2
G01 X67 Y-292 Z1
G01 X56 Y-292 Z1
G01 X55 Y-292 Z2
G01 X0 Y-292 Z2
G01 X0 Y-293 Z2
G01 X0 Y-294 Z2
G01 X0 Y-295 Z2
G01 X54 Y-295 Z2
G01 X55 Y-295 Z1
G01 X67 Y-295 Z1
G01 X68 Y-295 Z2
G01 X107 Y-295 Z2
G01 X108 Y-295 Z1
G01 X232 Y-295 Z1
G01 X233 Y-295 Z2
G01 X268 Y-295 Z2
G01 X269 Y-295 Z1
G01 X310 Y-295 Z1
G01 X311 Y-295 Z2
G01 X404 Y-295 Z2
G01 X405 Y-295 Z1
G01 X426 Y-295 Z1
G01 X427 Y-295 Z2
G01 X460 Y-295 Z2
G01 X461 Y-295 Z1
G01 X493 Y-295 Z1
G01 X494 Y-295 Z2
G01 X629 Y-295 Z2
G01 X630 Y-295 Z1
G01 X644 Y-295 Z1
G01 X645 Y-295 Z2
G01 X699 Y-295 Z2
G01 X699 Y-296 Z2
G01 X699 Y-297 Z2
G01 X699 Y-298 Z2
G01 X645 Y-298 Z2
G01 X644 Y-298 Z1
G01 X631 Y-298 Z1
G01 X630 Y-298 Z2
G01 X493 Y-298 Z2
G01 X492 Y-298 Z1
G01 X459 Y-298 Z1
G01 X458 Y-298 Z2
G01 X429 Y-298 Z2
G01 X428 Y-298 Z1
G01 X408 Y-298 Z1
G01 X407 Y-298 Z2
G01 X308 Y-298 Z2
G01 X307 Y-298 Z1
G01 X270 Y-298 Z1
G01 X269 Y-298 Z2
G01 X232 Y-298 Z2
G01 X231 Y-298 Z1
G01 X107 Y-298 Z1
G01 X106 Y-298 Z2
G01 X69 Y-298 Z2
G01 X68 Y-298 Z1
G01 X55 Y-298 Z1
G01 X54 Y-298 Z2
G01 X0 Y-298 Z2
G01 X0 Y-299 Z2
G01 X0 Y-300 Z2
G01 X0 Y-301 Z2
G01 X53 Y-301 Z2
G01 X54 Y-301 Z1
G01 X69 Y-301 Z1
G01 X70 Y-301 Z2
G01 X105 Y-301 Z2
G01 X106 Y-301 Z1
G01 X230 Y-301 Z1
G01 X231 Y-301 Z2
G01 X270 Y-301 Z2
G01 X271 Y-301 Z1
G01 X304 Y-301 Z1
G01 X305 Y-301 Z2
G01 X410 Y-301 Z2
G01 X411 Y-301 Z1
G01 X432 Y-301 Z1
G01 X433 Y-301 Z2
G01 X454 Y-301 Z2
G01 X455 Y-301 Z1
G01 X492 Y-301 Z1
G01 X493 Y-301 Z2
G01 X630 Y-301 Z2
G01 X631 Y-301 Z1
G01 X645 Y-301 Z1
G01 X646 Y-301 Z2
G01 X699 Y-301 Z2
G01 X699 Y-302 Z2
G01 X699 Y-303 Z2
G01 X699 Y-304 Z2
G01 X646 Y-304 Z2
G01 X645 Y-304 Z1
G01 X632 Y-304 Z1
G01 X631 Y-304 Z2
G01 X492 Y-304 Z2
G01 X491 Y-304 Z1
G01 X414 Y-304 Z1
G01 X413 Y-304 Z2
G01 X302 Y-304 Z2
G01 X301 Y-304 Z1
G01 X271 Y-304 Z1
G01 X270 Y-304 Z2
G01 X231 Y-304 Z2
G01 X230 Y-304 Z1
G01 X104 Y-304 Z1
G01 X103 Y-304 Z2
G01 X72 Y-304 Z2
G01 X71 Y-304 Z1
G01 X54 Y-304 Z1
G01 X53 Y-304 Z2
G01 X0 Y-304 Z2
G01 X0 Y-305 Z2
G01 X0 Y-306 Z2
G01 X0 Y-307 Z2
G01 X52 Y-307 Z2
G01 X53 Y-307 Z1
G01 X73 Y-307 Z1
G01 X74 Y-307 Z2
G01 X101 Y-307 Z2
G01 X102 Y-307 Z1
G01 X135 Y-307 Z1
G01 X136 Y-307 Z2
G01 X159 Y-307 Z2
G01 X160 Y-307 Z1
G01 X230 Y-307 Z1
G01 X231 Y-307 Z2
G01 X270 Y-307 Z2
G01 X271 Y-307 Z1
G01 X299 Y-307 Z1
G01 X300 Y-307 Z2
G01 X415 Y-307 Z2
G01 X416 Y-307 Z1
G01 X491 Y-307 Z1
G01 X492 Y-307 Z2
G01 X631 Y-307 Z2
G01 X632 Y-307 Z1
G01 X646 Y-307 Z1
G01 X647 Y-307 Z2
G01 X699 Y-307 Z2
G01 X699 Y-308 Z2
G01 X699 Y-309 Z2
G01 X699 Y-310 Z2
G01 X647 Y-310 Z2
G01 X646 Y-310 Z1
G01 X632 Y-310 Z1
G01 X631 Y-310 Z2
G01 X492 Y-310 Z2
G01 X491 Y-310 Z1
G01 X418 Y-310 Z1
G01 X417 Y-310 Z2
G01 X298 Y-310 Z2
G01 X297 Y-310 Z1
G01 X271 Y-310 Z1
G01 X270 Y-310 Z2
G01 X231 Y-310 Z2
G01 X230 Y-310 Z1
G01 X171 Y-310 Z1
G01 X170 Y-310 Z2
G01 X125 Y-310 Z2
G01 X124 Y-310 Z1
G01 X97 Y-310 Z1
G01 X96 Y-310 Z2
G01 X79 Y-310 Z2
G01 X78 Y-310 Z1
G01 X53 Y-310 Z1
G01 X52 Y-310 Z2
G01 X0 Y-310 Z2
G01 X0 Y-311 Z2
G01 X0 Y-312 Z2
G01 X0 Y-313 Z2
G01 X51 Y-313 Z2
G01 X52 Y-313 Z1
G01 X116 Y-313 Z1
G01 X117 Y-313 Z2
G01 X178 Y-313 Z2
G01 X179 Y-313 Z1
G01 X231 Y-313 Z1
G01 X232 Y-313 Z2
G01 X269 Y-313 Z2
G01 X270 Y-313 Z1
G01 X295 Y-313 Z1
G01 X296 Y-313 Z2
G01 X419 Y-313 Z2
G01 X420 Y-313 Z1
G01 X491 Y-313 Z1
G01 X492 Y-313 Z2
G01 X631 Y-313 Z2
G01 X632 Y-313 Z1
G01 X647 Y-313 Z1
G01 X648 Y-313 Z2
G01 X699 Y-313 Z2
G01 X699 Y-314 Z2
G01 X699 Y-315 Z2
G01 X699 Y-316 Z2
G01 X648 Y-316 Z2
G01 X647 Y-316 Z1
G01 X632 Y-316 Z1
G01 X631 Y-316 Z2
G01 X492 Y-316 Z2
G01 X491 Y-316 Z1
G01 X421 Y-316 Z1
G01 X420 Y-316 Z2
G01 X295 Y-316 Z2
G01 X294 Y-316 Z1
G01 X268 Y-316 Z1
G01 X267 Y-316 Z2
G01 X234 Y-316 Z2
G01 X233 Y-316 Z1
G01 X184 Y-316 Z1
G01 X183 Y-316 Z2
G01 X112 Y-316 Z2
G01 X111 Y-316 Z1
G01 X52 Y-316 Z1
G01 X51 Y-316 Z2
G01 X0 Y-316 Z2
G01 X0 Y-317 Z2
G01 X0 Y-318 Z2
G01 X0 Y-319 Z2
G01 X51 Y-319 Z2
G01 X52 Y-319 Z1
G01 X106 Y-319 Z1
G01 X107 Y-319 Z2
G01 X188 Y-319 Z2
G01 X189 Y-319 Z1
G01 X235 Y-319 Z1
G01 X236 Y-319 Z2
G01 X265 Y-319 Z2
G01 X266 Y-319 Z1
G01 X292 Y-319 Z1
G01 X293 Y-319 Z2
G01 X422 Y-319 Z2
G01 X423 Y-319 Z1
G01 X491 Y-319 Z1
G01 X492 Y-319 Z2
G01 X631 Y-319 Z2
G01 X632 Y-319 Z1
G01 X647 Y-319 Z1
G01 X648 Y-319 Z2
G01 X699 Y-319 Z2
G01 X699 Y-320 Z2
G01 X699 Y-321 Z2
G01 X699 Y-322 Z2
G01 X649 Y-322 Z2
G01 X648 Y-322 Z1
G01 X632 Y-322 Z1
G01 X631 Y-322 Z2
G01 X492 Y-322 Z2
G01 X491 Y-322 Z1
G01 X424 Y-322 Z1
G01 X423 Y-322 Z2
G01 X292 Y-322 Z2
G01 X291 Y-322 Z1
G01 X262 Y-322 Z1
G01 X261 Y-322 Z2
G01 X240 Y-322 Z2
G01 X239 Y-322 Z1
G01 X193 Y-322 Z1
G01 X192 Y-322 Z2
G01 X103 Y-322 Z2
G01 X102 Y-322 Z1
G01 X51 Y-322 Z1
G01 X50 Y-322 Z2
G01 X0 Y-322 Z2
G01 X0 Y-323 Z2
G01 X0 Y-324 Z2
G01 X0 Y-325 Z2
G01 X50 Y-325 Z2
G01 X51 Y-325 Z1
G01 X99 Y-325 Z1
G01 X100 Y-325 Z2
G01 X195 Y-325 Z2
G01 X196 Y-325 Z1
G01 X290 Y-325 Z1
G01 X291 Y-325 Z2
G01 X424 Y-325 Z2
G01 X425 Y-325 Z1
G01 X491 Y-325 Z1
G01 X492 Y-325 Z2
G01 X631 Y-325 Z2
G01 X632 Y-325 Z1
G01 X648 Y-325 Z1
G01 X649 Y-325 Z2
G01 X699 Y-325 Z2
G01 X699 Y-326 Z2
G01 X699 Y-327 Z2
G01 X699 Y-328 Z2
G01 X649 Y-328 Z2
G01 X648 Y-328 Z1
G01 X631 Y-328 Z1
G01 X630 Y-328 Z2
G01 X493 Y-328 Z2
G01 X492 Y-328 Z1
G01 X426 Y-328 Z1
G01 X425 Y-328 Z2
G01 X290 Y-328 Z2
G01 X289 Y-328 Z1
G01 X199 Y-328 Z1
G01 X198 Y-328 Z2
G01 X97 Y-328 Z2
G01 X96 Y-328 Z1
G01 X51 Y-328 Z1
G01 X50 Y-328 Z2
G01 X0 Y-328 Z2
G01 X0 Y-329 Z2
G01 X0 Y-330 Z2
G01 X0 Y-331 Z2
G01 X50 Y-331 Z2
G01 X51 Y-331 Z1
G01 X93 Y-331 Z1
G01 X94 Y-331 Z2
G01 X201 Y-331 Z2
G01 X202 Y-331 Z1
G01 X288 Y-331 Z1
G01 X289 Y-331 Z2
G01 X426 Y-331 Z2
G01 X427 Y-331 Z1
G01 X493 Y-331 Z1
G01 X494 Y-331 Z2
G01 X629 Y-331 Z2
G01 X630 Y-331 Z1
G01 X648 Y-331 Z1
G01 X649 Y-331 Z2
G01 X699 Y-331 Z2
G01 X699 Y-332 Z2
G01 X699 Y-333 Z2
G01 X699 Y-334 Z2
G01 X649 Y-334 Z2
G01 X648 Y-334 Z1
G01 X629 Y-334 Z1
G01 X628 Y-334 Z2
G01 X495 Y-334 Z2
G01 X494 Y-334 Z1
G01 X469 Y-334 Z1
G01 X468 Y-334 Z2
G01 X457 Y-334 Z2
G01 X456 Y-334 Z1
G01 X427 Y-334 Z1
G01 X426 Y-334 Z2
G01 X289 Y-334 Z2
G01 X288 Y-334 Z1
G01 X204 Y-334 Z1
G01 X203 Y-334 Z2
G01 X92 Y-334 Z2
G01 X91 Y-334 Z1
G01 X51 Y-334 Z1
G01 X50 Y-334 Z2
G01 X0 Y-334 Z2
G01 X0 Y-335 Z2
G01 X0 Y-336 Z2
G01 X0 Y-337 Z2
G01 X49 Y-337 Z2
G01 X50 Y-337 Z1
G01 X89 Y-337 Z1
G01 X90 Y-337 Z2
G01 X205 Y-337 Z2
G01 X206 Y-337 Z1
G01 X287 Y-337 Z1
G01 X288 Y-337 Z2
G01 X427 Y-337 Z2
G01 X428 Y-337 Z1
G01 X450 Y-337 Z1
G01 X451 Y-337 Z2
G01 X474 Y-337 Z2
G01 X475 Y-337 Z1
G01 X495 Y-337 Z1
G01 X496 Y-337 Z2
G01 X627 Y-337 Z2
G01 X628 Y-337 Z1
G01 X649 Y-337 Z1
G01 X650 Y-337 Z2
G01 X699 Y-337 Z2
G01 X699 Y-338 Z2
G01 X699 Y-339 Z2
G01 X699 Y-340 Z2
G01 X650 Y-340 Z2
G01 X649 Y-340 Z1
G01 X627 Y-340 Z1
G01 X626 Y-340 Z2
G01 X497 Y-340 Z2
G01 X496 Y-340 Z1
G01 X479 Y-340 Z1
G01 X478 Y-340 Z2
G01 X447 Y-340 Z2
G01 X446 Y-340 Z1
G01 X428 Y-340 Z1
G01 X427 Y-340 Z2
G01 X288 Y-340 Z2
G01 X287 Y-340 Z1
G01 X208 Y-340 Z1
G01 X207 Y-340 Z2
G01 X88 Y-340 Z2
G01 X87 Y-340 Z1
G01 X50 Y-340 Z1
G01 X49 Y-340 Z2
G01 X0 Y-340 Z2
G01 X0 Y-341 Z2
G01 X0 Y-342 Z2
G01 X0 Y-343 Z2
G01 X49 Y-343 Z2
G01 X50 Y-343 Z1
G01 X85 Y-343 Z1
G01 X86 Y-343 Z2
G01 X209 Y-343 Z2
G01 X210 Y-343 Z1
G01 X287 Y-343 Z1
G01 X288 Y-343 Z2
G01 X427 Y-343 Z2
G01 X428 Y-343 Z1
G01 X444 Y-343 Z1
G01 X445 Y-343 Z2
G01 X480 Y-343 Z2
G01 X481 Y-343 Z1
G01 X497 Y-343 Z1
G01 X498 Y-343 Z2
G01 X625 Y-343 Z2
G01 X626 Y-343 Z1
G01 X649 Y-343 Z1
G01 X650 Y-343 Z2
G01 X699 Y-343 Z2
G01 X699 Y-344 Z2
G01 X699 Y-345 Z2
G01 X699 Y-346 Z2
G01 X650 Y-346 Z2
G01 X649 Y-346 Z1
G01 X625 Y-346 Z1
G01 X624 Y-346 Z2
G01 X499 Y-346 Z2
G01 X498 Y-346 Z1
G01 X482 Y-346 Z1
G01 X481 Y-346 Z2
G01 X444 Y-346 Z2
G01 X443 Y-346 Z1
G01 X428 Y-346 Z1
G01 X427 Y-346 Z2
G01 X288 Y-346 Z2
G01 X287 Y-346 Z1
G01 X212 Y-346 Z1
G01 X211 Y-346 Z2
G01 X84 Y-346 Z2
G01 X83 Y-346 Z1
G01 X50 Y-346 Z1
G01 X49 Y-346 Z2
G01 X0 Y-346 Z2
G01 X0 Y-347 Z2
G01 X0 Y-348 Z2
G01 X0 Y-349 Z2
G01 X49 Y-349 Z2
G01 X50 Y-349 Z1
G01 X82 Y-349 Z1
G01 X83 Y-349 Z2
G01 X212 Y-349 Z2
G01 X213 Y-349 Z1
G01 X287 Y-349 Z1
G01 X288 Y-349 Z2
G01 X427 Y-349 Z2
G01 X428 Y-349 Z1
G01 X442 Y-349 Z1
G01 X443 Y-349 Z2
G01 X482 Y-349 Z2
G01 X483 Y-349 Z1
G01 X500 Y-349 Z1
G01 X501 Y-349 Z2
G01 X622 Y-349 Z2
G01 X623 Y-349 Z1
G01 X649 Y-349 Z1
G01 X650 Y-349 Z2
G01 X699 Y-349 Z2
G01 X699 Y-350 Z2
G01 X699 Y-351 Z2
G01 X699 Y-352 Z2
G01 X650 Y-352 Z2
G01 X649 Y-352 Z1
G01 X621 Y-352 Z1
G01 X620 Y-352 Z2
G01 X503 Y-352 Z2
G01 X502 Y-352 Z1
G01 X483 Y-352 Z1
G01 X482 Y-352 Z2
G01 X443 Y-352 Z2
G01 X442 Y-352 Z1
G01 X428 Y-352 Z1
G01 X427 Y-352 Z2
G01 X288 Y-352 Z2
G01 X287 Y-352 Z1
G01 X214 Y-352 Z1
G01 X213 Y-352 Z2
G01 X82 Y-352 Z2
G01 X81 Y-352 Z1
G01 X50 Y-352 Z1
G01 X49 Y-352 Z2
G01 X0 Y-352 Z2
G01 X0 Y-353 Z2
G01 X0 Y-354 Z2
G01 X0 Y-355 Z2
G01 X49 Y-355 Z2
G01 X50 Y-355 Z1
G01 X80 Y-355 Z1
G01 X81 Y-355 Z2
G01 X214 Y-355 Z2
G01 X215 Y-355 Z1
G01 X287 Y-355 Z1
G01 X288 Y-355 Z2
G01 X427 Y-355 Z2
G01 X428 Y-355 Z1
G01 X442 Y-355 Z1
G01 X443 Y-355 Z2
G01 X482 Y-355 Z2
G01 X483 Y-355 Z1
G01 X504 Y-355 Z1
G01 X505 Y-355 Z2
G01 X618 Y-355 Z2
G01 X619 Y-355 Z1
G01 X649 Y-355 Z1
G01 X650 Y-355 Z2
G01 X699 Y-355 Z2
G01 X699 Y-356 Z2
G01 X699 Y-357 Z2
G01 X699 Y-358 Z2
G01 X650 Y-358 Z2
G01 X649 Y-358 Z1
G01 X617 Y-358 Z1
G01 X616 Y-358 Z2
G01 X507 Y-358 Z2
G01 X506 Y-358 Z1
G01 X483 Y-358 Z1
G01 X482 Y-358 Z2
G01 X443 Y-358 Z2
G01 X442 Y-358 Z1
G01 X428 Y-358 Z1
G01 X427 Y-358 Z2
G01 X288 Y-358 Z2
G01 X287 Y-358 Z1
G01 X261 Y-358 Z1
G01 X260 Y-358 Z2
G01 X243 Y-358 Z2
G01 X242 Y-358 Z1
G01 X216 Y-358 Z1
G01 X215 Y-358 Z2
G01 X80 Y-358 Z2
G01 X79 Y-358 Z1
G01 X50 Y-358 Z1
G01 X49 Y-358 Z2
G01 X0 Y-358 Z2
G01 X0 Y-359 Z2
G01 X0 Y-360 Z2
G01 X0 Y-361 Z2
G01 X49 Y-361 Z2
G01 X50 Y-361 Z1
G01 X78 Y-361 Z1
G01 X79 Y-361 Z2
G01 X216 Y-361 Z2
G01 X217 Y-361 Z1
G01 X237 Y-361 Z1
G01 X238 Y-361 Z2
G01 X265 Y-361 Z2
G01 X266 Y-361 Z1
G01 X288 Y-361 Z1
G01 X289 Y-361 Z2
G01 X426 Y-361 Z2
G01 X427 Y-361 Z1
G01 X443 Y-361 Z1
G01 X444 Y-361 Z2
G01 X481 Y-361 Z2
G01 X482 Y-361 Z1
G01 X509 Y-361 Z1
G01 X510 Y-361 Z2
G01 X613 Y-361 Z2
G01 X614 Y-361 Z1
G01 X649 Y-361 Z1
G01 X650 Y-361 Z2
G01 X699 Y-361 Z2
G01 X699 Y-362 Z2
G01 X699 Y-363 Z2
G01 X699 Y-364 Z2
G01 X650 Y-364 Z2
G01 X649 Y-364 Z1
G01 X611 Y-364 Z1
G01 X610 Y-364 Z2
G01 X513 Y-364 Z2
G01 X512 Y-364 Z1
G01 X481 Y-364 Z1
G01 X480 Y-364 Z2
G01 X445 Y-364 Z2
G01 X444 Y-364 Z1
G01 X427 Y-364 Z1
G01 X426 Y-364 Z2
G01 X289 Y-364 Z2
G01 X288 Y-364 Z1
G01 X268 Y-364 Z1
G01 X267 Y-364 Z2
G01 X236 Y-364 Z2
G01 X235 Y-364 Z1
G01 X217 Y-364 Z1
G01 X216 Y-364 Z2
G01 X79 Y-364 Z2
G01 X78 Y-364 Z1
G01 X50 Y-364 Z1
G01 X49 Y-364 Z2
G01 X0 Y-364 Z2
G01 X0 Y-365 Z2
G01 X0 Y-366 Z2
G01 X0 Y-367 Z2
G01 X50 Y-367 Z2
G01 X51 Y-367 Z1
G01 X77 Y-367 Z1
G01 X78 Y-367 Z2
G01 X217 Y-367 Z2
G01 X218 Y-367 Z1
G01 X233 Y-367 Z1
G01 X234 Y-367 Z2
G01 X269 Y-367 Z2
G01 X270 Y-367 Z1
G01 X289 Y-367 Z1
G01 X290 Y-367 Z2
G01 X425 Y-367 Z2
G01 X426 Y-367 Z1
G01 X446 Y-367 Z1
G01 X447 Y-367 Z2
G01 X478 Y-367 Z2
G01 X479 Y-367 Z1
G01 X515 Y-367 Z1
G01 X516 Y-367 Z2
G01 X607 Y-367 Z2
G01 X608 Y-367 Z1
G01 X648 Y-367 Z1
G01 X649 Y-367 Z2
G01 X699 Y-367 Z2
G01 X699 Y-368 Z2
G01 X699 Y-369 Z2
G01 X699 Y-370 Z2
G01 X649 Y-370 Z2
G01 X648 Y-370 Z1
G01 X604 Y-370 Z1
G01 X603 Y-370 Z2
G01 X520 Y-370 Z2
G01 X519 Y-370 Z1
G01 X475 Y-370 Z1
G01 X474 Y-370 Z2
G01 X451 Y-370 Z2
G01 X450 Y-370 Z1
G01 X425 Y-370 Z1
G01 X424 Y-370 Z2
G01 X291 Y-370 Z2
G01 X290 Y-370 Z1
G01 X271 Y-370 Z1
G01 X270 Y-370 Z2
G01 X233 Y-370 Z2
G01 X232 Y-370 Z1
G01 X218 Y-370 Z1
G01 X217 Y-370 Z2
G01 X78 Y-370 Z2
G01 X77 Y-370 Z1
G01 X51 Y-370 Z1
G01 X50 Y-370 Z2
G01 X0 Y-370 Z2
G01 X0 Y-371 Z2
G01 X0 Y-372 Z2
G01 X0 Y-373 Z2
G01 X50 Y-373 Z2
G01 X51 Y-373 Z1
G01 X77 Y-373 Z1
G01 X78 Y-373 Z2
G01 X217 Y-373 Z2
G01 X218 Y-373 Z1
G01 X231 Y-373 Z1
G01 X232 Y-373 Z2
G01 X271 Y-373 Z2
G01 X272 Y-373 Z1
G01 X291 Y-373 Z1
G01 X292 Y-373 Z2
G01 X423 Y-373 Z2
G01 X424 Y-373 Z1
G01 X456 Y-373 Z1
G01 X457 Y-373 Z2
G01 X468 Y-373 Z2
G01 X469 Y-373 Z1
G01 X523 Y-373 Z1
G01 X524 Y-373 Z2
G01 X599 Y-373 Z2
G01 X600 Y-373 Z1
G01 X648 Y-373 Z1
G01 X649 Y-373 Z2
G01 X699 Y-373 Z2
G01 X699 Y-374 Z2
G01 X699 Y-375 Z2
G01 X699 Y-376 Z2
G01 X649 Y-376 Z2
G01 X648 Y-376 Z1
G01 X595 Y-376 Z1
G01 X594 Y-376 Z2
G01 X529 Y-376 Z2
G01 X528 Y-376 Z1
G01 X423 Y-376 Z1
G01 X422 Y-376 Z2
G01 X293 Y-376 Z2
G01 X292 Y-376 Z1
G01 X272 Y-376 Z1
G01 X271 Y-376 Z2
G01 X232 Y-376 Z2
G01 X231 Y-376 Z1
G01 X218 Y-376 Z1
G01 X217 Y-376 Z2
G01 X78 Y-376 Z2
G01 X77 Y-376 Z1
G01 X51 Y-376 Z1
G01 X50 Y-376 Z2
G01 X0 Y-376 Z2
G01 X0 Y-377 Z2
G01 X0 Y-378 Z2
G01 X0 Y-379 Z2
G01 X51 Y-379 Z2
G01 X52 Y-379 Z1
G01 X77 Y-379 Z1
G01 X78 Y-379 Z2
G01 X217 Y-379 Z2
G01 X218 Y-379 Z1
G01 X231 Y-379 Z1
G01 X232 Y-379 Z2
G01 X271 Y-379 Z2
G01 X272 Y-379 Z1
G01 X294 Y-379 Z1
G01 X295 Y-379 Z2
G01 X420 Y-379 Z2
G01 X421 Y-379 Z1
G01 X535 Y-379 Z1
G01 X536 Y-379 Z2
G01 X587 Y-379 Z2
G01 X588 Y-379 Z1
G01 X647 Y-379 Z1
G01 X648 Y-379 Z2
G01 X699 Y-379 Z2
G01 X699 Y-380 Z2
G01 X699 Y-381 Z2
G01 X699 Y-382 Z2
G01 X648 Y-382 Z2
G01 X647 Y-382 Z1
G01 X579 Y-382 Z1
G01 X578 Y-382 Z2
G01 X545 Y-382 Z2
G01 X544 Y-382 Z1
G01 X420 Y-382 Z1
G01 X419 Y-382 Z2
G01 X296 Y-382 Z2
G01 X295 Y-382 Z1
G01 X272 Y-382 Z1
G01 X271 Y-382 Z2
G01 X232 Y-382 Z2
G01 X231 Y-382 Z1
G01 X218 Y-382 Z1
G01 X217 Y-382 Z2
G01 X78 Y-382 Z2
G01 X77 Y-382 Z1
G01 X52 Y-382 Z1
G01 X51 Y-382 Z2
G01 X0 Y-382 Z2
G01 X0 Y-383 Z2
G01 X0 Y-384 Z2
G01 X0 Y-385 Z2
G01 X51 Y-385 Z2
G01 X52 Y-385 Z1
G01 X77 Y-385 Z1
G01 X78 Y-385 Z2
G01 X217 Y-385 Z2
G01 X218 Y-385 Z1
G01 X232 Y-385 Z1
G01 X233 Y-385 Z2
G01 X270 Y-385 Z2
G01 X271 Y-385 Z1
G01 X297 Y-385 Z1
G01 X298 Y-385 Z2
G01 X417 Y-385 Z2
G01 X418 Y-385 Z1
G01 X647 Y-385 Z1
G01 X648 Y-385 Z2
G01 X699 Y-385 Z2
G01 X699 Y-386 Z2
G01 X699 Y-387 Z2
G01 X699 Y-388 Z2
G01 X647 Y-388 Z2
G01 X646 Y-388 Z1
G01 X416 Y-388 Z1
G01 X415 Y-388 Z2
G01 X300 Y-388 Z2
G01 X299 Y-388 Z1
G01 X269 Y-388 Z1
G01 X268 Y-388 Z2
G01 X235 Y-388 Z2
G01 X234 Y-388 Z1
G01 X218 Y-388 Z1
G01 X217 Y-388 Z2
G01 X78 Y-388 Z2
G01 X77 Y-388 Z1
G01 X53 Y-388 Z1
G01 X52 Y-388 Z2
G01 X0 Y-388 Z2
G01 X0 Y-389 Z2
G01 X0 Y-390 Z2
G01 X0 Y-391 Z2
G01 X52 Y-391 Z2
G01 X53 Y-391 Z1
G01 X78 Y-391 Z1
G01 X79 Y-391 Z2
G01 X216 Y-391 Z2
G01 X217 Y-391 Z1
G01 X236 Y-391 Z1
G01 X237 Y-391 Z2
G01 X266 Y-391 Z2
G01 X267 Y-391 Z1
G01 X301 Y-391 Z1
G01 X302 Y-391 Z2
G01 X413 Y-391 Z2
G01 X414 Y-391 Z1
G01 X646 Y-391 Z1
G01 X647 Y-391 Z2
G01 X699 Y-391 Z2
G01 X699 Y-392 Z2
G01 X699 Y-393 Z2
G01 X699 Y-394 Z2
G01 X646 Y-394 Z2
G01 X645 Y-394 Z1
G01 X610 Y-394 Z1
G01 X609 Y-394 Z2
G01 X598 Y-394 Z2
G01 X597 Y-394 Z1
G01 X411 Y-394 Z1
G01 X410 Y-394 Z2
G01 X305 Y-394 Z2
G01 X304 Y-394 Z1
G01 X263 Y-394 Z1
G01 X262 Y-394 Z2
G01 X241 Y-394 Z2
G01 X240 Y-394 Z1
G01 X216 Y-394 Z1
G01 X215 Y-394 Z2
G01 X80 Y-394 Z2
G01 X79 Y-394 Z1
G01 X54 Y-394 Z1
G01 X53 Y-394 Z2
G01 X0 Y-394 Z2
G01 X0 Y-395 Z2
G01 X0 Y-396 Z2
G01 X0 Y-397 Z2
G01 X53 Y-397 Z2
G01 X54 Y-397 Z1
G01 X80 Y-397 Z1
G01 X81 Y-397 Z2
G01 X214 Y-397 Z2
G01 X215 Y-397 Z1
G01 X307 Y-397 Z1
G01 X308 Y-397 Z2
G01 X407 Y-397 Z2
G01 X408 Y-397 Z1
G01 X491 Y-397 Z1
G01 X492 Y-397 Z2
G01 X515 Y-397 Z2
G01 X516 Y-397 Z1
G01 X591 Y-397 Z1
G01 X592 Y-397 Z2
G01 X615 Y-397 Z2
G01 X616 Y-397 Z1
G01 X645 Y-397 Z1
G01 X646 Y-397 Z2
G01 X699 Y-397 Z2
G01 X699 Y-398 Z2
G01 X699 Y-399 Z2
G01 X699 Y-400 Z2
G01 X646 Y-400 Z2
G01 X645 Y-400 Z1
G01 X620 Y-400 Z1
G01 X619 Y-400 Z2
G01 X588 Y-400 Z2
G01 X587 Y-400 Z1
G01 X527 Y-400 Z1
G01 X526 Y-400 Z2
G01 X481 Y-400 Z2
G01 X480 Y-400 Z1
G01 X405 Y-400 Z1
G01 X404 Y-400 Z2
G01 X311 Y-400 Z2
G01 X310 Y-400 Z1
G01 X214 Y-400 Z1
G01 X213 Y-400 Z2
G01 X82 Y-400 Z2
G01 X81 Y-400 Z1
G01 X54 Y-400 Z1
G01 X53 Y-400 Z2
G01 X0 Y-400 Z2
G01 X0 Y-401 Z2
G01 X0 Y-402 Z2
G01 X0 Y-403 Z2
G01 X54 Y-403 Z2
G01 X55 Y-403 Z1
G01 X82 Y-403 Z1
G01 X83 Y-403 Z2
G01 X212 Y-403 Z2
G01 X213 Y-403 Z1
G01 X313 Y-403 Z1
G01 X314 Y-403 Z2
G01 X401 Y-403 Z2
G01 X402 Y-403 Z1
G01 X472 Y-403 Z1
G01 X473 Y-403 Z2
G01 X534 Y-403 Z2
G01 X535 Y-403 Z1
G01 X585 Y-403 Z1
G01 X586 Y-403 Z2
G01 X621 Y-403 Z2
G01 X622 Y-403 Z1
G01 X644 Y-403 Z1
G01 X645 Y-403 Z2
G01 X699 Y-403 Z2
G01 X699 Y-404 Z2
G01 X699 Y-405 Z2
G01 X699 Y-406 Z2
G01 X644 Y-406 Z2
G01 X643 Y-406 Z1
G01 X623 Y-406 Z1
G01 X622 Y-406 Z2
G01 X585 Y-406 Z2
G01 X584 Y-406 Z1
G01 X540 Y-406 Z1
G01 X539 Y-406 Z2
G01 X468 Y-406 Z2
G01 X467 Y-406 Z1
G01 X397 Y-406 Z1
G01 X396 Y-406 Z2
G01 X319 Y-406 Z2
G01 X318 Y-406 Z1
G01 X212 Y-406 Z1
G01 X211 Y-406 Z2
G01 X84 Y-406 Z2
G01 X83 Y-406 Z1
G01 X56 Y-406 Z1
G01 X55 Y-406 Z2
G01 X0 Y-406 Z2
G01 X0 Y-407 Z2
G01 X0 Y-408 Z2
G01 X0 Y-409 Z2
G01 X55 Y-409 Z2
G01 X56 Y-409 Z1
G01 X84 Y-409 Z1
G01 X85 Y-409 Z2
G01 X210 Y-409 Z2
G01 X211 Y-409 Z1
G01 X322 Y-409 Z1
G01 X323 Y-409 Z2
G01 X392 Y-409 Z2
G01 X393 Y-409 Z1
G01 X462 Y-409 Z1
G01 X463 Y-409 Z2
G01 X544 Y-409 Z2
G01 X545 Y-409 Z1
G01 X583 Y-409 Z1
G01 X584 Y-409 Z2
G01 X623 Y-409 Z2
G01 X624 Y-409 Z1
G01 X643 Y-409 Z1
G01 X644 Y-409 Z2
G01 X699 Y-409 Z2
G01 X699 Y-410 Z2
G01 X699 Y-411 Z2
G01 X699 Y-412 Z2
G01 X643 Y-412 Z2
G01 X642 Y-412 Z1
G01 X624 Y-412 Z1
G01 X623 Y-412 Z2
G01 X584 Y-412 Z2
G01 X583 Y-412 Z1
G01 X549 Y-412 Z1
G01 X548 Y-412 Z2
G01 X459 Y-412 Z2
G01 X458 Y-412 Z1
G01 X387 Y-412 Z1
G01 X386 Y-412 Z2
G01 X329 Y-412 Z2
G01 X328 Y-412 Z1
G01 X209 Y-412 Z1
G01 X208 Y-412 Z2
G01 X87 Y-412 Z2
G01 X86 Y-412 Z1
G01 X57 Y-412 Z1
G01 X56 Y-412 Z2
G01 X0 Y-412 Z2
G01 X0 Y-413 Z2
G01 X0 Y-414 Z2
G01 X0 Y-415 Z2
G01 X56 Y-415 Z2
G01 X57 Y-415 Z1
G01 X88 Y-415 Z1
G01 X89 Y-415 Z2
G01 X206 Y-415 Z2
G01 X207 Y-415 Z1
G01 X275 Y-415 Z1
G01 X276 Y-415 Z2
G01 X287 Y-415 Z2
G01 X288 Y-415 Z1
G01 X337 Y-415 Z1
G01 X338 Y-415 Z2
G01 X377 Y-415 Z2
G01 X378 Y-415 Z1
G01 X455 Y-415 Z1
G01 X456 Y-415 Z2
G01 X551 Y-415 Z2
G01 X552 Y-415 Z1
G01 X583 Y-415 Z1
G01 X584 Y-415 Z2
G01 X623 Y-415 Z2
G01 X624 Y-415 Z1
G01 X642 Y-415 Z1
G01 X643 Y-415 Z2
G01 X699 Y-415 Z2
G01 X699 Y-416 Z2
G01 X699 Y-417 Z2
G01 X699 Y-418 Z2
G01 X642 Y-418 Z2
G01 X641 Y-418 Z1
G01 X624 Y-418 Z1
G01 X623 Y-418 Z2
G01 X584 Y-418 Z2
G01 X583 Y-418 Z1
G01 X555 Y-418 Z1
G01 X554 Y-418 Z2
G01 X453 Y-418 Z2
G01 X452 Y-418 Z1
G01 X294 Y-418 Z1
G01 X293 Y-418 Z2
G01 X270 Y-418 Z2
G01 X269 Y-418 Z1
G01 X205 Y-418 Z1
G01 X204 Y-418 Z2
G01 X91 Y-418 Z2
G01 X90 Y-418 Z1
G01 X58 Y-418 Z1
G01 X57 Y-418 Z2
G01 X0 Y-418 Z2
G01 X0 Y-419 Z2
G01 X0 Y-420 Z2
G01 X0 Y-421 Z2
G01 X58 Y-421 Z2
G01 X59 Y-421 Z1
G01 X92 Y-421 Z1
G01 X93 Y-421 Z2
G01 X202 Y-421 Z2
G01 X203 Y-421 Z1
G01 X265 Y-421 Z1
G01 X266 Y-421 Z2
G01 X297 Y-421 Z2
G01 X298 Y-421 Z1
G01 X449 Y-421 Z1
G01 X450 Y-421 Z2
G01 X557 Y-421 Z2
G01 X558 Y-421 Z1
G01 X584 Y-421 Z1
G01 X585 Y-421 Z2
G01 X622 Y-421 Z2
G01 X623 Y-421 Z1
G01 X640 Y-421 Z1
G01 X641 Y-421 Z2
G01 X699 Y-421 Z2
G01 X699 Y-422 Z2
G01 X699 Y-423 Z2
G01 X699 Y-424 Z2
G01 X640 Y-424 Z2
G01 X639 Y-424 Z1
G01 X622 Y-424 Z1
G01 X621 Y-424 Z2
G01 X586 Y-424 Z2
G01 X585 Y-424 Z1
G01 X560 Y-424 Z1
G01 X559 Y-424 Z2
G01 X448 Y-424 Z2
G01 X447 Y-424 Z1
G01 X300 Y-424 Z1
G01 X299 Y-424 Z2
G01 X264 Y-424 Z2
G01 X263 Y-424 Z1
G01 X200 Y-424 Z1
G01 X199 Y-424 Z2
G01 X96 Y-424 Z2
G01 X95 Y-424 Z1
G01 X60 Y-424 Z1
G01 X59 Y-424 Z2
G01 X0 Y-424 Z2
G01 X0 Y-425 Z2
G01 X0 Y-426 Z2
G01 X0 Y-427 Z2
G01 X59 Y-427 Z2
G01 X60 Y-427 Z1
G01 X98 Y-427 Z1
G01 X99 Y-427 Z2
G01 X196 Y-427 Z2
G01 X197 Y-427 Z1
G01 X262 Y-427 Z1
G01 X263 Y-427 Z2
G01 X300 Y-427 Z2
G01 X301 Y-427 Z1
G01 X445 Y-427 Z1
G01 X446 Y-427 Z2
G01 X561 Y-427 Z2
G01 X562 Y-427 Z1
G01 X587 Y-427 Z1
G01 X588 Y-427 Z2
G01 X619 Y-427 Z2
G01 X620 Y-427 Z1
G01 X639 Y-427 Z1
G01 X640 Y-427 Z2
G01 X699 Y-427 Z2
G01 X699 Y-428 Z2
G01 X699 Y-429 Z2
G01 X699 Y-430 Z2
G01 X639 Y-430 Z2
G01 X638 Y-430 Z1
G01 X616 Y-430 Z1
G01 X615 Y-430 Z2
G01 X592 Y-430 Z2
G01 X591 Y-430 Z1
G01 X564 Y-430 Z1
G01 X563 Y-430 Z2
G01 X444 Y-430 Z2
G01 X443 Y-430 Z1
G01 X404 Y-430 Z1
G01 X403 Y-430 Z2
G01 X392 Y-430 Z2
G01 X391 Y-430 Z1
G01 X302 Y-430 Z1
G01 X301 Y-430 Z2
G01 X262 Y-430 Z2
G01 X261 Y-430 Z1
G01 X194 Y-430 Z1
G01 X193 Y-430 Z2
G01 X102 Y-430 Z2
G01 X101 Y-430 Z1
G01 X61 Y-430 Z1
G01 X60 Y-430 Z2
G01 X0 Y-430 Z2
G01 X0 Y-431 Z2
G01 X0 Y-432 Z2
G01 X0 Y-433 Z2
G01 X61 Y-433 Z2
G01 X62 Y-433 Z1
G01 X105 Y-433 Z1
G01 X106 Y-433 Z2
G01 X189 Y-433 Z2
G01 X190 Y-433 Z1
G01 X261 Y-433 Z1
G01 X262 Y-433 Z2
G01 X301 Y-433 Z2
G01 X302 Y-433 Z1
G01 X385 Y-433 Z1
G01 X386 Y-433 Z2
G01 X409 Y-433 Z2
G01 X410 Y-433 Z1
G01 X441 Y-433 Z1
G01 X442 Y-433 Z2
G01 X565 Y-433 Z2
G01 X566 Y-433 Z1
G01 X597 Y-433 Z1
G01 X598 Y-433 Z2
G01 X609 Y-433 Z2
G01 X610 Y-433 Z1
G01 X637 Y-433 Z1
G01 X638 Y-433 Z2
G01 X699 Y-433 Z2
G01 X699 Y-434 Z2
G01 X699 Y-435 Z2
G01 X699 Y-436 Z2
G01 X637 Y-436 Z2
G01 X636 Y-436 Z1
G01 X568 Y-436 Z1
G01 X567 Y-436 Z2
G01 X440 Y-436 Z2
G01 X439 Y-436 Z1
G01 X414 Y-436 Z1
G01 X413 Y-436 Z2
G01 X382 Y-436 Z2
G01 X381 Y-436 Z1
G01 X347 Y-436 Z1
G01 X346 Y-436 Z2
G01 X335 Y-436 Z2
G01 X334 Y-436 Z1
G01 X302 Y-436 Z1
G01 X301 Y-436 Z2
G01 X262 Y-436 Z2
G01 X261 Y-436 Z1
G01 X186 Y-436 Z1
G01 X185 Y-436 Z2
G01 X110 Y-436 Z2
G01 X109 Y-436 Z1
G01 X63 Y-436 Z1
G01 X62 Y-436 Z2
G01 X0 Y-436 Z2
G01 X0 Y-437 Z2
G01 X0 Y-438 Z2
G01 X0 Y-439 Z2
G01 X63 Y-439 Z2
G01 X64 Y-439 Z1
G01 X114 Y-439 Z1
G01 X115 Y-439 Z2
G01 X180 Y-439 Z2
G01 X181 Y-439 Z1
G01 X261 Y-439 Z1
G01 X262 Y-439 Z2
G01 X301 Y-439 Z2
G01 X302 Y-439 Z1
G01 X328 Y-439 Z1
G01 X329 Y-439 Z2
G01 X352 Y-439 Z2
G01 X353 Y-439 Z1
G01 X379 Y-439 Z1
G01 X380 Y-439 Z2
G01 X415 Y-439 Z2
G01 X416 Y-439 Z1
G01 X438 Y-439 Z1
G01 X439 Y-439 Z2
G01 X568 Y-439 Z2
G01 X569 Y-439 Z1
G01 X635 Y-439 Z1
G01 X636 Y-439 Z2
G01 X699 Y-439 Z2
G01 X699 Y-440 Z2
G01 X699 Y-441 Z2
G01 X699 Y-442 Z2
G01 X635 Y-442 Z2
G01 X634 Y-442 Z1
G01 X570 Y-442 Z1
G01 X569 Y-442 Z2
G01 X438 Y-442 Z2
G01 X437 Y-442 Z1
G01 X417 Y-442 Z1
G01 X416 Y-442 Z2
G01 X379 Y-442 Z2
G01 X378 Y-442 Z1
G01 X357 Y-442 Z1
G01 X356 Y-442 Z2
G01 X325 Y-442 Z2
G01 X324 Y-442 Z1
G01 X301 Y-442 Z1
G01 X300 Y-442 Z2
G01 X263 Y-442 Z2
G01 X262 Y-442 Z1
G01 X174 Y-442 Z1
G01 X173 Y-442 Z2
G01 X122 Y-442 Z2
G01 X121 Y-442 Z1
G01 X65 Y-442 Z1
G01 X64 Y-442 Z2
G01 X0 Y-442 Z2
G01 X0 Y-443 Z2
G01 X0 Y-444 Z2
G01 X0 Y-445 Z2
G01 X65 Y-445 Z2
G01 X66 Y-445 Z1
G01 X130 Y-445 Z1
G01 X131 Y-445 Z2
G01 X164 Y-445 Z2
G01 X165 Y-445 Z1
G01 X263 Y-445 Z1
G01 X264 Y-445 Z2
G01 X299 Y-445 Z2
G01 X300 Y-445 Z1
G01 X322 Y-445 Z1
G01 X323 Y-445 Z2
G01 X358 Y-445 Z2
G01 X359 Y-445 Z1
G01 X377 Y-445 Z1
G01 X378 Y-445 Z2
G01 X417 Y-445 Z2
G01 X418 Y-445 Z1
G01 X436 Y-445 Z1
G01 X437 Y-445 Z2
G01 X570 Y-445 Z2
G01 X571 Y-445 Z1
G01 X633 Y-445 Z1
G01 X634 Y-445 Z2
G01 X699 Y-445 Z2
G01 X699 Y-446 Z2
G01 X699 Y-447 Z2
G01 X699 Y-448 Z2
G01 X633 Y-448 Z2
G01 X632 Y-448 Z1
G01 X572 Y-448 Z1
G01 X571 Y-448 Z2
G01 X436 Y-448 Z2
G01 X435 Y-448 Z1
G01 X418 Y-448 Z1
G01 X417 Y-448 Z2
G01 X378 Y-448 Z2
G01 X377 Y-448 Z1
G01 X360 Y-448 Z1
G01 X359 Y-448 Z2
G01 X322 Y-448 Z2
G01 X321 Y-448 Z1
G01 X298 Y-448 Z1
G01 X297 Y-448 Z2
G01 X266 Y-448 Z2
G01 X265 Y-448 Z1
G01 X67 Y-448 Z1
G01 X66 Y-448 Z2
G01 X0 Y-448 Z2
G01 X0 Y-449 Z2
G01 X0 Y-450 Z2
G01 X0 Y-451 Z2
G01 X67 Y-451 Z2
G01 X68 Y-451 Z1
G01 X202 Y-451 Z1
G01 X203 Y-451 Z2
G01 X236 Y-451 Z2
G01 X237 Y-451 Z1
G01 X269 Y-451 Z1
G01 X270 Y-451 Z2
G01 X293 Y-451 Z2
G01 X294 Y-451 Z1
G01 X320 Y-451 Z1
G01 X321 Y-451 Z2
G01 X360 Y-451 Z2
G01 X361 Y-451 Z1
G01 X377 Y-451 Z1
G01 X378 Y-451 Z2
G01 X417 Y-451 Z2
G01 X418 Y-451 Z1
G01 X434 Y-451 Z1
G01 X435 Y-451 Z2
G01 X572 Y-451 Z2
G01 X573 Y-451 Z1
G01 X631 Y-451 Z1
G01 X632 Y-451 Z2
G01 X699 Y-451 Z2
G01 X699 Y-452 Z2
G01 X699 Y-453 Z2
G01 X699 Y-454 Z2
G01 X631 Y-454 Z2
G01 X630 Y-454 Z1
G01 X573 Y-454 Z1
G01 X572 Y-454 Z2
G01 X435 Y-454 Z2
G01 X434 Y-454 Z1
G01 X418 Y-454 Z1
G01 X417 Y-454 Z2
G01 X378 Y-454 Z2
G01 X377 Y-454 Z1
G01 X361 Y-454 Z1
G01 X360 Y-454 Z2
G01 X321 Y-454 Z2
G01 X320 Y-454 Z1
G01 X288 Y-454 Z1
G01 X287 Y-454 Z2
G01 X276 Y-454 Z2
G01 X275 Y-454 Z1
G01 X246 Y-454 Z1
G01 X245 Y-454 Z2
G01 X194 Y-454 Z2
G01 X193 Y-454 Z1
G01 X69 Y-454 Z1
G01 X68 Y-454 Z2
G01 X0 Y-454 Z2
G01 X0 Y-455 Z2
G01 X0 Y-456 Z2
G01 X0 Y-457 Z2
G01 X69 Y-457 Z2
G01 X70 Y-457 Z1
G01 X186 Y-457 Z1
G01 X187 Y-457 Z2
G01 X252 Y-457 Z2
G01 X253 Y-457 Z1
G01 X320 Y-457 Z1
G01 X321 Y-457 Z2
G01 X360 Y-457 Z2
G01 X361 Y-457 Z1
G01 X378 Y-457 Z1
G01 X379 Y-457 Z2
G01 X416 Y-457 Z2
G01 X417 Y-457 Z1
G01 X433 Y-457 Z1
G01 X434 Y-457 Z2
G01 X573 Y-457 Z2
G01 X574 Y-457 Z1
G01 X629 Y-457 Z1
G01 X630 Y-457 Z2
G01 X699 Y-457 Z2
G01 X699 Y-458 Z2
G01 X699 Y-459 Z2
G01 X699 Y-460 Z2
G01 X629 Y-460 Z2
G01 X628 Y-460 Z1
G01 X574 Y-460 Z1
G01 X573 Y-460 Z2
G01 X434 Y-460 Z2
G01 X433 Y-460 Z1
G01 X416 Y-460 Z1
G01 X415 Y-460 Z2
G01 X380 Y-460 Z2
G01 X379 Y-460 Z1
G01 X361 Y-460 Z1
G01 X360 Y-460 Z2
G01 X321 Y-460 Z2
G01 X320 Y-460 Z1
G01 X258 Y-460 Z1
G01 X257 Y-460 Z2
G01 X182 Y-460 Z2
G01 X181 Y-460 Z1
G01 X71 Y-460 Z1
G01 X70 Y-460 Z2
G01 X0 Y-460 Z2
G01 X0 Y-461 Z2
G01 X0 Y-462 Z2
G01 X0 Y-463 Z2
G01 X72 Y-463 Z2
G01 X73 Y-463 Z1
G01 X107 Y-463 Z1
G01 X108 Y-463 Z2
G01 X129 Y-463 Z2
G01 X130 Y-463 Z1
G01 X177 Y-463 Z1
G01 X178 Y-463 Z2
G01 X261 Y-463 Z2
G01 X262 Y-463 Z1
G01 X321 Y-463 Z1
G01 X322 Y-463 Z2
G01 X359 Y-463 Z2
G01 X360 Y-463 Z1
G01 X381 Y-463 Z1
G01 X382 Y-463 Z2
G01 X413 Y-463 Z2
G01 X414 Y-463 Z1
G01 X433 Y-463 Z1
G01 X434 Y-463 Z2
G01 X573 Y-463 Z2
G01 X574 Y-463 Z1
G01 X626 Y-463 Z1
G01 X627 Y-463 Z2
G01 X699 Y-463 Z2
G01 X699 Y-464 Z2
G01 X699 Y-465 Z2
G01 X699 Y-466 Z2
G01 X626 Y-466 Z2
G01 X625 Y-466 Z1
G01 X574 Y-466 Z1
G01 X573 Y-466 Z2
G01 X434 Y-466 Z2
G01 X433 Y-466 Z1
G01 X410 Y-466 Z1
G01 X409 Y-466 Z2
G01 X386 Y-466 Z2
G01 X385 Y-466 Z1
G01 X359 Y-466 Z1
G01 X358 Y-466 Z2
G01 X323 Y-466 Z2
G01 X322 Y-466 Z1
G01 X266 Y-466 Z1
G01 X265 Y-466 Z2
G01 X174 Y-466 Z2
G01 X173 Y-466 Z1
G01 X134 Y-466 Z1
G01 X133 Y-466 Z2
G01 X104 Y-466 Z2
G01 X103 Y-466 Z1
G01 X74 Y-466 Z1
G01 X73 Y-466 Z2
G01 X0 Y-466 Z2
G01 X0 Y-467 Z2
G01 X0 Y-468 Z2
G01 X0 Y-469 Z2
G01 X74 Y-469 Z2
G01 X75 Y-469 Z1
G01 X101 Y-469 Z1
G01 X102 Y-469 Z2
G01 X135 Y-469 Z2
G01 X136 Y-469 Z1
G01 X170 Y-469 Z1
G01 X171 Y-469 Z2
G01 X268 Y-469 Z2
G01 X269 Y-469 Z1
G01 X324 Y-469 Z1
G01 X325 Y-469 Z2
G01 X356 Y-469 Z2
G01 X357 Y-469 Z1
G01 X391 Y-469 Z1
G01 X392 Y-469 Z2
G01 X403 Y-469 Z2
G01 X404 Y-469 Z1
G01 X433 Y-469 Z1
G01 X434 Y-469 Z2
G01 X573 Y-469 Z2
G01 X574 Y-469 Z1
G01 X624 Y-469 Z1
G01 X625 Y-469 Z2
G01 X699 Y-469 Z2
G01 X699 Y-470 Z2
G01 X699 Y-471 Z2
G01 X699 Y-472 Z2
G01 X624 Y-472 Z2
G01 X623 Y-472 Z1
G01 X574 Y-472 Z1
G01 X573 Y-472 Z2
G01 X434 Y-472 Z2
G01 X433 Y-472 Z1
G01 X353 Y-472 Z1
G01 X352 Y-472 Z2
G01 X329 Y-472 Z2
G01 X328 Y-472 Z1
G01 X272 Y-472 Z1
G01 X271 Y-472 Z2
G01 X168 Y-472 Z2
G01 X167 Y-472 Z1
G01 X138 Y-472 Z1
G01 X137 Y-472 Z2
G01 X100 Y-472 Z2
G01 X99 Y-472 Z1
G01 X76 Y-472 Z1
G01 X75 Y-472 Z2
G01 X0 Y-472 Z2
G01 X0 Y-473 Z2
G01 X0 Y-474 Z2
G01 X0 Y-475 Z2
G01 X77 Y-475 Z2
G01 X78 Y-475 Z1
G01 X98 Y-475 Z1
G01 X99 Y-475 Z2
G01 X138 Y-475 Z2
G01 X139 Y-475 Z1
G01 X164 Y-475 Z1
G01 X165 Y-475 Z2
G01 X274 Y-475 Z2
G01 X275 Y-475 Z1
G01 X334 Y-475 Z1
G01 X335 Y-475 Z2
G01 X346 Y-475 Z2
G01 X347 Y-475 Z1
G01 X433 Y-475 Z1
G01 X434 Y-475 Z2
G01 X573 Y-475 Z2
G01 X574 Y-475 Z1
G01 X621 Y-475 Z1
G01 X622 Y-475 Z2
G01 X699 Y-475 Z2
G01 X699 Y-476 Z2
G01 X699 Y-477 Z2
G01 X699 Y-478 Z2
G01 X621 Y-478 Z2
G01 X620 Y-478 Z1
G01 X574 Y-478 Z1
G01 X573 Y-478 Z2
G01 X434 Y-478 Z2
G01 X433 Y-478 Z1
G01 X277 Y-478 Z1
G01 X276 Y-478 Z2
G01 X163 Y-478 Z2
G01 X162 Y-478 Z1
G01 X139 Y-478 Z1
G01 X138 Y-478 Z2
G01 X99 Y-478 Z2
G01 X98 Y-478 Z1
G01 X79 Y-478 Z1
G01 X78 Y-478 Z2
G01 X0 Y-478 Z2
G01 X0 Y-479 Z2
G01 X0 Y-480 Z2
G01 X0 Y-481 Z2
G01 X80 Y-481 Z2
G01 X81 Y-481 Z1
G01 X98 Y-481 Z1
G01 X99 Y-481 Z2
G01 X138 Y-481 Z2
G01 X139 Y-481 Z1
G01 X160 Y-481 Z1
G01 X161 Y-481 Z2
G01 X278 Y-481 Z2
G01 X279 Y-481 Z1
G01 X434 Y-481 Z1
G01 X435 Y-481 Z2
G01 X572 Y-481 Z2
G01 X573 Y-481 Z1
G01 X618 Y-481 Z1
G01 X619 Y-481 Z2
G01 X699 Y-481 Z2
G01 X699 Y-482 Z2
G01 X699 Y-483 Z2
G01 X699 Y-484 Z2
G01 X618 Y-484 Z2
G01 X617 Y-484 Z1
G01 X572 Y-484 Z1
G01 X571 Y-484 Z2
G01 X436 Y-484 Z2
G01 X435 Y-484 Z1
G01 X281 Y-484 Z1
G01 X280 Y-484 Z2
G01 X159 Y-484 Z2
G01 X158 Y-484 Z1
G01 X139 Y-484 Z1
G01 X138 Y-484 Z2
G01 X99 Y-484 Z2
G01 X98 Y-484 Z1
G01 X82 Y-484 Z1
G01 X81 Y-484 Z2
G01 X0 Y-484 Z2
G01 X0 Y-485 Z2
G01 X0 Y-486 Z2
G01 X0 Y-487 Z2
G01 X83 Y-487 Z2
G01 X84 Y-487 Z1
G01 X99 Y-487 Z1
G01 X100 Y-487 Z2
G01 X137 Y-487 Z2
G01 X138 Y-487 Z1
G01 X156 Y-487 Z1
G01 X157 Y-487 Z2
G01 X282 Y-487 Z2
G01 X283 Y-487 Z1
G01 X436 Y-487 Z1
G01 X437 Y-487 Z2
G01 X570 Y-487 Z2
G01 X571 Y-487 Z1
G01 X615 Y-487 Z1
G01 X616 Y-487 Z2
G01 X699 Y-487 Z2
G01 X699 Y-488 Z2
G01 X699 Y-489 Z2
G01 X699 Y-490 Z2
G01 X615 Y-490 Z2
G01 X614 Y-490 Z1
G01 X570 Y-490 Z1
G01 X569 Y-490 Z2
G01 X438 Y-490 Z2
G01 X437 Y-490 Z1
G01 X389 Y-490 Z1
G01 X388 Y-490 Z2
G01 X355 Y-490 Z2
G01 X354 Y-490 Z1
G01 X284 Y-490 Z1
G01 X283 Y-490 Z2
G01 X156 Y-490 Z2
G01 X155 Y-490 Z1
G01 X137 Y-490 Z1
G01 X136 Y-490 Z2
G01 X101 Y-490 Z2
G01 X100 Y-490 Z1
G01 X85 Y-490 Z1
G01 X84 Y-490 Z2
G01 X0 Y-490 Z2
G01 X0 Y-491 Z2
G01 X0 Y-492 Z2
G01 X0 Y-493 Z2
G01 X86 Y-493 Z2
G01 X87 Y-493 Z1
G01 X102 Y-493 Z1
G01 X103 Y-493 Z2
G01 X134 Y-493 Z2
G01 X135 Y-493 Z1
G01 X154 Y-493 Z1
G01 X155 Y-493 Z2
G01 X284 Y-493 Z2
G01 X285 Y-493 Z1
G01 X345 Y-493 Z1
G01 X346 Y-493 Z2
G01 X397 Y-493 Z2
G01 X398 Y-493 Z1
G01 X438 Y-493 Z1
G01 X439 Y-493 Z2
G01 X568 Y-493 Z2
G01 X569 Y-493 Z1
G01 X612 Y-493 Z1
G01 X613 Y-493 Z2
G01 X699 Y-493 Z2
G01 X699 Y-494 Z2
G01 X699 Y-495 Z2
G01 X699 Y-496 Z2
G01 X611 Y-496 Z2
G01 X610 Y-496 Z1
G01 X568 Y-496 Z1
G01 X567 Y-496 Z2
G01 X440 Y-496 Z2
G01 X439 Y-496 Z1
G01 X405 Y-496 Z1
G01 X404 Y-496 Z2
G01 X339 Y-496 Z2
G01 X338 Y-496 Z1
G01 X286 Y-496 Z1
G01 X285 Y-496 Z2
G01 X154 Y-496 Z2
G01 X153 Y-496 Z1
G01 X133 Y-496 Z1
G01 X132 Y-496 Z2
G01 X105 Y-496 Z2
G01 X104 Y-496 Z1
G01 X89 Y-496 Z1
G01 X88 Y-496 Z2
G01 X0 Y-496 Z2
G01 X0 Y-497 Z2
G01 X0 Y-498 Z2
G01 X0 Y-499 Z2
G01 X89 Y-499 Z2
G01 X90 Y-499 Z1
G01 X109 Y-499 Z1
G01 X110 Y-499 Z2
G01 X127 Y-499 Z2
G01 X128 Y-499 Z1
G01 X152 Y-499 Z1
G01 X153 Y-499 Z2
G01 X286 Y-499 Z2
G01 X287 Y-499 Z1
G01 X333 Y-499 Z1
G01 X334 Y-499 Z2
G01 X409 Y-499 Z2
G01 X410 Y-499 Z1
G01 X440 Y-499 Z1
G01 X441 Y-499 Z2
G01 X566 Y-499 Z2
G01 X567 Y-499 Z1
G01 X609 Y-499 Z1
G01 X610 Y-499 Z2
G01 X699 Y-499 Z2
G01 X699 Y-500 Z2
G01 X699 Y-501 Z2
G01 X699 Y-502 Z2
G01 X608 Y-502 Z2
G01 X607 Y-502 Z1
G01 X565 Y-502 Z1
G01 X564 Y-502 Z2
G01 X443 Y-502 Z2
G01 X442 Y-502 Z1
G01 X414 Y-502 Z1
G01 X413 Y-502 Z2
G01 X330 Y-502 Z2
G01 X329 Y-502 Z1
G01 X288 Y-502 Z1
G01 X287 Y-502 Z2
G01 X152 Y-502 Z2
G01 X151 Y-502 Z1
G01 X92 Y-502 Z1
G01 X91 Y-502 Z2
G01 X0 Y-502 Z2
G01 X0 Y-503 Z2
G01 X0 Y-504 Z2
G01 X0 Y-505 Z2
G01 X93 Y-505 Z2
G01 X94 Y-505 Z1
G01 X150 Y-505 Z1
G01 X151 Y-505 Z2
G01 X288 Y-505 Z2
G01 X289 Y-505 Z1
G01 X325 Y-505 Z1
G01 X326 Y-505 Z2
G01 X417 Y-505 Z2
G01 X418 Y-505 Z1
G01 X444 Y-505 Z1
G01 X445 Y-505 Z2
G01 X562 Y-505 Z2
G01 X563 Y-505 Z1
G01 X605 Y-505 Z1
G01 X606 Y-505 Z2
G01 X699 Y-505 Z2
G01 X699 Y-506 Z2
G01 X699 Y-507 Z2
G01 X699 Y-508 Z2
G01 X604 Y-508 Z2
G01 X603 Y-508 Z1
G01 X561 Y-508 Z1
G01 X560 Y-508 Z2
G01 X447 Y-508 Z2
G01 X446 Y-508 Z1
G01 X421 Y-508 Z1
G01 X420 Y-508 Z2
G01 X323 Y-508 Z2
G01 X322 Y-508 Z1
G01 X290 Y-508 Z1
G01 X289 Y-508 Z2
G01 X150 Y-508 Z2
G01 X149 Y-508 Z1
G01 X96 Y-508 Z1
G01 X95 Y-508 Z2
G01 X0 Y-508 Z2
G01 X0 Y-509 Z2
G01 X0 Y-510 Z2
G01 X0 Y-511 Z2
G01 X97 Y-511 Z2
G01 X98 Y-511 Z1
G01 X149 Y-511 Z1
G01 X150 Y-511 Z2
G01 X289 Y-511 Z2
G01 X290 Y-511 Z1
G01 X319 Y-511 Z1
G01 X320 Y-511 Z2
G01 X423 Y-511 Z2
G01 X424 Y-511 Z1
G01 X448 Y-511 Z1
G01 X449 Y-511 Z2
G01 X558 Y-511 Z2
G01 X559 Y-511 Z1
G01 X601 Y-511 Z1
G01 X602 Y-511 Z2
G01 X699 Y-511 Z2
G01 X699 Y-512 Z2
G01 X699 Y-513 Z2
G01 X699 Y-514 Z2
G01 X600 Y-514 Z2
G01 X599 Y-514 Z1
G01 X556 Y-514 Z1
G01 X555 Y-514 Z2
G01 X452 Y-514 Z2
G01 X451 Y-514 Z1
G01 X427 Y-514 Z1
G01 X426 Y-514 Z2
G01 X317 Y-514 Z2
G01 X316 Y-514 Z1
G01 X290 Y-514 Z1
G01 X289 Y-514 Z2
G01 X150 Y-514 Z2
G01 X149 Y-514 Z1
G01 X100 Y-514 Z1
G01 X99 Y-514 Z2
G01 X0 Y-514 Z2
G01 X0 Y-515 Z2
G01 X0 Y-516 Z2
G01 X0 Y-517 Z2
G01 X100 Y-517 Z2
G01 X101 Y-517 Z1
G01 X149 Y-517 Z1
G01 X150 Y-517 Z2
G01 X289 Y-517 Z2
G01 X290 Y-517 Z1
G01 X314 Y-517 Z1
G01 X315 Y-517 Z2
G01 X428 Y-517 Z2
G01 X429 Y-517 Z1
G01 X454 Y-517 Z1
G01 X455 Y-517 Z2
G01 X552 Y-517 Z2
G01 X553 Y-517 Z1
G01 X598 Y-517 Z1
G01 X599 Y-517 Z2
G01 X699 Y-517 Z2
G01 X699 Y-518 Z2
G01 X699 Y-519 Z2
G01 X699 Y-520 Z2
G01 X596 Y-520 Z2
G01 X595 Y-520 Z1
G01 X550 Y-520 Z1
G01 X549 Y-520 Z2
G01 X458 Y-520 Z2
G01 X457 Y-520 Z1
G01 X431 Y-520 Z1
G01 X430 Y-520 Z2
G01 X313 Y-520 Z2
G01 X312 Y-520 Z1
G01 X290 Y-520 Z1
G01 X289 Y-520 Z2
G01 X150 Y-520 Z2
G01 X149 Y-520 Z1
G01 X104 Y-520 Z1
G01 X103 Y-520 Z2
G01 X0 Y-520 Z2
G01 X0 Y-521 Z2
G01 X0 Y-522 Z2
G01 X0 Y-523 Z2
G01 X105 Y-523 Z2
G01 X106 Y-523 Z1
G01 X149 Y-523 Z1
G01 X150 Y-523 Z2
G01 X289 Y-523 Z2
G01 X290 Y-523 Z1
G01 X310 Y-523 Z1
G01 X311 Y-523 Z2
G01 X432 Y-523 Z2
G01 X433 Y-523 Z1
G01 X461 Y-523 Z1
G01 X462 Y-523 Z2
G01 X545 Y-523 Z2
G01 X546 Y-523 Z1
G01 X593 Y-523 Z1
G01 X594 Y-523 Z2
G01 X699 Y-523 Z2
G01 X699 Y-524 Z2
G01 X699 Y-525 Z2
G01 X699 Y-526 Z2
G01 X592 Y-526 Z2
G01 X591 Y-526 Z1
G01 X542 Y-526 Z1
G01 X541 Y-526 Z2
G01 X466 Y-526 Z2
G01 X465 Y-526 Z1
G01 X435 Y-526 Z1
G01 X434 Y-526 Z2
G01 X309 Y-526 Z2
G01 X308 Y-526 Z1
G01 X290 Y-526 Z1
G01 X289 Y-526 Z2
G01 X150 Y-526 Z2
G01 X149 Y-526 Z1
G01 X108 Y-526 Z1
G01 X107 Y-526 Z2
G01 X0 Y-526 Z2
G01 X0 Y-527 Z2
G01 X0 Y-528 Z2
G01 X0 Y-529 Z2
G01 X109 Y-529 Z2
G01 X110 Y-529 Z1
G01 X149 Y-529 Z1
G01 X150 Y-529 Z2
G01 X289 Y-529 Z2
G01 X290 Y-529 Z1
G01 X307 Y-529 Z1
G01 X308 Y-529 Z2
G01 X435 Y-529 Z2
G01 X436 Y-529 Z1
G01 X470 Y-529 Z1
G01 X471 Y-529 Z2
G01 X536 Y-529 Z2
G01 X537 Y-529 Z1
G01 X589 Y-529 Z1
G01 X590 Y-529 Z2
G01 X699 Y-529 Z2
G01 X699 Y-530 Z2
G01 X699 Y-531 Z2
G01 X699 Y-532 Z2
G01 X588 Y-532 Z2
G01 X587 Y-532 Z1
G01 X530 Y-532 Z1
G01 X529 Y-532 Z2
G01 X478 Y-532 Z2
G01 X477 Y-532 Z1
G01 X437 Y-532 Z1
G01 X436 Y-532 Z2
G01 X307 Y-532 Z2
G01 X306 Y-532 Z1
G01 X289 Y-532 Z1
G01 X288 Y-532 Z2
G01 X151 Y-532 Z2
G01 X150 Y-532 Z1
G01 X112 Y-532 Z1
G01 X111 Y-532 Z2
G01 X0 Y-532 Z2
G01 X0 Y-533 Z2
G01 X0 Y-534 Z2
G01 X0 Y-535 Z2
G01 X114 Y-535 Z2
G01 X115 Y-535 Z1
G01 X150 Y-535 Z1
G01 X151 Y-535 Z2
G01 X288 Y-535 Z2
G01 X289 Y-535 Z1
G01 X305 Y-535 Z1
G01 X306 Y-535 Z2
G01 X437 Y-535 Z2
G01 X438 Y-535 Z1
G01 X486 Y-535 Z1
G01 X487 Y-535 Z2
G01 X520 Y-535 Z2
G01 X521 Y-535 Z1
G01 X584 Y-535 Z1
G01 X585 Y-535 Z2
G01 X699 Y-535 Z2
G01 X699 Y-536 Z2
G01 X699 Y-537 Z2
G01 X699 Y-538 Z2
G01 X583 Y-538 Z2
G01 X582 Y-538 Z1
G01 X439 Y-538 Z1
G01 X438 Y-538 Z2
G01 X305 Y-538 Z2
G01 X304 Y-538 Z1
G01 X288 Y-538 Z1
G01 X287 Y-538 Z2
G01 X152 Y-538 Z2
G01 X151 Y-538 Z1
G01 X117 Y-538 Z1
G01 X116 Y-538 Z2
G01 X0 Y-538 Z2
G01 X0 Y-539 Z2
G01 X0 Y-540 Z2
G01 X0 Y-541 Z2
G01 X118 Y-541 Z2
G01 X119 Y-541 Z1
G01 X152 Y-541 Z1
G01 X153 Y-541 Z2
G01 X286 Y-541 Z2
G01 X287 Y-541 Z1
G01 X303 Y-541 Z1
G01 X304 Y-541 Z2
G01 X439 Y-541 Z2
G01 X440 Y-541 Z1
G01 X580 Y-541 Z1
G01 X581 Y-541 Z2
G01 X699 Y-541 Z2
G01 X699 Y-542 Z2
G01 X699 Y-543 Z2
G01 X699 Y-544 Z2
G01 X578 Y-544 Z2
G01 X577 Y-544 Z1
G01 X441 Y-544 Z1
G01 X440 Y-544 Z2
G01 X303 Y-544 Z2
G01 X302 Y-544 Z1
G01 X286 Y-544 Z1
G01 X285 Y-544 Z2
G01 X154 Y-544 Z2
G01 X153 Y-544 Z1
G01 X122 Y-544 Z1
G01 X121 Y-544 Z2
G01 X0 Y-544 Z2
G01 X0 Y-545 Z2
G01 X0 Y-546 Z2
G01 X0 Y-547 Z2
G01 X124 Y-547 Z2
G01 X125 Y-547 Z1
G01 X154 Y-547 Z1
G01 X155 Y-547 Z2
G01 X284 Y-547 Z2
G01 X285 Y-547 Z1
G01 X301 Y-547 Z1
G01 X302 Y-547 Z2
G01 X441 Y-547 Z2
G01 X442 Y-547 Z1
G01 X574 Y-547 Z1
G01 X575 Y-547 Z2
G01 X699 Y-547 Z2
G01 X699 Y-548 Z2
G01 X699 Y-549 Z2
G01 X699 Y-550 Z2
G01 X573 Y-550 Z2
G01 X572 Y-550 Z1
G01 X442 Y-550 Z1
G01 X441 Y-550 Z2
G01 X302 Y-550 Z2
G01 X301 Y-550 Z1
G01 X284 Y-550 Z1
G01 X283 Y-550 Z2
G01 X156 Y-550 Z2
G01 X155 Y-550 Z1
G01 X127 Y-550 Z1
G01 X126 Y-550 Z2
G01 X0 Y-550 Z2
G01 X0 Y-551 Z2
G01 X0 Y-552 Z2
G01 X0 Y-553 Z2
G01 X129 Y-553 Z2
G01 X130 Y-553 Z1
G01 X157 Y-553 Z1
G01 X158 Y-553 Z2
G01 X281 Y-553 Z2
G01 X282 Y-553 Z1
G01 X301 Y-553 Z1
G01 X302 Y-553 Z2
G01 X441 Y-553 Z2
G01 X442 Y-553 Z1
G01 X569 Y-553 Z1
G01 X570 Y-553 Z2
G01 X699 Y-553 Z2
G01 X699 Y-554 Z2
G01 X699 Y-555 Z2
G01 X699 Y-556 Z2
G01 X567 Y-556 Z2
G01 X566 Y-556 Z1
G01 X494 Y-556 Z1
G01 X493 Y-556 Z2
G01 X482 Y-556 Z2
G01 X481 Y-556 Z1
G01 X442 Y-556 Z1
G01 X441 Y-556 Z2
G01 X302 Y-556 Z2
G01 X301 Y-556 Z1
G01 X280 Y-556 Z1
G01 X279 Y-556 Z2
G01 X160 Y-556 Z2
G01 X159 Y-556 Z1
G01 X133 Y-556 Z1
G01 X132 Y-556 Z2
G01 X0 Y-556 Z2
G01 X0 Y-557 Z2
G01 X0 Y-558 Z2
G01 X0 Y-559 Z2
G01 X135 Y-559 Z2
G01 X136 Y-559 Z1
G01 X161 Y-559 Z1
G01 X162 Y-559 Z2
G01 X277 Y-559 Z2
G01 X278 Y-559 Z1
G01 X301 Y-559 Z1
G01 X302 Y-559 Z2
G01 X441 Y-559 Z2
G01 X442 Y-559 Z1
G01 X475 Y-559 Z1
G01 X476 Y-559 Z2
G01 X499 Y-559 Z2
G01 X500 Y-559 Z1
G01 X563 Y-559 Z1
G01 X564 Y-559 Z2
G01 X699 Y-559 Z2
G01 X699 Y-560 Z2
G01 X699 Y-561 Z2
G01 X699 Y-562 Z2
G01 X561 Y-562 Z2
G01 X560 Y-562 Z1
G01 X504 Y-562 Z1
G01 X503 Y-562 Z2
G01 X472 Y-562 Z2
G01 X471 Y-562 Z1
G01 X442 Y-562 Z1
G01 X441 Y-562 Z2
G01 X302 Y-562 Z2
G01 X301 Y-562 Z1
G01 X276 Y-562 Z1
G01 X275 Y-562 Z2
G01 X164 Y-562 Z2
G01 X163 Y-562 Z1
G01 X139 Y-562 Z1
G01 X138 Y-562 Z2
G01 X0 Y-562 Z2
G01 X0 Y-563 Z2
G01 X0 Y-564 Z2
G01 X0 Y-565 Z2
G01 X141 Y-565 Z2
G01 X142 Y-565 Z1
G01 X165 Y-565 Z1
G01 X166 Y-565 Z2
G01 X273 Y-565 Z2
G01 X274 Y-565 Z1
G01 X301 Y-565 Z1
G01 X302 Y-565 Z2
G01 X441 Y-565 Z2
G01 X442 Y-565 Z1
G01 X469 Y-565 Z1
G01 X470 Y-565 Z2
G01 X505 Y-565 Z2
G01 X506 Y-565 Z1
G01 X557 Y-565 Z1
G01 X558 Y-565 Z2
G01 X699 Y-565 Z2
G01 X699 Y-566 Z2
G01 X699 Y-567 Z2
G01 X699 Y-568 Z2
G01 X555 Y-568 Z2
G01 X554 Y-568 Z1
G01 X507 Y-568 Z1
G01 X506 Y-568 Z2
G01 X469 Y-568 Z2
G01 X468 Y-568 Z1
G01 X442 Y-568 Z1
G01 X441 Y-568 Z2
G01 X302 Y-568 Z2
G01 X301 Y-568 Z1
G01 X271 Y-568 Z1
G01 X270 Y-568 Z2
G01 X169 Y-568 Z2
G01 X168 Y-568 Z1
G01 X145 Y-568 Z1
G01 X144 Y-568 Z2
G01 X0 Y-568 Z2
G01 X0 Y-569 Z2
G01 X0 Y-570 Z2
G01 X0 Y-571 Z2
G01 X147 Y-571 Z2
G01 X148 Y-571 Z1
G01 X171 Y-571 Z1
G01 X172 Y-571 Z2
G01 X267 Y-571 Z2
G01 X268 Y-571 Z1
G01 X302 Y-571 Z1
G01 X303 Y-571 Z2
G01 X440 Y-571 Z2
G01 X441 Y-571 Z1
G01 X467 Y-571 Z1
G01 X468 Y-571 Z2
G01 X507 Y-571 Z2
G01 X508 Y-571 Z1
G01 X551 Y-571 Z1
G01 X552 Y-571 Z2
G01 X699 Y-571 Z2
G01 X699 Y-572 Z2
G01 X699 Y-573 Z2
G01 X699 Y-574 Z2
G01 X548 Y-574 Z2
G01 X547 Y-574 Z1
G01 X508 Y-574 Z1
G01 X507 Y-574 Z2
G01 X468 Y-574 Z2
G01 X467 Y-574 Z1
G01 X441 Y-574 Z1
G01 X440 Y-574 Z2
G01 X303 Y-574 Z2
G01 X302 Y-574 Z1
G01 X265 Y-574 Z1
G01 X264 Y-574 Z2
G01 X175 Y-574 Z2
G01 X174 Y-574 Z1
G01 X152 Y-574 Z1
G01 X151 Y-574 Z2
G01 X0 Y-574 Z2
G01 X0 Y-575 Z2
G01 X0 Y-576 Z2
G01 X0 Y-577 Z2
G01 X154 Y-577 Z2
G01 X155 Y-577 Z1
G01 X178 Y-577 Z1
G01 X179 Y-577 Z2
G01 X260 Y-577 Z2
G01 X261 Y-577 Z1
G01 X303 Y-577 Z1
G01 X304 Y-577 Z2
G01 X439 Y-577 Z2
G01 X440 Y-577 Z1
G01 X467 Y-577 Z1
G01 X468 Y-577 Z2
G01 X507 Y-577 Z2
G01 X508 Y-577 Z1
G01 X544 Y-577 Z1
G01 X545 Y-577 Z2
G01 X699 Y-577 Z2
G01 X699 Y-578 Z2
G01 X699 Y-579 Z2
G01 X699 Y-580 Z2
G01 X542 Y-580 Z2
G01 X541 Y-580 Z1
G01 X508 Y-580 Z1
G01 X507 Y-580 Z2
G01 X468 Y-580 Z2
G01 X467 Y-580 Z1
G01 X439 Y-580 Z1
G01 X438 Y-580 Z2
G01 X305 Y-580 Z2
G01 X304 Y-580 Z1
G01 X256 Y-580 Z1
G01 X255 Y-580 Z2
G01 X184 Y-580 Z2
G01 X183 Y-580 Z1
G01 X158 Y-580 Z1
G01 X157 Y-580 Z2
G01 X0 Y-580 Z2
G01 X0 Y-581 Z2
G01 X0 Y-582 Z2
G01 X0 Y-583 Z2
G01 X161 Y-583 Z2
G01 X162 Y-583 Z1
G01 X188 Y-583 Z1
G01 X189 Y-583 Z2
G01 X250 Y-583 Z2
G01 X251 Y-583 Z1
G01 X305 Y-583 Z1
G01 X306 Y-583 Z2
G01 X437 Y-583 Z2
G01 X438 Y-583 Z1
G01 X468 Y-583 Z1
G01 X469 Y-583 Z2
G01 X506 Y-583 Z2
G01 X507 Y-583 Z1
G01 X537 Y-583 Z1
G01 X538 Y-583 Z2
G01 X699 Y-583 Z2
G01 X699 Y-584 Z2
G01 X699 Y-585 Z2
G01 X699 Y-586 Z2
G01 X534 Y-586 Z2
G01 X533 Y-586 Z1
G01 X506 Y-586 Z1
G01 X505 Y-586 Z2
G01 X470 Y-586 Z2
G01 X469 Y-586 Z1
G01 X437 Y-586 Z1
G01 X436 Y-586 Z2
G01 X307 Y-586 Z2
G01 X306 Y-586 Z1
G01 X289 Y-586 Z1
G01 X288 Y-586 Z2
G01 X267 Y-586 Z2
G01 X266 Y-586 Z1
G01 X243 Y-586 Z1
G01 X242 Y-586 Z2
G01 X197 Y-586 Z2
G01 X196 Y-586 Z1
G01 X166 Y-586 Z1
G01 X165 Y-586 Z2
G01 X0 Y-586 Z2
G01 X0 Y-587 Z2
G01 X0 Y-588 Z2
G01 X0 Y-589 Z2
G01 X169 Y-589 Z2
G01 X170 Y-589 Z1
G01 X207 Y-589 Z1
G01 X208 Y-589 Z2
G01 X231 Y-589 Z2
G01 X232 Y-589 Z1
G01 X262 Y-589 Z1
G01 X263 Y-589 Z2
G01 X292 Y-589 Z2
G01 X293 Y-589 Z1
G01 X307 Y-589 Z1
G01 X308 Y-589 Z2
G01 X435 Y-589 Z2
G01 X436 Y-589 Z1
G01 X471 Y-589 Z1
G01 X472 Y-589 Z2
G01 X503 Y-589 Z2
G01 X504 Y-589 Z1
G01 X529 Y-589 Z1
G01 X530 Y-589 Z2
G01 X699 Y-589 Z2
G01 X699 Y-590 Z2
G01 X699 Y-591 Z2
G01 X699 Y-592 Z2
G01 X526 Y-592 Z2
G01 X525 Y-592 Z1
G01 X500 Y-592 Z1
G01 X499 Y-592 Z2
G01 X476 Y-592 Z2
G01 X475 Y-592 Z1
G01 X434 Y-592 Z1
G01 X433 Y-592 Z2
G01 X310 Y-592 Z2
G01 X309 Y-592 Z1
G01 X295 Y-592 Z1
G01 X294 Y-592 Z2
G01 X261 Y-592 Z2
G01 X260 Y-592 Z1
G01 X174 Y-592 Z1
G01 X173 Y-592 Z2
G01 X0 Y-592 Z2
G01 X0 Y-593 Z2
G01 X0 Y-594 Z2
G01 X0 Y-595 Z2
G01 X177 Y-595 Z2
G01 X178 Y-595 Z1
G01 X258 Y-595 Z1
G01 X259 Y-595 Z2
G01 X296 Y-595 Z2
G01 X297 Y-595 Z1
G01 X311 Y-595 Z1
G01 X312 Y-595 Z2
G01 X431 Y-595 Z2
G01 X432 Y-595 Z1
G01 X481 Y-595 Z1
G01 X482 Y-595 Z2
G01 X493 Y-595 Z2
G01 X494 Y-595 Z1
G01 X521 Y-595 Z1
G01 X522 Y-595 Z2
G01 X699 Y-595 Z2
G01 X699 Y-596 Z2
G01 X699 Y-597 Z2
G01 X699 Y-598 Z2
G01 X518 Y-598 Z2
G01 X517 Y-598 Z1
G01 X430 Y-598 Z1
G01 X429 Y-598 Z2
G01 X314 Y-598 Z2
G01 X313 Y-598 Z1
G01 X298 Y-598 Z1
G01 X297 Y-598 Z2
G01 X258 Y-598 Z2
G01 X257 Y-598 Z1
G01 X182 Y-598 Z1
G01 X181 Y-598 Z2
G01 X0 Y-598 Z2
G01 X0 Y-599 Z2
G01 X0 Y-600 Z2
G01 X0 Y-601 Z2
G01 X186 Y-601 Z2
G01 X187 Y-601 Z1
G01 X257 Y-601 Z1
G01 X258 Y-601 Z2
G01 X297 Y-601 Z2
G01 X298 Y-601 Z1
G01 X315 Y-601 Z1
G01 X316 Y-601 Z2
G01 X427 Y-601 Z2
G01 X428 Y-601 Z1
G01 X512 Y-601 Z1
G01 X513 Y-601 Z2
G01 X699 Y-601 Z2
G01 X699 Y-602 Z2
G01 X699 Y-603 Z2
G01 X699 Y-604 Z2
G01 X508 Y-604 Z2
G01 X507 Y-604 Z1
G01 X426 Y-604 Z1
G01 X425 Y-604 Z2
G01 X318 Y-604 Z2
G01 X317 Y-604 Z1
G01 X298 Y-604 Z1
G01 X297 Y-604 Z2
G01 X258 Y-604 Z2
G01 X257 Y-604 Z1
G01 X192 Y-604 Z1
G01 X191 Y-604 Z2
G01 X0 Y-604 Z2
G01 X0 Y-605 Z2
G01 X0 Y-606 Z2
G01 X0 Y-607 Z2
G01 X196 Y-607 Z2
G01 X197 Y-607 Z1
G01 X257 Y-607 Z1
G01 X258 Y-607 Z2
G01 X297 Y-607 Z2
G01 X298 Y-607 Z1
G01 X320 Y-607 Z1
G01 X321 Y-607 Z2
G01 X422 Y-607 Z2
G01 X423 Y-607 Z1
G01 X502 Y-607 Z1
G01 X503 Y-607 Z2
G01 X699 Y-607 Z2
G01 X699 Y-608 Z2
G01 X699 Y-609 Z2
G01 X699 Y-610 Z2
G01 X498 Y-610 Z2
G01 X497 Y-610 Z1
G01 X420 Y-610 Z1
G01 X419 Y-610 Z2
G01 X324 Y-610 Z2
G01 X323 Y-610 Z1
G01 X297 Y-610 Z1
G01 X296 Y-610 Z2
G01 X259 Y-610 Z2
G01 X258 Y-610 Z1
G01 X202 Y-610 Z1
G01 X201 Y-610 Z2
G01 X0 Y-610 Z2
G01 X0 Y-611 Z2
G01 X0 Y-612 Z2
G01 X0 Y-613 Z2
G01 X206 Y-613 Z2
G01 X207 Y-613 Z1
G01 X259 Y-613 Z1
G01 X260 Y-613 Z2
G01 X295 Y-613 Z2
G01 X296 Y-613 Z1
G01 X326 Y-613 Z1
G01 X327 Y-613 Z2
G01 X416 Y-613 Z2
G01 X417 Y-613 Z1
G01 X492 Y-613 Z1
G01 X493 Y-613 Z2
G01 X699 Y-613 Z2
G01 X699 Y-614 Z2
G01 X699 Y-615 Z2
G01 X699 Y-616 Z2
G01 X487 Y-616 Z2
G01 X486 Y-616 Z1
G01 X413 Y-616 Z1
G01 X412 Y-616 Z2
G01 X331 Y-616 Z2
G01 X330 Y-616 Z1
G01 X294 Y-616 Z1
G01 X293 Y-616 Z2
G01 X262 Y-616 Z2
G01 X261 Y-616 Z1
G01 X213 Y-616 Z1
G01 X212 Y-616 Z2
G01 X0 Y-616 Z2
G01 X0 Y-617 Z2
G01 X0 Y-618 Z2
G01 X0 Y-619 Z2
G01 X218 Y-619 Z2
G01 X219 Y-619 Z1
G01 X263 Y-619 Z1
G01 X264 Y-619 Z2
G01 X291 Y-619 Z2
G01 X292 Y-619 Z1
G01 X335 Y-619 Z1
G01 X336 Y-619 Z2
G01 X407 Y-619 Z2
G01 X408 Y-619 Z1
G01 X480 Y-619 Z1
G01 X481 Y-619 Z2
G01 X699 Y-619 Z2
G01 X699 Y-620 Z2
G01 X699 Y-621 Z2
G01 X699 Y-622 Z2
G01 X475 Y-622 Z2
G01 X474 Y-622 Z1
G01 X403 Y-622 Z1
G01 X402 Y-622 Z2
G01 X341 Y-622 Z2
G01 X340 Y-622 Z1
G01 X287 Y-622 Z1
G01 X286 Y-622 Z2
G01 X269 Y-622 Z2
G01 X268 Y-622 Z1
G01 X225 Y-622 Z1
G01 X224 Y-622 Z2
G01 X0 Y-622 Z2
G01 X0 Y-623 Z2
G01 X0 Y-624 Z2
G01 X0 Y-625 Z2
G01 X231 Y-625 Z2
G01 X232 Y-625 Z1
G01 X348 Y-625 Z1
G01 X349 Y-625 Z2
G01 X394 Y-625 Z2
G01 X395 Y-625 Z1
G01 X467 Y-625 Z1
G01 X468 Y-625 Z2
G01 X699 Y-625 Z2
G01 X699 Y-626 Z2
G01 X699 Y-627 Z2
G01 X699 Y-628 Z2
G01 X461 Y-628 Z2
G01 X460 Y-628 Z1
G01 X384 Y-628 Z1
G01 X383 Y-628 Z2
G01 X360 Y-628 Z2
G01 X359 Y-628 Z1
G01 X239 Y-628 Z1
G01 X238 Y-628 Z2
G01 X0 Y-628 Z2
G01 X0 Y-629 Z2
G01 X0 Y-630 Z2
G01 X0 Y-631 Z2
G01 X246 Y-631 Z2
G01 X247 Y-631 Z1
G01 X452 Y-631 Z1
G01 X453 Y-631 Z2
G01 X699 Y-631 Z2
G01 X699 Y-632 Z2
G01 X699 Y-633 Z2
G01 X699 Y-634 Z2
G01 X444 Y-634 Z2
G01 X443 Y-634 Z1
G01 X256 Y-634 Z1
G01 X255 Y-634 Z2
G01 X0 Y-634 Z2
G01 X0 Y-635 Z2
G01 X0 Y-636 Z2
G01 X0 Y-637 Z2
G01 X264 Y-637 Z2
G01 X265 Y-637 Z1
G01 X434 Y-637 Z1
G01 X435 Y-637 Z2
G01 X699 Y-637 Z2
G01 X699 Y-638 Z2
G01 X699 Y-639 Z2
G01 X699 Y-640 Z2
G01 X424 Y-640 Z2
G01 X423 Y-640 Z1
G01 X276 Y-640 Z1
G01 X275 Y-640 Z2
G01 X0 Y-640 Z2
G01 X0 Y-641 Z2
G01 X0 Y-642 Z2
G01 X0 Y-643 Z2
G01 X288 Y-643 Z2
G01 X289 Y-643 Z1
G01 X410 Y-643 Z1
G01 X411 Y-643 Z2
G01 X699 Y-643 Z2
G01 X699 Y-644 Z2
G01 X699 Y-645 Z2
G01 X699 Y-646 Z2
G01 X394 Y-646 Z2
G01 X393 Y-646 Z1
G01 X306 Y-646 Z1
G01 X305 Y-646 Z2
G01 X0 Y-646 Z2
G01 X0 Y-647 Z2
G01 X0 Y-648 Z2
G01 X0 Y-649 Z2
G01 X334 Y-649 Z2
G01 X335 Y-649 Z1
G01 X364 Y-649 Z1
G01 X365 Y-649 Z2
G01 X699 Y-649 Z2
G01 X699 Y-650 Z2
G01 X699 Y-651 Z2
G01 X699 Y-652 Z2
G01 X0 Y-652 Z2
G01 X0 Y-653 Z2
G01 X0 Y-654 Z2
G01 X0 Y-655 Z2
G01 X699 Y-655 Z2
G01 X699 Y-656 Z2
G01 X699 Y-657 Z2
G01 X699 Y-658 Z2
G01 X0 Y-658 Z2
G01 X0 Y-659 Z2
G01 X0 Y-660 Z2
G01 X0 Y-661 Z2
G01 X699 Y-661 Z2
G01 X699 Y-662 Z2
G01 X699 Y-663 Z2
G01 X699 Y-664 Z2
G01 X0 Y-664 Z2
G01 X0 Y-665 Z2
G01 X0 Y-666 Z2
G01 X0 Y-667 Z2
G01 X699 Y-667 Z2
G01 X699 Y-668 Z2
G01 X699 Y-669 Z2
G01 X699 Y-670 Z2
G01 X0 Y-670 Z2
G01 X0 Y-671 Z2
G01 X0 Y-672 Z2
G01 X0 Y-673 Z2
G01 X699 Y-673 Z2
G01 X699 Y-674 Z2
G01 X699 Y-675 Z2
G01 X699 Y-676 Z2
G01 X0 Y-676 Z2
G01 X0 Y-677 Z2
G01 X0 Y-678 Z2
G01 X0 Y-679 Z2
G01 X699 Y-679 Z2
G01 X699 Y-680 Z2
G01 X699 Y-681 Z2
G01 X699 Y-682 Z2
G01 X0 Y-682 Z2
G01 X0 Y-683 Z2
G01 X0 Y-684 Z2
G01 X0 Y-685 Z2
G01 X699 Y-685 Z2
G01 X699 Y-686 Z2
G01 X699 Y-687 Z2
G01 X699 Y-688 Z2
G01 X0 Y-688 Z2
G01 X0 Y-689 Z2
G01 X0 Y-690 Z2
G01 X0 Y-691 Z2
G01 X699 Y-691 Z2
G01 X699 Y-692 Z2
G01 X699 Y-693 Z2
G01 X699 Y-694 Z2
G01 X0 Y-694 Z2
G01 X0 Y-695 Z2
G01 X0 Y-696 Z2
G01 X0 Y-697 Z2
G01 X699 Y-697 Z2
G01 X699 Y-698 Z2
G01 X699 Y-699 Z2
G01 X699 Y-700 Z2
G01 X0 Y-700 Z2
G01 X0 Y-701 Z2
G01 X1 Y-1 Z2
G01 X699 Y-1 Z2
G01 X699 Y-2 Z2
G01 X699 Y-3 Z2
G01 X699 Y-4 Z2
G01 X0 Y-4 Z2
G01 X0 Y-5 Z2
G01 X0 Y-6 Z2
G01 X0 Y-7 Z2
G01 X699 Y-7 Z2
G01 X699 Y-8 Z2
G01 X699 Y-9 Z2
G01 X699 Y-10 Z2
G01 X0 Y-10 Z2
G01 X0 Y-11 Z2
G01 X0 Y-12 Z2
G01 X0 Y-13 Z2
G01 X699 Y-13 Z2
G01 X699 Y-14 Z2
G01 X699 Y-15 Z2
G01 X699 Y-16 Z2
G01 X0 Y-16 Z2
G01 X0 Y-17 Z2
G01 X0 Y-18 Z2
G01 X0 Y-19 Z2
G01 X699 Y-19 Z2
G01 X699 Y-20 Z2
G01 X699 Y-21 Z2
G01 X699 Y-22 Z2
G01 X0 Y-22 Z2
G01 X0 Y-23 Z2
G01 X0 Y-24 Z2
G01 X0 Y-25 Z2
G01 X699 Y-25 Z2
G01 X699 Y-26 Z2
G01 X699 Y-27 Z2
G01 X699 Y-28 Z2
G01 X0 Y-28 Z2
G01 X0 Y-29 Z2
G01 X0 Y-30 Z2
G01 X0 Y-31 Z2
G01 X699 Y-31 Z2
G01 X699 Y-32 Z2
G01 X699 Y-33 Z2
G01 X699 Y-34 Z2
G01 X0 Y-34 Z2
G01 X0 Y-35 Z2
G01 X0 Y-36 Z2
G01 X0 Y-37 Z2
G01 X699 Y-37 Z2
G01 X699 Y-38 Z2
G01 X699 Y-39 Z2
G01 X699 Y-40 Z2
G01 X0 Y-40 Z2
G01 X0 Y-41 Z2
G01 X0 Y-42 Z2
G01 X0 Y-43 Z2
G01 X699 Y-43 Z2
G01 X699 Y-44 Z2
G01 X699 Y-45 Z2
G01 X699 Y-46 Z2
G01 X0 Y-46 Z2
G01 X0 Y-47 Z2
G01 X0 Y-48 Z2
G01 X0 Y-49 Z2
G01 X699 Y-49 Z2
G01 X699 Y-50 Z2
G01 X699 Y-51 Z2
G01 X699 Y-52 Z2
G01 X387 Y-52 Z2
G01 X386 Y-52 Z0
G01 X366 Y-52 Z0
G01 X365 Y-52 Z2
G01 X364 Y-52 Z2
G01 X363 Y-52 Z0
G01 X328 Y-52 Z0
G01 X327 Y-52 Z2
G01 X326 Y-52 Z2
G01 X325 Y-52 Z0
G01 X313 Y-52 Z0
G01 X312 Y-52 Z2
G01 X0 Y-52 Z2
G01 X0 Y-53 Z2
G01 X0 Y-54 Z2
G01 X0 Y-55 Z2
G01 X293 Y-55 Z2
G01 X294 Y-55 Z0
G01 X326 Y-55 Z0
G01 X327 Y-55 Z2
G01 X328 Y-55 Z2
G01 X329 Y-55 Z0
G01 X359 Y-55 Z0
G01 X360 Y-55 Z2
G01 X361 Y-55 Z2
G01 X362 Y-55 Z0
G01 X395 Y-55 Z0
G01 X396 Y-55 Z2
G01 X397 Y-55 Z2
G01 X398 Y-55 Z0
G01 X403 Y-55 Z0
G01 X404 Y-55 Z2
G01 X699 Y-55 Z2
G01 X699 Y-56 Z2
G01 X699 Y-57 Z2
G01 X699 Y-58 Z2
G01 X420 Y-58 Z2
G01 X419 Y-58 Z0
G01 X285 Y-58 Z0
G01 X284 Y-58 Z2
G01 X283 Y-58 Z2
G01 X282 Y-58 Z0
G01 X280 Y-58 Z0
G01 X279 Y-58 Z2
G01 X0 Y-58 Z2
G01 X0 Y-59 Z2
G01 X0 Y-60 Z2
G01 X0 Y-61 Z2
G01 X268 Y-61 Z2
G01 X269 Y-61 Z0
G01 X273 Y-61 Z0
G01 X274 Y-61 Z2
G01 X275 Y-61 Z2
G01 X276 Y-61 Z0
G01 X426 Y-61 Z0
G01 X427 Y-61 Z2
G01 X428 Y-61 Z2
G01 X429 Y-61 Z0
G01 X430 Y-61 Z0
G01 X431 Y-61 Z2
G01 X699 Y-61 Z2
G01 X699 Y-62 Z2
G01 X699 Y-63 Z2
G01 X699 Y-64 Z2
G01 X441 Y-64 Z2
G01 X440 Y-64 Z0
G01 X410 Y-64 Z0
G01 X409 Y-64 Z2
G01 X408 Y-64 Z2
G01 X407 Y-64 Z0
G01 X259 Y-64 Z0
G01 X258 Y-64 Z2
G01 X0 Y-64 Z2
G01 X0 Y-65 Z2
G01 X0 Y-66 Z2
G01 X0 Y-67 Z2
G01 X249 Y-67 Z2
G01 X250 Y-67 Z0
G01 X376 Y-67 Z0
G01 X377 Y-67 Z2
G01 X378 Y-67 Z2
G01 X379 Y-67 Z0
G01 X381 Y-67 Z0
G01 X382 Y-67 Z2
G01 X383 Y-67 Z2
G01 X384 Y-67 Z0
G01 X385 Y-67 Z0
G01 X386 Y-67 Z2
G01 X407 Y-67 Z2
G01 X408 Y-67 Z0
G01 X413 Y-67 Z0
G01 X414 Y-67 Z2
G01 X415 Y-67 Z2
G01 X416 Y-67 Z0
G01 X449 Y-67 Z0
G01 X450 Y-67 Z2
G01 X699 Y-67 Z2
G01 X699 Y-68 Z2
G01 X699 Y-69 Z2
G01 X699 Y-70 Z2
G01 X458 Y-70 Z2
G01 X457 Y-70 Z0
G01 X450 Y-70 Z0
G01 X449 Y-70 Z2
G01 X448 Y-70 Z2
G01 X447 Y-70 Z0
G01 X446 Y-70 Z2
G01 X445 Y-70 Z2
G01 X444 Y-70 Z0
G01 X412 Y-70 Z0
G01 X411 Y-70 Z2
G01 X382 Y-70 Z2
G01 X381 Y-70 Z0
G01 X252 Y-70 Z0
G01 X251 Y-70 Z2
G01 X250 Y-70 Z2
G01 X249 Y-70 Z0
G01 X244 Y-70 Z0
G01 X243 Y-70 Z2
G01 X0 Y-70 Z2
G01 X0 Y-71 Z2
G01 X0 Y-72 Z2
G01 X0 Y-73 Z2
G01 X233 Y-73 Z2
G01 X234 Y-73 Z0
G01 X379 Y-73 Z0
G01 X380 Y-73 Z2
G01 X415 Y-73 Z2
G01 X416 Y-73 Z0
G01 X465 Y-73 Z0
G01 X466 Y-73 Z2
G01 X699 Y-73 Z2
G01 X699 Y-74 Z2
G01 X699 Y-75 Z2
G01 X699 Y-76 Z2
G01 X473 Y-76 Z2
G01 X472 Y-76 Z0
G01 X416 Y-76 Z0
G01 X415 Y-76 Z2
G01 X378 Y-76 Z2
G01 X377 Y-76 Z0
G01 X241 Y-76 Z0
G01 X240 Y-76 Z2
G01 X239 Y-76 Z2
G01 X238 Y-76 Z0
G01 X227 Y-76 Z0
G01 X226 Y-76 Z2
G01 X0 Y-76 Z2
G01 X0 Y-77 Z2
G01 X0 Y-78 Z2
G01 X0 Y-79 Z2
G01 X220 Y-79 Z2
G01 X221 Y-79 Z0
G01 X222 Y-79 Z2
G01 X223 Y-79 Z2
G01 X224 Y-79 Z0
G01 X230 Y-79 Z0
G01 X231 Y-79 Z2
G01 X232 Y-79 Z2
G01 X233 Y-79 Z0
G01 X376 Y-79 Z0
G01 X377 Y-79 Z2
G01 X416 Y-79 Z2
G01 X417 Y-79 Z0
G01 X478 Y-79 Z0
G01 X479 Y-79 Z2
G01 X699 Y-79 Z2
G01 X699 Y-80 Z2
G01 X699 Y-81 Z2
G01 X699 Y-82 Z2
G01 X485 Y-82 Z2
G01 X484 Y-82 Z0
G01 X482 Y-82 Z0
G01 X481 Y-82 Z2
G01 X480 Y-82 Z2
G01 X479 Y-82 Z0
G01 X417 Y-82 Z0
G01 X416 Y-82 Z2
G01 X377 Y-82 Z2
G01 X376 Y-82 Z0
G01 X329 Y-82 Z0
G01 X328 Y-82 Z2
G01 X327 Y-82 Z2
G01 X326 Y-82 Z0
G01 X325 Y-82 Z0
G01 X324 Y-82 Z2
G01 X323 Y-82 Z2
G01 X322 Y-82 Z0
G01 X215 Y-82 Z0
G01 X214 Y-82 Z2
G01 X0 Y-82 Z2
G01 X0 Y-83 Z2
G01 X0 Y-84 Z2
G01 X0 Y-85 Z2
G01 X208 Y-85 Z2
G01 X209 Y-85 Z0
G01 X212 Y-85 Z0
G01 X213 Y-85 Z2
G01 X214 Y-85 Z2
G01 X215 Y-85 Z0
G01 X325 Y-85 Z0
G01 X326 Y-85 Z2
G01 X327 Y-85 Z2
G01 X328 Y-85 Z0
G01 X376 Y-85 Z0
G01 X377 Y-85 Z2
G01 X416 Y-85 Z2
G01 X417 Y-85 Z0
G01 X490 Y-85 Z0
G01 X491 Y-85 Z2
G01 X699 Y-85 Z2
G01 X699 Y-86 Z2
G01 X699 Y-87 Z2
G01 X699 Y-88 Z2
G01 X496 Y-88 Z2
G01 X495 Y-88 Z0
G01 X417 Y-88 Z0
G01 X416 Y-88 Z2
G01 X377 Y-88 Z2
G01 X376 Y-88 Z0
G01 X332 Y-88 Z0
G01 X331 Y-88 Z2
G01 X292 Y-88 Z2
G01 X291 Y-88 Z0
G01 X285 Y-88 Z0
G01 X284 Y-88 Z2
G01 X283 Y-88 Z2
G01 X282 Y-88 Z0
G01 X279 Y-88 Z0
G01 X278 Y-88 Z2
G01 X277 Y-88 Z2
G01 X276 Y-88 Z0
G01 X210 Y-88 Z0
G01 X209 Y-88 Z2
G01 X206 Y-88 Z2
G01 X205 Y-88 Z0
G01 X204 Y-88 Z0
G01 X203 Y-88 Z2
G01 X0 Y-88 Z2
G01 X0 Y-89 Z2
G01 X0 Y-90 Z2
G01 X0 Y-91 Z2
G01 X197 Y-91 Z2
G01 X198 Y-91 Z0
G01 X282 Y-91 Z0
G01 X283 Y-91 Z2
G01 X342 Y-91 Z2
G01 X343 Y-91 Z0
G01 X377 Y-91 Z0
G01 X378 Y-91 Z2
G01 X415 Y-91 Z2
G01 X416 Y-91 Z0
G01 X501 Y-91 Z0
G01 X502 Y-91 Z2
G01 X699 Y-91 Z2
G01 X699 Y-92 Z2
G01 X699 Y-93 Z2
G01 X699 Y-94 Z2
G01 X505 Y-94 Z2
G01 X504 Y-94 Z0
G01 X498 Y-94 Z0
G01 X497 Y-94 Z2
G01 X496 Y-94 Z2
G01 X495 Y-94 Z0
G01 X415 Y-94 Z0
G01 X414 Y-94 Z2
G01 X379 Y-94 Z2
G01 X378 Y-94 Z0
G01 X347 Y-94 Z0
G01 X346 Y-94 Z2
G01 X277 Y-94 Z2
G01 X276 Y-94 Z0
G01 X229 Y-94 Z0
G01 X228 Y-94 Z2
G01 X227 Y-94 Z2
G01 X226 Y-94 Z0
G01 X225 Y-94 Z0
G01 X224 Y-94 Z2
G01 X213 Y-94 Z2
G01 X212 Y-94 Z0
G01 X193 Y-94 Z0
G01 X192 Y-94 Z2
G01 X0 Y-94 Z2
G01 X0 Y-95 Z2
G01 X0 Y-96 Z2
G01 X0 Y-97 Z2
G01 X188 Y-97 Z2
G01 X189 Y-97 Z0
G01 X190 Y-97 Z2
G01 X191 Y-97 Z2
G01 X192 Y-97 Z0
G01 X206 Y-97 Z0
G01 X207 Y-97 Z2
G01 X230 Y-97 Z2
G01 X231 Y-97 Z0
G01 X237 Y-97 Z0
G01 X238 Y-97 Z2
G01 X239 Y-97 Z2
G01 X240 Y-97 Z0
G01 X272 Y-97 Z0
G01 X273 Y-97 Z2
G01 X350 Y-97 Z2
G01 X351 Y-97 Z0
G01 X352 Y-97 Z0
G01 X353 Y-97 Z2
G01 X354 Y-97 Z2
G01 X355 Y-97 Z0
G01 X375 Y-97 Z0
G01 X376 Y-97 Z2
G01 X377 Y-97 Z2
G01 X378 Y-97 Z0
G01 X380 Y-97 Z0
G01 X381 Y-97 Z2
G01 X412 Y-97 Z2
G01 X413 Y-97 Z0
G01 X510 Y-97 Z0
G01 X511 Y-97 Z2
G01 X699 Y-97 Z2
G01 X699 Y-98 Z2
G01 X699 Y-99 Z2
G01 X699 Y-100 Z2
G01 X516 Y-100 Z2
G01 X515 Y-100 Z0
G01 X506 Y-100 Z0
G01 X505 Y-100 Z2
G01 X504 Y-100 Z2
G01 X503 Y-100 Z0
G01 X411 Y-100 Z0
G01 X410 Y-100 Z2
G01 X383 Y-100 Z2
G01 X382 Y-100 Z0
G01 X356 Y-100 Z0
G01 X355 Y-100 Z2
G01 X268 Y-100 Z2
G01 X267 Y-100 Z0
G01 X235 Y-100 Z0
G01 X234 Y-100 Z2
G01 X203 Y-100 Z2
G01 X202 Y-100 Z0
G01 X184 Y-100 Z0
G01 X183 Y-100 Z2
G01 X0 Y-100 Z2
G01 X0 Y-101 Z2
G01 X0 Y-102 Z2
G01 X0 Y-103 Z2
G01 X179 Y-103 Z2
G01 X180 Y-103 Z0
G01 X183 Y-103 Z0
G01 X184 Y-103 Z2
G01 X185 Y-103 Z2
G01 X186 Y-103 Z0
G01 X200 Y-103 Z0
G01 X201 Y-103 Z2
G01 X238 Y-103 Z2
G01 X239 Y-103 Z0
G01 X264 Y-103 Z0
G01 X265 Y-103 Z2
G01 X360 Y-103 Z2
G01 X361 Y-103 Z0
G01 X379 Y-103 Z0
G01 X380 Y-103 Z2
G01 X381 Y-103 Z2
G01 X382 Y-103 Z0
G01 X384 Y-103 Z0
G01 X385 Y-103 Z2
G01 X386 Y-103 Z2
G01 X387 Y-103 Z0
G01 X388 Y-103 Z2
G01 X405 Y-103 Z2
G01 X406 Y-103 Z0
G01 X519 Y-103 Z0
G01 X520 Y-103 Z2
G01 X699 Y-103 Z2
G01 X699 Y-104 Z2
G01 X699 Y-105 Z2
G01 X699 Y-106 Z2
G01 X525 Y-106 Z2
G01 X524 Y-106 Z0
G01 X505 Y-106 Z0
G01 X504 Y-106 Z2
G01 X503 Y-106 Z2
G01 X502 Y-106 Z0
G01 X498 Y-106 Z0
G01 X497 Y-106 Z2
G01 X495 Y-106 Z2
G01 X494 Y-106 Z0
G01 X493 Y-106 Z0
G01 X492 Y-106 Z2
G01 X453 Y-106 Z2
G01 X452 Y-106 Z0
G01 X451 Y-106 Z0
G01 X450 Y-106 Z2
G01 X448 Y-106 Z2
G01 X447 Y-106 Z0
G01 X362 Y-106 Z0
G01 X361 Y-106 Z2
G01 X262 Y-106 Z2
G01 X261 Y-106 Z0
G01 X238 Y-106 Z0
G01 X237 Y-106 Z2
G01 X200 Y-106 Z2
G01 X199 Y-106 Z0
G01 X175 Y-106 Z0
G01 X174 Y-106 Z2
G01 X0 Y-106 Z2
G01 X0 Y-107 Z2
G01 X0 Y-108 Z2
G01 X0 Y-109 Z2
G01 X170 Y-109 Z2
G01 X171 Y-109 Z0
G01 X172 Y-109 Z0
G01 X173 Y-109 Z2
G01 X175 Y-109 Z2
G01 X176 Y-109 Z0
G01 X198 Y-109 Z0
G01 X199 Y-109 Z2
G01 X238 Y-109 Z2
G01 X239 Y-109 Z0
G01 X258 Y-109 Z0
G01 X259 Y-109 Z2
G01 X364 Y-109 Z2
G01 X365 Y-109 Z0
G01 X441 Y-109 Z0
G01 X442 Y-109 Z2
G01 X501 Y-109 Z2
G01 X502 Y-109 Z0
G01 X528 Y-109 Z0
G01 X529 Y-109 Z2
G01 X699 Y-109 Z2
G01 X699 Y-110 Z2
G01 X699 Y-111 Z2
G01 X699 Y-112 Z2
G01 X533 Y-112 Z2
G01 X532 Y-112 Z0
G01 X508 Y-112 Z0
G01 X507 Y-112 Z2
G01 X438 Y-112 Z2
G01 X437 Y-112 Z0
G01 X431 Y-112 Z0
G01 X430 Y-112 Z2
G01 X429 Y-112 Z2
G01 X428 Y-112 Z0
G01 X370 Y-112 Z0
G01 X369 Y-112 Z2
G01 X256 Y-112 Z2
G01 X255 Y-112 Z0
G01 X250 Y-112 Z0
G01 X249 Y-112 Z2
G01 X248 Y-112 Z2
G01 X247 Y-112 Z0
G01 X239 Y-112 Z0
G01 X238 Y-112 Z2
G01 X199 Y-112 Z2
G01 X198 Y-112 Z0
G01 X167 Y-112 Z0
G01 X166 Y-112 Z2
G01 X0 Y-112 Z2
G01 X0 Y-113 Z2
G01 X0 Y-114 Z2
G01 X0 Y-115 Z2
G01 X162 Y-115 Z2
G01 X163 Y-115 Z0
G01 X196 Y-115 Z0
G01 X197 Y-115 Z2
G01 X238 Y-115 Z2
G01 X239 Y-115 Z0
G01 X253 Y-115 Z0
G01 X254 Y-115 Z2
G01 X369 Y-115 Z2
G01 X370 Y-115 Z0
G01 X374 Y-115 Z0
G01 X375 Y-115 Z2
G01 X376 Y-115 Z2
G01 X377 Y-115 Z0
G01 X433 Y-115 Z0
G01 X434 Y-115 Z2
G01 X511 Y-115 Z2
G01 X512 Y-115 Z0
G01 X530 Y-115 Z0
G01 X531 Y-115 Z2
G01 X532 Y-115 Z2
G01 X533 Y-115 Z0
G01 X535 Y-115 Z0
G01 X536 Y-115 Z2
G01 X699 Y-115 Z2
G01 X699 Y-116 Z2
G01 X699 Y-117 Z2
G01 X699 Y-118 Z2
G01 X540 Y-118 Z2
G01 X539 Y-118 Z0
G01 X517 Y-118 Z0
G01 X516 Y-118 Z2
G01 X429 Y-118 Z2
G01 X428 Y-118 Z0
G01 X372 Y-118 Z0
G01 X371 Y-118 Z2
G01 X252 Y-118 Z2
G01 X251 Y-118 Z0
G01 X239 Y-118 Z0
G01 X238 Y-118 Z2
G01 X199 Y-118 Z2
G01 X198 Y-118 Z0
G01 X197 Y-118 Z0
G01 X196 Y-118 Z2
G01 X195 Y-118 Z2
G01 X194 Y-118 Z0
G01 X169 Y-118 Z0
G01 X168 Y-118 Z2
G01 X167 Y-118 Z2
G01 X166 Y-118 Z0
G01 X160 Y-118 Z0
G01 X159 Y-118 Z2
G01 X0 Y-118 Z2
G01 X0 Y-119 Z2
G01 X0 Y-120 Z2
G01 X0 Y-121 Z2
G01 X155 Y-121 Z2
G01 X156 Y-121 Z0
G01 X199 Y-121 Z0
G01 X200 Y-121 Z2
G01 X237 Y-121 Z2
G01 X238 Y-121 Z0
G01 X249 Y-121 Z0
G01 X250 Y-121 Z2
G01 X373 Y-121 Z2
G01 X374 Y-121 Z0
G01 X425 Y-121 Z0
G01 X426 Y-121 Z2
G01 X521 Y-121 Z2
G01 X522 Y-121 Z0
G01 X543 Y-121 Z0
G01 X544 Y-121 Z2
G01 X699 Y-121 Z2
G01 X699 Y-122 Z2
G01 X699 Y-123 Z2
G01 X699 Y-124 Z2
G01 X545 Y-124 Z2
G01 X544 Y-124 Z0
G01 X523 Y-124 Z0
G01 X522 Y-124 Z2
G01 X423 Y-124 Z2
G01 X422 Y-124 Z0
G01 X375 Y-124 Z0
G01 X374 Y-124 Z2
G01 X249 Y-124 Z2
G01 X248 Y-124 Z0
G01 X242 Y-124 Z0
G01 X241 Y-124 Z2
G01 X240 Y-124 Z2
G01 X239 Y-124 Z0
G01 X237 Y-124 Z0
G01 X236 Y-124 Z2
G01 X201 Y-124 Z2
G01 X200 Y-124 Z0
G01 X160 Y-124 Z0
G01 X159 Y-124 Z2
G01 X158 Y-124 Z2
G01 X157 Y-124 Z0
G01 X153 Y-124 Z0
G01 X152 Y-124 Z2
G01 X0 Y-124 Z2
G01 X0 Y-125 Z2
G01 X0 Y-126 Z2
G01 X0 Y-127 Z2
G01 X148 Y-127 Z2
G01 X149 Y-127 Z0
G01 X155 Y-127 Z0
G01 X156 Y-127 Z2
G01 X157 Y-127 Z2
G01 X158 Y-127 Z0
G01 X200 Y-127 Z0
G01 X201 Y-127 Z2
G01 X234 Y-127 Z2
G01 X235 Y-127 Z0
G01 X238 Y-127 Z0
G01 X239 Y-127 Z2
G01 X240 Y-127 Z2
G01 X241 Y-127 Z0
G01 X246 Y-127 Z0
G01 X247 Y-127 Z2
G01 X376 Y-127 Z2
G01 X377 Y-127 Z0
G01 X419 Y-127 Z0
G01 X420 Y-127 Z2
G01 X527 Y-127 Z2
G01 X528 Y-127 Z0
G01 X545 Y-127 Z0
G01 X546 Y-127 Z2
G01 X547 Y-127 Z2
G01 X548 Y-127 Z0
G01 X550 Y-127 Z0
G01 X551 Y-127 Z2
G01 X699 Y-127 Z2
G01 X699 Y-128 Z2
G01 X699 Y-129 Z2
G01 X699 Y-130 Z2
G01 X554 Y-130 Z2
G01 X553 Y-130 Z0
G01 X529 Y-130 Z0
G01 X528 Y-130 Z2
G01 X417 Y-130 Z2
G01 X416 Y-130 Z0
G01 X378 Y-130 Z0
G01 X377 Y-130 Z2
G01 X246 Y-130 Z2
G01 X245 Y-130 Z0
G01 X231 Y-130 Z0
G01 X230 Y-130 Z2
G01 X207 Y-130 Z2
G01 X206 Y-130 Z0
G01 X153 Y-130 Z0
G01 X152 Y-130 Z2
G01 X151 Y-130 Z2
G01 X150 Y-130 Z0
G01 X149 Y-130 Z2
G01 X148 Y-130 Z2
G01 X147 Y-130 Z0
G01 X146 Y-130 Z0
G01 X145 Y-130 Z2
G01 X0 Y-130 Z2
G01 X0 Y-131 Z2
G01 X0 Y-132 Z2
G01 X0 Y-133 Z2
G01 X142 Y-133 Z2
G01 X143 Y-133 Z0
G01 X145 Y-133 Z0
G01 X146 Y-133 Z2
G01 X147 Y-133 Z2
G01 X148 Y-133 Z0
G01 X211 Y-133 Z0
G01 X212 Y-133 Z2
G01 X224 Y-133 Z2
G01 X225 Y-133 Z0
G01 X244 Y-133 Z0
G01 X245 Y-133 Z2
G01 X378 Y-133 Z2
G01 X379 Y-133 Z0
G01 X414 Y-133 Z0
G01 X415 Y-133 Z2
G01 X530 Y-133 Z2
G01 X531 Y-133 Z0
G01 X534 Y-133 Z0
G01 X535 Y-133 Z2
G01 X536 Y-133 Z2
G01 X537 Y-133 Z0
G01 X556 Y-133 Z0
G01 X557 Y-133 Z2
G01 X699 Y-133 Z2
G01 X699 Y-134 Z2
G01 X699 Y-135 Z2
G01 X699 Y-136 Z2
G01 X560 Y-136 Z2
G01 X559 Y-136 Z0
G01 X533 Y-136 Z0
G01 X532 Y-136 Z2
G01 X413 Y-136 Z2
G01 X412 Y-136 Z0
G01 X411 Y-136 Z0
G01 X410 Y-136 Z2
G01 X409 Y-136 Z2
G01 X408 Y-136 Z0
G01 X380 Y-136 Z0
G01 X379 Y-136 Z2
G01 X244 Y-136 Z2
G01 X243 Y-136 Z0
G01 X212 Y-136 Z0
G01 X211 Y-136 Z2
G01 X210 Y-136 Z2
G01 X209 Y-136 Z0
G01 X147 Y-136 Z0
G01 X146 Y-136 Z2
G01 X145 Y-136 Z2
G01 X144 Y-136 Z0
G01 X140 Y-136 Z0
G01 X139 Y-136 Z2
G01 X0 Y-136 Z2
G01 X0 Y-137 Z2
G01 X0 Y-138 Z2
G01 X0 Y-139 Z2
G01 X136 Y-139 Z2
G01 X137 Y-139 Z0
G01 X139 Y-139 Z0
G01 X140 Y-139 Z2
G01 X141 Y-139 Z2
G01 X142 Y-139 Z0
G01 X242 Y-139 Z0
G01 X243 Y-139 Z2
G01 X380 Y-139 Z2
G01 X381 Y-139 Z0
G01 X410 Y-139 Z0
G01 X411 Y-139 Z2
G01 X534 Y-139 Z2
G01 X535 Y-139 Z0
G01 X562 Y-139 Z0
G01 X563 Y-139 Z2
G01 X699 Y-139 Z2
G01 X699 Y-140 Z2
G01 X699 Y-141 Z2
G01 X699 Y-142 Z2
G01 X566 Y-142 Z2
G01 X565 Y-142 Z0
G01 X536 Y-142 Z0
G01 X535 Y-142 Z2
G01 X410 Y-142 Z2
G01 X409 Y-142 Z0
G01 X381 Y-142 Z0
G01 X380 Y-142 Z2
G01 X243 Y-142 Z2
G01 X242 Y-142 Z0
G01 X134 Y-142 Z0
G01 X133 Y-142 Z2
G01 X0 Y-142 Z2
G01 X0 Y-143 Z2
G01 X0 Y-144 Z2
G01 X0 Y-145 Z2
G01 X130 Y-145 Z2
G01 X131 Y-145 Z0
G01 X134 Y-145 Z0
G01 X135 Y-145 Z2
G01 X136 Y-145 Z2
G01 X137 Y-145 Z0
G01 X159 Y-145 Z0
G01 X160 Y-145 Z2
G01 X161 Y-145 Z2
G01 X162 Y-145 Z0
G01 X241 Y-145 Z0
G01 X242 Y-145 Z2
G01 X381 Y-145 Z2
G01 X382 Y-145 Z0
G01 X407 Y-145 Z0
G01 X408 Y-145 Z2
G01 X537 Y-145 Z2
G01 X538 Y-145 Z0
G01 X542 Y-145 Z0
G01 X543 Y-145 Z2
G01 X544 Y-145 Z2
G01 X545 Y-145 Z0
G01 X568 Y-145 Z0
G01 X569 Y-145 Z2
G01 X699 Y-145 Z2
G01 X699 Y-146 Z2
G01 X699 Y-147 Z2
G01 X699 Y-148 Z2
G01 X572 Y-148 Z2
G01 X571 Y-148 Z0
G01 X539 Y-148 Z0
G01 X538 Y-148 Z2
G01 X407 Y-148 Z2
G01 X406 Y-148 Z0
G01 X382 Y-148 Z0
G01 X381 Y-148 Z2
G01 X242 Y-148 Z2
G01 X241 Y-148 Z0
G01 X201 Y-148 Z0
G01 X200 Y-148 Z2
G01 X199 Y-148 Z2
G01 X198 Y-148 Z0
G01 X166 Y-148 Z0
G01 X165 Y-148 Z2
G01 X164 Y-148 Z2
G01 X163 Y-148 Z0
G01 X132 Y-148 Z0
G01 X131 Y-148 Z2
G01 X130 Y-148 Z2
G01 X129 Y-148 Z0
G01 X128 Y-148 Z0
G01 X127 Y-148 Z2
G01 X0 Y-148 Z2
G01 X0 Y-149 Z2
G01 X0 Y-150 Z2
G01 X0 Y-151 Z2
G01 X125 Y-151 Z2
G01 X126 Y-151 Z0
G01 X128 Y-151 Z0
G01 X129 Y-151 Z2
G01 X130 Y-151 Z2
G01 X131 Y-151 Z0
G01 X159 Y-151 Z0
G01 X160 Y-151 Z2
G01 X193 Y-151 Z2
G01 X194 Y-151 Z0
G01 X241 Y-151 Z0
G01 X242 Y-151 Z2
G01 X381 Y-151 Z2
G01 X382 Y-151 Z0
G01 X405 Y-151 Z0
G01 X406 Y-151 Z2
G01 X539 Y-151 Z2
G01 X540 Y-151 Z0
G01 X573 Y-151 Z0
G01 X574 Y-151 Z2
G01 X699 Y-151 Z2
G01 X699 Y-152 Z2
G01 X699 Y-153 Z2
G01 X699 Y-154 Z2
G01 X577 Y-154 Z2
G01 X576 Y-154 Z0
G01 X545 Y-154 Z0
G01 X544 Y-154 Z2
G01 X543 Y-154 Z2
G01 X542 Y-154 Z0
G01 X541 Y-154 Z0
G01 X540 Y-154 Z2
G01 X405 Y-154 Z2
G01 X404 Y-154 Z0
G01 X382 Y-154 Z0
G01 X381 Y-154 Z2
G01 X242 Y-154 Z2
G01 X241 Y-154 Z0
G01 X203 Y-154 Z0
G01 X202 Y-154 Z2
G01 X151 Y-154 Z2
G01 X150 Y-154 Z0
G01 X146 Y-154 Z0
G01 X145 Y-154 Z2
G01 X144 Y-154 Z2
G01 X143 Y-154 Z0
G01 X123 Y-154 Z0
G01 X122 Y-154 Z2
G01 X0 Y-154 Z2
G01 X0 Y-155 Z2
G01 X0 Y-156 Z2
G01 X0 Y-157 Z2
G01 X119 Y-157 Z2
G01 X120 Y-157 Z0
G01 X121 Y-157 Z2
G01 X122 Y-157 Z2
G01 X123 Y-157 Z0
G01 X125 Y-157 Z0
G01 X126 Y-157 Z2
G01 X127 Y-157 Z2
G01 X128 Y-157 Z0
G01 X142 Y-157 Z0
G01 X143 Y-157 Z2
G01 X209 Y-157 Z2
G01 X210 Y-157 Z0
G01 X241 Y-157 Z0
G01 X242 Y-157 Z2
G01 X381 Y-157 Z2
G01 X382 Y-157 Z0
G01 X403 Y-157 Z0
G01 X404 Y-157 Z2
G01 X541 Y-157 Z2
G01 X542 Y-157 Z0
G01 X579 Y-157 Z0
G01 X580 Y-157 Z2
G01 X699 Y-157 Z2
G01 X699 Y-158 Z2
G01 X699 Y-159 Z2
G01 X699 Y-160 Z2
G01 X582 Y-160 Z2
G01 X581 Y-160 Z0
G01 X542 Y-160 Z0
G01 X541 Y-160 Z2
G01 X404 Y-160 Z2
G01 X403 Y-160 Z0
G01 X382 Y-160 Z0
G01 X381 Y-160 Z2
G01 X242 Y-160 Z2
G01 X241 Y-160 Z0
G01 X215 Y-160 Z0
G01 X214 Y-160 Z2
G01 X139 Y-160 Z2
G01 X138 Y-160 Z0
G01 X119 Y-160 Z0
G01 X118 Y-160 Z2
G01 X0 Y-160 Z2
G01 X0 Y-161 Z2
G01 X0 Y-162 Z2
G01 X0 Y-163 Z2
G01 X114 Y-163 Z2
G01 X115 Y-163 Z0
G01 X129 Y-163 Z0
G01 X130 Y-163 Z2
G01 X131 Y-163 Z2
G01 X132 Y-163 Z0
G01 X134 Y-163 Z0
G01 X135 Y-163 Z2
G01 X218 Y-163 Z2
G01 X219 Y-163 Z0
G01 X241 Y-163 Z0
G01 X242 Y-163 Z2
G01 X381 Y-163 Z2
G01 X382 Y-163 Z0
G01 X402 Y-163 Z0
G01 X403 Y-163 Z2
G01 X542 Y-163 Z2
G01 X543 Y-163 Z0
G01 X584 Y-163 Z0
G01 X585 Y-163 Z2
G01 X699 Y-163 Z2
G01 X699 Y-164 Z2
G01 X699 Y-165 Z2
G01 X699 Y-166 Z2
G01 X587 Y-166 Z2
G01 X586 Y-166 Z0
G01 X543 Y-166 Z0
G01 X542 Y-166 Z2
G01 X403 Y-166 Z2
G01 X402 Y-166 Z0
G01 X385 Y-166 Z0
G01 X384 Y-166 Z2
G01 X383 Y-166 Z2
G01 X382 Y-166 Z0
G01 X381 Y-166 Z2
G01 X242 Y-166 Z2
G01 X241 Y-166 Z0
G01 X223 Y-166 Z0
G01 X222 Y-166 Z2
G01 X131 Y-166 Z2
G01 X130 Y-166 Z0
G01 X129 Y-166 Z2
G01 X128 Y-166 Z2
G01 X127 Y-166 Z0
G01 X113 Y-166 Z0
G01 X112 Y-166 Z2
G01 X0 Y-166 Z2
G01 X0 Y-167 Z2
G01 X0 Y-168 Z2
G01 X0 Y-169 Z2
G01 X110 Y-169 Z2
G01 X111 Y-169 Z0
G01 X127 Y-169 Z0
G01 X128 Y-169 Z2
G01 X225 Y-169 Z2
G01 X226 Y-169 Z0
G01 X242 Y-169 Z0
G01 X243 Y-169 Z2
G01 X380 Y-169 Z2
G01 X381 Y-169 Z0
G01 X402 Y-169 Z0
G01 X403 Y-169 Z2
G01 X542 Y-169 Z2
G01 X543 Y-169 Z0
G01 X584 Y-169 Z0
G01 X585 Y-169 Z2
G01 X586 Y-169 Z2
G01 X587 Y-169 Z0
G01 X588 Y-169 Z2
G01 X699 Y-169 Z2
G01 X699 Y-170 Z2
G01 X699 Y-171 Z2
G01 X699 Y-172 Z2
G01 X591 Y-172 Z2
G01 X590 Y-172 Z0
G01 X543 Y-172 Z0
G01 X542 Y-172 Z2
G01 X403 Y-172 Z2
G01 X402 Y-172 Z0
G01 X381 Y-172 Z0
G01 X380 Y-172 Z2
G01 X243 Y-172 Z2
G01 X242 Y-172 Z0
G01 X229 Y-172 Z0
G01 X228 Y-172 Z2
G01 X123 Y-172 Z2
G01 X122 Y-172 Z0
G01 X109 Y-172 Z0
G01 X108 Y-172 Z2
G01 X0 Y-172 Z2
G01 X0 Y-173 Z2
G01 X0 Y-174 Z2
G01 X0 Y-175 Z2
G01 X109 Y-175 Z2
G01 X110 Y-175 Z0
G01 X121 Y-175 Z0
G01 X122 Y-175 Z2
G01 X231 Y-175 Z2
G01 X232 Y-175 Z0
G01 X243 Y-175 Z0
G01 X244 Y-175 Z2
G01 X379 Y-175 Z2
G01 X380 Y-175 Z0
G01 X402 Y-175 Z0
G01 X403 Y-175 Z2
G01 X542 Y-175 Z2
G01 X543 Y-175 Z0
G01 X593 Y-175 Z0
G01 X594 Y-175 Z2
G01 X699 Y-175 Z2
G01 X699 Y-176 Z2
G01 X699 Y-177 Z2
G01 X699 Y-178 Z2
G01 X596 Y-178 Z2
G01 X595 Y-178 Z0
G01 X543 Y-178 Z0
G01 X542 Y-178 Z2
G01 X403 Y-178 Z2
G01 X402 Y-178 Z0
G01 X385 Y-178 Z0
G01 X384 Y-178 Z2
G01 X383 Y-178 Z2
G01 X382 Y-178 Z0
G01 X379 Y-178 Z0
G01 X378 Y-178 Z2
G01 X245 Y-178 Z2
G01 X244 Y-178 Z0
G01 X234 Y-178 Z0
G01 X233 Y-178 Z2
G01 X120 Y-178 Z2
G01 X119 Y-178 Z0
G01 X114 Y-178 Z0
G01 X113 Y-178 Z2
G01 X112 Y-178 Z2
G01 X111 Y-178 Z0
G01 X105 Y-178 Z0
G01 X104 Y-178 Z2
G01 X0 Y-178 Z2
G01 X0 Y-179 Z2
G01 X0 Y-180 Z2
G01 X0 Y-181 Z2
G01 X101 Y-181 Z2
G01 X102 Y-181 Z0
G01 X117 Y-181 Z0
G01 X118 Y-181 Z2
G01 X235 Y-181 Z2
G01 X236 Y-181 Z0
G01 X239 Y-181 Z0
G01 X240 Y-181 Z2
G01 X241 Y-181 Z2
G01 X242 Y-181 Z0
G01 X243 Y-181 Z0
G01 X244 Y-181 Z2
G01 X377 Y-181 Z2
G01 X378 Y-181 Z0
G01 X382 Y-181 Z0
G01 X383 Y-181 Z2
G01 X384 Y-181 Z2
G01 X385 Y-181 Z0
G01 X402 Y-181 Z0
G01 X403 Y-181 Z2
G01 X542 Y-181 Z2
G01 X543 Y-181 Z0
G01 X597 Y-181 Z0
G01 X598 Y-181 Z2
G01 X699 Y-181 Z2
G01 X699 Y-182 Z2
G01 X699 Y-183 Z2
G01 X699 Y-184 Z2
G01 X600 Y-184 Z2
G01 X599 Y-184 Z0
G01 X586 Y-184 Z0
G01 X585 Y-184 Z2
G01 X584 Y-184 Z2
G01 X583 Y-184 Z0
G01 X543 Y-184 Z0
G01 X542 Y-184 Z2
G01 X403 Y-184 Z2
G01 X402 Y-184 Z0
G01 X377 Y-184 Z0
G01 X376 Y-184 Z2
G01 X247 Y-184 Z2
G01 X246 Y-184 Z0
G01 X238 Y-184 Z0
G01 X237 Y-184 Z2
G01 X116 Y-184 Z2
G01 X115 Y-184 Z0
G01 X104 Y-184 Z0
G01 X103 Y-184 Z2
G01 X102 Y-184 Z2
G01 X101 Y-184 Z0
G01 X100 Y-184 Z2
G01 X0 Y-184 Z2
G01 X0 Y-185 Z2
G01 X0 Y-186 Z2
G01 X0 Y-187 Z2
G01 X97 Y-187 Z2
G01 X98 Y-187 Z0
G01 X113 Y-187 Z0
G01 X114 Y-187 Z2
G01 X239 Y-187 Z2
G01 X240 Y-187 Z0
G01 X246 Y-187 Z0
G01 X247 Y-187 Z2
G01 X375 Y-187 Z2
G01 X376 Y-187 Z0
G01 X403 Y-187 Z0
G01 X404 Y-187 Z2
G01 X541 Y-187 Z2
G01 X542 Y-187 Z0
G01 X563 Y-187 Z0
G01 X564 Y-187 Z2
G01 X565 Y-187 Z2
G01 X566 Y-187 Z0
G01 X567 Y-187 Z2
G01 X584 Y-187 Z2
G01 X585 Y-187 Z0
G01 X601 Y-187 Z0
G01 X602 Y-187 Z2
G01 X699 Y-187 Z2
G01 X699 Y-188 Z2
G01 X699 Y-189 Z2
G01 X699 Y-190 Z2
G01 X602 Y-190 Z2
G01 X601 Y-190 Z0
G01 X590 Y-190 Z0
G01 X589 Y-190 Z2
G01 X562 Y-190 Z2
G01 X561 Y-190 Z0
G01 X544 Y-190 Z0
G01 X543 Y-190 Z2
G01 X404 Y-190 Z2
G01 X403 Y-190 Z0
G01 X374 Y-190 Z0
G01 X373 Y-190 Z2
G01 X250 Y-190 Z2
G01 X249 Y-190 Z0
G01 X241 Y-190 Z0
G01 X240 Y-190 Z2
G01 X113 Y-190 Z2
G01 X112 Y-190 Z0
G01 X101 Y-190 Z0
G01 X100 Y-190 Z2
G01 X99 Y-190 Z2
G01 X98 Y-190 Z0
G01 X97 Y-190 Z0
G01 X96 Y-190 Z2
G01 X0 Y-190 Z2
G01 X0 Y-191 Z2
G01 X0 Y-192 Z2
G01 X0 Y-193 Z2
G01 X93 Y-193 Z2
G01 X94 Y-193 Z0
G01 X103 Y-193 Z0
G01 X104 Y-193 Z2
G01 X105 Y-193 Z2
G01 X106 Y-193 Z0
G01 X111 Y-193 Z0
G01 X112 Y-193 Z2
G01 X242 Y-193 Z2
G01 X243 Y-193 Z0
G01 X245 Y-193 Z0
G01 X246 Y-193 Z2
G01 X248 Y-193 Z2
G01 X249 Y-193 Z0
G01 X250 Y-193 Z2
G01 X372 Y-193 Z2
G01 X373 Y-193 Z0
G01 X374 Y-193 Z2
G01 X375 Y-193 Z2
G01 X376 Y-193 Z0
G01 X404 Y-193 Z0
G01 X405 Y-193 Z2
G01 X540 Y-193 Z2
G01 X541 Y-193 Z0
G01 X559 Y-193 Z0
G01 X560 Y-193 Z2
G01 X591 Y-193 Z2
G01 X592 Y-193 Z0
G01 X605 Y-193 Z0
G01 X606 Y-193 Z2
G01 X699 Y-193 Z2
G01 X699 Y-194 Z2
G01 X699 Y-195 Z2
G01 X699 Y-196 Z2
G01 X607 Y-196 Z2
G01 X606 Y-196 Z0
G01 X605 Y-196 Z2
G01 X604 Y-196 Z2
G01 X603 Y-196 Z0
G01 X594 Y-196 Z0
G01 X593 Y-196 Z2
G01 X558 Y-196 Z2
G01 X557 Y-196 Z0
G01 X555 Y-196 Z0
G01 X554 Y-196 Z2
G01 X553 Y-196 Z2
G01 X552 Y-196 Z0
G01 X540 Y-196 Z0
G01 X539 Y-196 Z2
G01 X406 Y-196 Z2
G01 X405 Y-196 Z0
G01 X370 Y-196 Z0
G01 X369 Y-196 Z2
G01 X254 Y-196 Z2
G01 X253 Y-196 Z0
G01 X243 Y-196 Z0
G01 X242 Y-196 Z2
G01 X111 Y-196 Z2
G01 X110 Y-196 Z0
G01 X93 Y-196 Z0
G01 X92 Y-196 Z2
G01 X0 Y-196 Z2
G01 X0 Y-197 Z2
G01 X0 Y-198 Z2
G01 X0 Y-199 Z2
G01 X90 Y-199 Z2
G01 X91 Y-199 Z0
G01 X94 Y-199 Z0
G01 X95 Y-199 Z2
G01 X96 Y-199 Z2
G01 X97 Y-199 Z0
G01 X109 Y-199 Z0
G01 X110 Y-199 Z2
G01 X243 Y-199 Z2
G01 X244 Y-199 Z0
G01 X248 Y-199 Z0
G01 X249 Y-199 Z2
G01 X250 Y-199 Z2
G01 X251 Y-199 Z0
G01 X255 Y-199 Z0
G01 X256 Y-199 Z2
G01 X368 Y-199 Z2
G01 X369 Y-199 Z0
G01 X399 Y-199 Z0
G01 X400 Y-199 Z2
G01 X401 Y-199 Z2
G01 X402 Y-199 Z0
G01 X406 Y-199 Z0
G01 X407 Y-199 Z2
G01 X538 Y-199 Z2
G01 X539 Y-199 Z0
G01 X555 Y-199 Z0
G01 X556 Y-199 Z2
G01 X597 Y-199 Z2
G01 X598 Y-199 Z0
G01 X606 Y-199 Z0
G01 X607 Y-199 Z2
G01 X699 Y-199 Z2
G01 X699 Y-200 Z2
G01 X699 Y-201 Z2
G01 X699 Y-202 Z2
G01 X611 Y-202 Z2
G01 X610 Y-202 Z0
G01 X596 Y-202 Z0
G01 X595 Y-202 Z2
G01 X556 Y-202 Z2
G01 X555 Y-202 Z0
G01 X538 Y-202 Z0
G01 X537 Y-202 Z2
G01 X408 Y-202 Z2
G01 X407 Y-202 Z0
G01 X365 Y-202 Z0
G01 X364 Y-202 Z2
G01 X259 Y-202 Z2
G01 X258 Y-202 Z0
G01 X245 Y-202 Z0
G01 X244 Y-202 Z2
G01 X109 Y-202 Z2
G01 X108 Y-202 Z0
G01 X89 Y-202 Z0
G01 X88 Y-202 Z2
G01 X0 Y-202 Z2
G01 X0 Y-203 Z2
G01 X0 Y-204 Z2
G01 X0 Y-205 Z2
G01 X86 Y-205 Z2
G01 X87 Y-205 Z0
G01 X94 Y-205 Z0
G01 X95 Y-205 Z2
G01 X96 Y-205 Z2
G01 X97 Y-205 Z0
G01 X107 Y-205 Z0
G01 X108 Y-205 Z2
G01 X245 Y-205 Z2
G01 X246 Y-205 Z0
G01 X247 Y-205 Z2
G01 X248 Y-205 Z2
G01 X249 Y-205 Z0
G01 X258 Y-205 Z0
G01 X259 Y-205 Z2
G01 X260 Y-205 Z2
G01 X261 Y-205 Z0
G01 X262 Y-205 Z2
G01 X363 Y-205 Z2
G01 X364 Y-205 Z0
G01 X409 Y-205 Z0
G01 X410 Y-205 Z2
G01 X539 Y-205 Z2
